(G-CODE GENERATED BY FLATCAM v8.991 - www.flatcam.org - Version Date: 2019/12/30)

(Name: Cncjob_Bottom_Copper_straightend)
(Type: G-code from Geometry)
(Units: MM)

(Created on Monday, 13 February 2023 at 22:53)

(TOOL DIAMETER: 1.5 mm)
(Feedrate: 1250.0 mm/min)
(Feedrate_Z: 250.0 mm/min)
(Feedrate rapids 1500.0 mm/min)

(Z_Cut: -0.04 mm)
(Z_Move: 0.5 mm)
(Z Toolchange: 15.0 mm)
(X,Y Toolchange: 0.0000, 0.0000 mm)
(Z Start: 0.5 mm)
(Z End: 2.0 mm)
(Steps per circle: 64)
(Preprocessor Geometry: default)

(X range:   22.7895 ...   97.9005  mm)
(Y range:    2.7475 ...   77.3435  mm)

(Spindle Speed: None RPM)
G21
G90
G94




G01 F1250.00
G00 Z0.5000
G00 Z0.5000
M03
G4 P1.0
G00 X74.5848 Y19.4965
G01 F250.00
G01 Z-0.0400
G01 F1250.00
G01 X74.6623 Y19.4847
G01 X74.6818 Y19.4828
G01 X74.7369 Y19.4794
G01 X74.7466 Y19.4792
G01 X75.6741 Y19.4790
G01 X75.6620 Y19.4618
G01 X75.6490 Y19.4424
G01 X75.6343 Y19.4191
G01 X75.5791 Y19.3272
G01 X75.5681 Y19.3083
G01 X75.5544 Y19.2832
G01 X75.5379 Y19.2508
G01 X75.4867 Y19.1422
G01 X75.4755 Y19.1164
G01 X75.4651 Y19.0904
G01 X75.4576 Y19.0703
G01 X75.4246 Y18.9779
G01 X75.4120 Y18.9403
G01 X75.4054 Y18.9183
G01 X75.3997 Y18.8972
G01 X75.3719 Y18.7862
G01 X75.3636 Y18.7489
G01 X75.3576 Y18.7155
G01 X75.3399 Y18.5964
G01 X75.3370 Y18.5740
G01 X75.3347 Y18.5510
G01 X75.3320 Y18.5125
G01 X75.3266 Y18.4004
G01 X75.3261 Y18.3587
G01 X75.3272 Y18.3214
G01 X75.3325 Y18.2139
G01 X75.3342 Y18.1900
G01 X75.3365 Y18.1666
G01 X75.3411 Y18.1307
G01 X75.3588 Y18.0134
G01 X75.3651 Y17.9801
G01 X75.3725 Y17.9471
G01 X75.3997 Y17.8387
G01 X75.4067 Y17.8133
G01 X75.4135 Y17.7907
G01 X75.4246 Y17.7580
G01 X75.4651 Y17.6455
G01 X75.4784 Y17.6127
G01 X75.4867 Y17.5937
G01 X75.4992 Y17.5670
G01 X74.7367 Y17.5670
G01 X74.7643 Y17.6258
G01 X74.7746 Y17.6495
G01 X74.7850 Y17.6755
G01 X74.8255 Y17.7880
G01 X74.8365 Y17.8207
G01 X74.8434 Y17.8433
G01 X74.8504 Y17.8687
G01 X74.8776 Y17.9771
G01 X74.8850 Y18.0101
G01 X74.8913 Y18.0434
G01 X74.9089 Y18.1607
G01 X74.9136 Y18.1966
G01 X74.9158 Y18.2200
G01 X74.9176 Y18.2439
G01 X74.9229 Y18.3514
G01 X74.9240 Y18.3887
G01 X74.9235 Y18.4304
G01 X74.9181 Y18.5425
G01 X74.9158 Y18.5760
G01 X74.9136 Y18.5993
G01 X74.9108 Y18.6217
G01 X74.8945 Y18.7323
G01 X74.8913 Y18.7525
G01 X74.8864 Y18.7789
G01 X74.8805 Y18.8064
G01 X74.8525 Y18.9188
G01 X74.8434 Y18.9527
G01 X74.8365 Y18.9752
G01 X74.8287 Y18.9987
G01 X74.7924 Y19.1003
G01 X74.7850 Y19.1204
G01 X74.7746 Y19.1464
G01 X74.7633 Y19.1722
G01 X74.7121 Y19.2808
G01 X74.6957 Y19.3132
G01 X74.6820 Y19.3383
G01 X74.6709 Y19.3572
G01 X74.6205 Y19.4414
G01 X74.6037 Y19.4684
G01 X74.5848 Y19.4965
G00 Z0.5000
G00 X97.0510 Y69.1271
G01 F250.00
G01 Z-0.0400
G01 F1250.00
G01 X97.0510 Y76.4940
G01 X23.6390 Y76.4940
G01 X23.6390 Y69.1271
G01 X97.0510 Y69.1271
G01 X96.5410 Y69.6371
G01 X96.5410 Y75.9840
G01 X24.1490 Y75.9840
G01 X24.1490 Y69.6371
G01 X96.5410 Y69.6371
G01 X96.0310 Y70.1471
G01 X96.0310 Y75.4740
G01 X24.6590 Y75.4740
G01 X24.6590 Y70.1471
G01 X96.0310 Y70.1471
G01 X95.5210 Y70.6571
G01 X95.5210 Y74.9640
G01 X25.1690 Y74.9640
G01 X25.1690 Y70.6571
G01 X95.5210 Y70.6571
G01 X95.0110 Y71.1671
G01 X95.0110 Y74.4540
G01 X25.6790 Y74.4540
G01 X25.6790 Y71.1671
G01 X95.0110 Y71.1671
G01 X94.5010 Y71.6771
G01 X94.5010 Y73.9440
G01 X26.1890 Y73.9440
G01 X26.1890 Y71.6771
G01 X94.5010 Y71.6771
G01 X93.9910 Y72.1871
G01 X93.9910 Y73.4340
G01 X26.6990 Y73.4340
G01 X26.6990 Y72.1871
G01 X93.9910 Y72.1871
G01 X93.4810 Y72.6971
G01 X93.4810 Y72.9240
G01 X27.2090 Y72.9240
G01 X27.2090 Y72.6971
G01 X93.4810 Y72.6971
G00 Z0.5000
M05
G00 Z0.5000
G00 Z2.00
G00 X0.0 Y0.0

