(G-CODE GENERATED BY FLATCAM v8.991 - www.flatcam.org - Version Date: 2019/12/30)

(Name: Cncjob_Bottom_Copper_pyramidal)
(Type: G-code from Geometry)
(Units: MM)

(Created on Monday, 13 February 2023 at 22:53)

(TOOL DIAMETER: 0.199 mm)
(Feedrate: 2500.0 mm/min)
(Feedrate_Z: 250.0 mm/min)
(Feedrate rapids 1500.0 mm/min)

(Z_Cut: -0.04 mm)
(Z_Move: 0.5 mm)
(Z Toolchange: 15.0 mm)
(X,Y Toolchange: 0.0000, 0.0000 mm)
(Z Start: 0.5 mm)
(Z End: 2.0 mm)
(Steps per circle: 64)
(Preprocessor Geometry: default)

(X range:   22.7895 ...   97.9005  mm)
(Y range:    2.7475 ...   77.3435  mm)

(Spindle Speed: None RPM)
G21
G90
G94




G01 F2500.00
G00 Z0.5000
G00 Z0.5000
M03
G4 P1.0
G00 X31.9845 Y7.4355
G01 F250.00
G01 Z-0.0400
G01 F2500.00
G01 X31.9845 Y9.7904
G01 X31.9986 Y9.7943
G01 X32.0076 Y9.7980
G01 X32.0124 Y9.8005
G01 X32.0206 Y9.8054
G01 X32.0319 Y9.8142
G01 X32.0418 Y9.8247
G01 X32.0475 Y9.8323
G01 X32.0504 Y9.8368
G01 X32.0550 Y9.8454
G01 X32.0602 Y9.8589
G01 X32.0635 Y9.8734
G01 X32.0645 Y9.8843
G01 X32.0645 Y10.0385
G01 X32.8299 Y10.0386
G01 X32.8396 Y10.0395
G01 X32.8492 Y10.0414
G01 X32.8586 Y10.0443
G01 X32.8709 Y10.0497
G01 X32.8806 Y10.0554
G01 X32.8887 Y10.0615
G01 X32.8945 Y10.0667
G01 X32.9027 Y10.0758
G01 X32.9084 Y10.0836
G01 X32.9131 Y10.0917
G01 X32.9187 Y10.1044
G01 X32.9216 Y10.1138
G01 X32.9229 Y10.1200
G01 X32.9240 Y10.1272
G01 X32.9245 Y10.1380
G01 X32.9245 Y11.2605
G01 X32.9516 Y11.4408
G01 X33.0226 Y11.6094
G01 X33.1314 Y11.7636
G01 X35.0754 Y13.7076
G01 X35.0827 Y13.7158
G01 X35.0904 Y13.7268
G01 X35.0965 Y13.7389
G01 X35.1002 Y13.7489
G01 X35.1035 Y13.7634
G01 X35.1045 Y13.7780
G01 X35.1045 Y17.5285
G01 X36.1950 Y17.5285
G01 X36.2042 Y17.5289
G01 X36.2149 Y17.5305
G01 X36.2236 Y17.5326
G01 X36.5156 Y17.6203
G01 X36.8152 Y17.6577
G01 X37.1241 Y17.6203
G01 X37.4055 Y17.5329
G01 X37.4142 Y17.5307
G01 X37.4262 Y17.5288
G01 X37.4350 Y17.5285
G01 X38.4655 Y17.5285
G01 X38.4655 Y13.0375
G01 X36.3950 Y13.0375
G01 X36.3804 Y13.0364
G01 X36.3708 Y13.0345
G01 X36.3658 Y13.0331
G01 X36.3524 Y13.0278
G01 X36.3476 Y13.0254
G01 X36.3394 Y13.0205
G01 X36.3331 Y13.0158
G01 X36.3245 Y13.0081
G01 X34.3345 Y11.0081
G01 X34.3273 Y11.0001
G01 X34.3231 Y10.9944
G01 X34.3196 Y10.9890
G01 X34.3150 Y10.9804
G01 X34.3124 Y10.9743
G01 X34.3099 Y10.9670
G01 X34.3066 Y10.9525
G01 X34.3055 Y10.9380
G01 X34.3055 Y10.1380
G01 X34.3061 Y10.1272
G01 X34.3072 Y10.1200
G01 X34.3099 Y10.1089
G01 X34.3137 Y10.0985
G01 X34.3173 Y10.0909
G01 X34.3220 Y10.0832
G01 X34.3273 Y10.0758
G01 X34.3356 Y10.0667
G01 X34.3413 Y10.0615
G01 X34.3494 Y10.0554
G01 X34.3591 Y10.0497
G01 X34.3665 Y10.0462
G01 X34.3768 Y10.0426
G01 X34.3860 Y10.0403
G01 X34.3950 Y10.0390
G01 X34.4033 Y10.0385
G01 X39.4855 Y10.0385
G01 X39.4855 Y9.8880
G01 X39.4861 Y9.8772
G01 X39.4872 Y9.8700
G01 X39.4899 Y9.8589
G01 X39.4937 Y9.8485
G01 X39.4997 Y9.8368
G01 X39.5051 Y9.8287
G01 X39.5113 Y9.8211
G01 X39.5182 Y9.8142
G01 X39.5258 Y9.8080
G01 X39.5355 Y9.8017
G01 X39.5355 Y7.4242
G01 X39.5258 Y7.4179
G01 X39.5182 Y7.4117
G01 X39.5113 Y7.4048
G01 X39.5051 Y7.3972
G01 X39.4997 Y7.3891
G01 X39.4936 Y7.3772
G01 X39.4898 Y7.3667
G01 X39.4872 Y7.3560
G01 X39.4861 Y7.3487
G01 X39.4855 Y7.3380
G01 X39.4855 Y7.1875
G01 X38.7124 Y7.1874
G01 X38.7054 Y7.1870
G01 X38.6952 Y7.1855
G01 X38.6864 Y7.1832
G01 X38.6765 Y7.1797
G01 X38.6688 Y7.1760
G01 X38.6597 Y7.1707
G01 X38.6513 Y7.1644
G01 X38.6453 Y7.1590
G01 X38.6372 Y7.1499
G01 X38.6317 Y7.1423
G01 X38.6270 Y7.1344
G01 X38.6236 Y7.1272
G01 X38.6214 Y7.1215
G01 X38.6185 Y7.1121
G01 X38.6166 Y7.1026
G01 X38.6157 Y7.0928
G01 X38.6157 Y6.4531
G01 X38.6172 Y6.4398
G01 X38.6185 Y6.4338
G01 X38.6214 Y6.4244
G01 X38.6237 Y6.4185
G01 X38.6273 Y6.4109
G01 X38.6321 Y6.4030
G01 X38.6373 Y6.3958
G01 X38.6413 Y6.3911
G01 X38.6482 Y6.3842
G01 X38.6597 Y6.3752
G01 X38.6691 Y6.3697
G01 X38.6769 Y6.3661
G01 X38.6909 Y6.3614
G01 X38.7004 Y6.3595
G01 X38.7150 Y6.3585
G01 X40.1250 Y6.3585
G01 X40.1396 Y6.3595
G01 X40.1537 Y6.3627
G01 X40.1586 Y6.3643
G01 X40.1676 Y6.3680
G01 X40.1803 Y6.3752
G01 X40.1887 Y6.3815
G01 X40.1954 Y6.3876
G01 X42.9018 Y9.0940
G01 X43.0467 Y9.2118
G01 X43.2096 Y9.2803
G01 X43.3998 Y9.2985
G01 X51.6050 Y9.2985
G01 X51.6151 Y9.2990
G01 X51.6249 Y9.3005
G01 X51.6341 Y9.3028
G01 X51.6436 Y9.3062
G01 X51.6509 Y9.3097
G01 X51.6606 Y9.3154
G01 X51.6687 Y9.3215
G01 X51.6754 Y9.3276
G01 X52.5988 Y10.2511
G01 X52.6070 Y10.2615
G01 X52.6127 Y10.2709
G01 X52.6177 Y10.2816
G01 X52.6203 Y10.2892
G01 X52.6229 Y10.3000
G01 X52.6244 Y10.3132
G01 X52.6244 Y10.3230
G01 X52.6229 Y10.3359
G01 X52.6202 Y10.3470
G01 X52.6169 Y10.3562
G01 X52.5669 Y10.4762
G01 X52.5629 Y10.4846
G01 X52.5581 Y10.4927
G01 X52.5510 Y10.5023
G01 X52.5418 Y10.5118
G01 X52.5342 Y10.5179
G01 X52.5261 Y10.5233
G01 X52.5175 Y10.5279
G01 X52.5085 Y10.5317
G01 X52.4992 Y10.5345
G01 X52.4851 Y10.5369
G01 X52.4750 Y10.5375
G01 X50.9745 Y10.5375
G01 X50.9745 Y12.7885
G01 X52.5755 Y12.7885
G01 X52.5755 Y10.6380
G01 X52.5761 Y10.6272
G01 X52.5785 Y10.6138
G01 X52.5813 Y10.6045
G01 X52.5851 Y10.5955
G01 X52.5896 Y10.5869
G01 X52.5973 Y10.5758
G01 X52.6056 Y10.5667
G01 X52.6156 Y10.5581
G01 X52.6237 Y10.5527
G01 X52.6363 Y10.5463
G01 X52.7593 Y10.4951
G01 X52.7660 Y10.4928
G01 X52.7767 Y10.4902
G01 X52.7862 Y10.4888
G01 X52.7959 Y10.4885
G01 X52.8056 Y10.4890
G01 X52.8151 Y10.4905
G01 X52.8203 Y10.4917
G01 X52.8298 Y10.4947
G01 X52.8390 Y10.4987
G01 X52.8437 Y10.5011
G01 X52.8519 Y10.5063
G01 X52.8591 Y10.5118
G01 X52.8670 Y10.5193
G01 X53.0688 Y10.7307
G01 X53.1750 Y10.7990
G01 X53.1892 Y10.8014
G01 X53.1986 Y10.8043
G01 X53.2036 Y10.8062
G01 X53.2162 Y10.8126
G01 X53.2243 Y10.8180
G01 X53.2287 Y10.8215
G01 X53.2388 Y10.8311
G01 X53.2450 Y10.8387
G01 X53.2504 Y10.8468
G01 X53.2550 Y10.8554
G01 X53.2587 Y10.8644
G01 X53.2616 Y10.8738
G01 X53.2629 Y10.8800
G01 X53.2640 Y10.8872
G01 X53.2645 Y10.8980
G01 X53.2645 Y12.7885
G01 X54.8655 Y12.7885
G01 X54.8655 Y10.5375
G01 X54.8402 Y10.5373
G01 X54.8304 Y10.5364
G01 X54.8209 Y10.5345
G01 X54.8115 Y10.5316
G01 X54.7991 Y10.5262
G01 X54.7894 Y10.5205
G01 X54.7813 Y10.5144
G01 X54.7756 Y10.5092
G01 X54.7673 Y10.5001
G01 X54.7597 Y10.4891
G01 X54.7551 Y10.4805
G01 X54.7514 Y10.4715
G01 X54.7485 Y10.4621
G01 X54.7461 Y10.4487
G01 X54.7455 Y10.4380
G01 X54.7457 Y9.7331
G01 X54.7472 Y9.7200
G01 X54.7499 Y9.7089
G01 X54.7551 Y9.6954
G01 X54.7620 Y9.6832
G01 X54.7673 Y9.6758
G01 X54.7713 Y9.6711
G01 X54.7813 Y9.6615
G01 X54.7858 Y9.6580
G01 X54.7939 Y9.6526
G01 X54.8055 Y9.6466
G01 X54.8055 Y7.5875
G01 X53.3045 Y7.5875
G01 X53.3045 Y7.8280
G01 X53.3035 Y7.8426
G01 X53.3003 Y7.8567
G01 X53.2950 Y7.8705
G01 X53.2904 Y7.8791
G01 X53.2850 Y7.8872
G01 X53.2788 Y7.8948
G01 X53.2747 Y7.8990
G01 X53.2643 Y7.9079
G01 X53.2562 Y7.9133
G01 X53.2509 Y7.9162
G01 X53.2386 Y7.9216
G01 X53.2333 Y7.9234
G01 X53.2245 Y7.9255
G01 X53.2147 Y7.9270
G01 X53.2077 Y7.9274
G01 X43.7150 Y7.9275
G01 X43.7054 Y7.9270
G01 X43.6952 Y7.9255
G01 X43.6864 Y7.9232
G01 X43.6815 Y7.9216
G01 X43.6725 Y7.9179
G01 X43.6597 Y7.9107
G01 X43.6513 Y7.9044
G01 X43.6460 Y7.8996
G01 X42.3947 Y6.6483
G01 X42.3851 Y6.6372
G01 X42.3772 Y6.6248
G01 X42.3713 Y6.6114
G01 X42.3685 Y6.6020
G01 X42.3672 Y6.5960
G01 X42.3657 Y6.5827
G01 X42.3657 Y6.5729
G01 X42.3661 Y6.5672
G01 X42.3686 Y6.5536
G01 X42.3723 Y6.5419
G01 X42.4232 Y6.4197
G01 X42.4274 Y6.4108
G01 X42.4320 Y6.4032
G01 X42.4352 Y6.3985
G01 X42.4414 Y6.3910
G01 X42.4483 Y6.3841
G01 X42.4559 Y6.3780
G01 X42.4680 Y6.3703
G01 X42.4765 Y6.3662
G01 X42.4868 Y6.3626
G01 X42.4956 Y6.3604
G01 X42.5054 Y6.3589
G01 X42.5150 Y6.3585
G01 X44.9455 Y6.3585
G01 X44.9455 Y2.7475
G01 X35.9945 Y2.7475
G01 X35.9945 Y6.3585
G01 X37.1477 Y6.3585
G01 X37.1596 Y6.3595
G01 X37.1737 Y6.3627
G01 X37.1786 Y6.3643
G01 X37.1876 Y6.3680
G01 X37.2003 Y6.3752
G01 X37.2087 Y6.3815
G01 X37.2188 Y6.3911
G01 X37.2250 Y6.3987
G01 X37.2284 Y6.4036
G01 X37.2330 Y6.4115
G01 X37.2387 Y6.4244
G01 X37.2416 Y6.4338
G01 X37.2440 Y6.4472
G01 X37.2445 Y6.4580
G01 X37.2444 Y7.0928
G01 X37.2435 Y7.1026
G01 X37.2416 Y7.1121
G01 X37.2387 Y7.1215
G01 X37.2364 Y7.1274
G01 X37.2327 Y7.1350
G01 X37.2280 Y7.1429
G01 X37.2227 Y7.1501
G01 X37.2188 Y7.1548
G01 X37.2119 Y7.1617
G01 X37.2043 Y7.1679
G01 X37.1962 Y7.1733
G01 X37.1909 Y7.1762
G01 X37.1832 Y7.1799
G01 X37.1733 Y7.1834
G01 X37.1645 Y7.1855
G01 X37.1547 Y7.1870
G01 X37.1450 Y7.1875
G01 X32.0645 Y7.1875
G01 X32.0645 Y7.3416
G01 X32.0635 Y7.3526
G01 X32.0603 Y7.3667
G01 X32.0550 Y7.3805
G01 X32.0504 Y7.3891
G01 X32.0474 Y7.3938
G01 X32.0418 Y7.4012
G01 X32.0319 Y7.4117
G01 X32.0278 Y7.4151
G01 X32.0200 Y7.4209
G01 X32.0076 Y7.4279
G01 X31.9986 Y7.4316
G01 X31.9845 Y7.4355
G00 Z0.5000
G00 X32.0522 Y7.4806
G01 F250.00
G01 Z-0.0400
G01 F2500.00
G01 X32.0522 Y9.7453
G01 X32.0634 Y9.7528
G01 X32.0761 Y9.7631
G01 X32.0844 Y9.7709
G01 X32.0951 Y9.7830
G01 X32.1046 Y9.7960
G01 X32.1119 Y9.8081
G01 X32.1169 Y9.8181
G01 X32.1230 Y9.8332
G01 X32.1268 Y9.8457
G01 X32.1292 Y9.8566
G01 X32.1306 Y9.8653
G01 X32.1319 Y9.8783
G01 X32.1322 Y9.8880
G01 X32.1322 Y9.9708
G01 X32.8250 Y9.9708
G01 X32.8402 Y9.9715
G01 X32.8566 Y9.9738
G01 X32.8722 Y9.9776
G01 X32.8881 Y9.9831
G01 X32.9040 Y9.9906
G01 X32.9125 Y9.9955
G01 X32.9197 Y10.0002
G01 X32.9331 Y10.0104
G01 X32.9432 Y10.0197
G01 X32.9503 Y10.0273
G01 X32.9563 Y10.0345
G01 X32.9657 Y10.0477
G01 X32.9721 Y10.0585
G01 X32.9767 Y10.0677
G01 X32.9817 Y10.0797
G01 X32.9854 Y10.0909
G01 X32.9890 Y10.1057
G01 X32.9911 Y10.1185
G01 X32.9921 Y10.1314
G01 X32.9922 Y11.2555
G01 X33.0172 Y11.4224
G01 X33.0821 Y11.5764
G01 X33.1834 Y11.7199
G01 X35.1232 Y13.6598
G01 X35.1303 Y13.6673
G01 X35.1363 Y13.6745
G01 X35.1439 Y13.6849
G01 X35.1477 Y13.6909
G01 X35.1521 Y13.6985
G01 X35.1567 Y13.7077
G01 X35.1617 Y13.7197
G01 X35.1644 Y13.7277
G01 X35.1677 Y13.7394
G01 X35.1702 Y13.7523
G01 X35.1719 Y13.7677
G01 X35.1722 Y13.7780
G01 X35.1722 Y17.4608
G01 X36.1950 Y17.4608
G01 X36.2090 Y17.4614
G01 X36.2266 Y17.4638
G01 X36.2421 Y17.4676
G01 X36.5297 Y17.5538
G01 X36.8154 Y17.5895
G01 X37.1099 Y17.5538
G01 X37.3867 Y17.4679
G01 X37.4020 Y17.4641
G01 X37.4120 Y17.4624
G01 X37.4215 Y17.4614
G01 X37.4350 Y17.4608
G01 X38.3979 Y17.4608
G01 X38.3979 Y13.1051
G01 X36.3927 Y13.1051
G01 X36.3799 Y13.1044
G01 X36.3644 Y13.1023
G01 X36.3526 Y13.0996
G01 X36.3400 Y13.0958
G01 X36.3296 Y13.0917
G01 X36.3170 Y13.0858
G01 X36.3074 Y13.0803
G01 X36.2965 Y13.0730
G01 X36.2842 Y13.0630
G01 X36.2765 Y13.0559
G01 X34.2865 Y11.0559
G01 X34.2758 Y11.0439
G01 X34.2680 Y11.0336
G01 X34.2607 Y11.0223
G01 X34.2546 Y11.0108
G01 X34.2490 Y10.9980
G01 X34.2456 Y10.9882
G01 X34.2424 Y10.9764
G01 X34.2399 Y10.9636
G01 X34.2387 Y10.9541
G01 X34.2379 Y10.9396
G01 X34.2379 Y10.1380
G01 X34.2382 Y10.1277
G01 X34.2399 Y10.1123
G01 X34.2424 Y10.0994
G01 X34.2456 Y10.0877
G01 X34.2507 Y10.0737
G01 X34.2547 Y10.0650
G01 X34.2624 Y10.0508
G01 X34.2697 Y10.0399
G01 X34.2798 Y10.0273
G01 X34.2869 Y10.0197
G01 X34.2938 Y10.0132
G01 X34.3039 Y10.0049
G01 X34.3131 Y9.9983
G01 X34.3261 Y9.9906
G01 X34.3389 Y9.9844
G01 X34.3505 Y9.9800
G01 X34.3630 Y9.9762
G01 X34.3746 Y9.9736
G01 X34.3866 Y9.9718
G01 X34.4010 Y9.9708
G01 X39.4179 Y9.9708
G01 X39.4180 Y9.8814
G01 X39.4187 Y9.8718
G01 X39.4199 Y9.8623
G01 X39.4233 Y9.8457
G01 X39.4271 Y9.8332
G01 X39.4307 Y9.8237
G01 X39.4347 Y9.8150
G01 X39.4408 Y9.8034
G01 X39.4465 Y9.7944
G01 X39.4537 Y9.7845
G01 X39.4598 Y9.7773
G01 X39.4679 Y9.7688
G01 X39.4679 Y7.4572
G01 X39.4597 Y7.4486
G01 X39.4535 Y7.4411
G01 X39.4462 Y7.4310
G01 X39.4407 Y7.4223
G01 X39.4346 Y7.4108
G01 X39.4306 Y7.4020
G01 X39.4271 Y7.3927
G01 X39.4233 Y7.3801
G01 X39.4199 Y7.3637
G01 X39.4187 Y7.3540
G01 X39.4180 Y7.3445
G01 X39.4179 Y7.2551
G01 X38.7150 Y7.2551
G01 X38.7005 Y7.2545
G01 X38.6835 Y7.2521
G01 X38.6729 Y7.2497
G01 X38.6652 Y7.2475
G01 X38.6489 Y7.2415
G01 X38.6386 Y7.2366
G01 X38.6308 Y7.2323
G01 X38.6168 Y7.2232
G01 X38.6095 Y7.2176
G01 X38.6018 Y7.2109
G01 X38.5897 Y7.1986
G01 X38.5835 Y7.1911
G01 X38.5762 Y7.1810
G01 X38.5707 Y7.1723
G01 X38.5646 Y7.1608
G01 X38.5606 Y7.1520
G01 X38.5555 Y7.1379
G01 X38.5524 Y7.1265
G01 X38.5504 Y7.1171
G01 X38.5490 Y7.1073
G01 X38.5480 Y7.0945
G01 X38.5479 Y6.4580
G01 X38.5482 Y6.4477
G01 X38.5490 Y6.4385
G01 X38.5505 Y6.4287
G01 X38.5533 Y6.4158
G01 X38.5571 Y6.4033
G01 X38.5620 Y6.3907
G01 X38.5685 Y6.3776
G01 X38.5749 Y6.3669
G01 X38.5815 Y6.3574
G01 X38.5898 Y6.3473
G01 X38.5989 Y6.3377
G01 X38.6070 Y6.3304
G01 X38.6168 Y6.3227
G01 X38.6277 Y6.3154
G01 X38.6391 Y6.3091
G01 X38.6525 Y6.3029
G01 X38.6658 Y6.2982
G01 X38.6760 Y6.2954
G01 X38.6889 Y6.2929
G01 X38.6972 Y6.2918
G01 X38.7150 Y6.2908
G01 X40.1286 Y6.2908
G01 X40.1396 Y6.2914
G01 X40.1514 Y6.2929
G01 X40.1642 Y6.2955
G01 X40.1749 Y6.2984
G01 X40.1831 Y6.3012
G01 X40.1952 Y6.3062
G01 X40.2044 Y6.3109
G01 X40.2165 Y6.3181
G01 X40.2306 Y6.3283
G01 X40.2432 Y6.3398
G01 X42.9471 Y9.0437
G01 X43.0819 Y9.1532
G01 X43.2263 Y9.2140
G01 X43.4030 Y9.2308
G01 X51.6050 Y9.2308
G01 X51.6202 Y9.2315
G01 X51.6366 Y9.2338
G01 X51.6522 Y9.2376
G01 X51.6681 Y9.2431
G01 X51.6810 Y9.2491
G01 X51.6970 Y9.2583
G01 X51.7106 Y9.2683
G01 X51.7226 Y9.2791
G01 X52.6432 Y10.1998
G01 X52.6503 Y10.2073
G01 X52.6563 Y10.2145
G01 X52.6639 Y10.2250
G01 X52.6732 Y10.2405
G01 X52.6798 Y10.2548
G01 X52.6846 Y10.2680
G01 X52.6890 Y10.2857
G01 X52.6911 Y10.2986
G01 X52.6921 Y10.3116
G01 X52.6919 Y10.3284
G01 X52.6911 Y10.3374
G01 X52.6890 Y10.3503
G01 X52.6867 Y10.3605
G01 X52.6829 Y10.3730
G01 X52.6793 Y10.3822
G01 X52.6426 Y10.4704
G01 X52.7378 Y10.4309
G01 X52.7479 Y10.4276
G01 X52.7565 Y10.4253
G01 X52.7729 Y10.4223
G01 X52.7862 Y10.4210
G01 X52.7981 Y10.4208
G01 X52.8112 Y10.4216
G01 X52.8271 Y10.4239
G01 X52.8395 Y10.4268
G01 X52.8522 Y10.4309
G01 X52.8629 Y10.4352
G01 X52.8751 Y10.4413
G01 X52.8850 Y10.4471
G01 X52.8959 Y10.4547
G01 X52.9041 Y10.4613
G01 X52.9138 Y10.4703
G01 X53.1122 Y10.6781
G01 X53.1999 Y10.7345
G01 X53.2154 Y10.7386
G01 X53.2311 Y10.7444
G01 X53.2410 Y10.7491
G01 X53.2492 Y10.7536
G01 X53.2634 Y10.7628
G01 X53.2731 Y10.7704
G01 X53.2808 Y10.7774
G01 X53.2875 Y10.7842
G01 X53.2942 Y10.7919
G01 X53.3005 Y10.8000
G01 X53.3057 Y10.8077
G01 X53.3121 Y10.8185
G01 X53.3155 Y10.8252
G01 X53.3195 Y10.8342
G01 X53.3230 Y10.8432
G01 X53.3277 Y10.8594
G01 X53.3297 Y10.8689
G01 X53.3311 Y10.8785
G01 X53.3319 Y10.8877
G01 X53.3322 Y10.8980
G01 X53.3322 Y12.7208
G01 X54.7979 Y12.7208
G01 X54.7979 Y10.5983
G01 X54.7870 Y10.5947
G01 X54.7724 Y10.5885
G01 X54.7609 Y10.5824
G01 X54.7504 Y10.5757
G01 X54.7395 Y10.5676
G01 X54.7292 Y10.5585
G01 X54.7198 Y10.5486
G01 X54.7115 Y10.5385
G01 X54.7043 Y10.5282
G01 X54.6980 Y10.5174
G01 X54.6918 Y10.5048
G01 X54.6871 Y10.4927
G01 X54.6833 Y10.4802
G01 X54.6804 Y10.4670
G01 X54.6787 Y10.4541
G01 X54.6779 Y10.4380
G01 X54.6779 Y9.7380
G01 X54.6782 Y9.7277
G01 X54.6790 Y9.7185
G01 X54.6804 Y9.7089
G01 X54.6847 Y9.6909
G01 X54.6907 Y9.6737
G01 X54.6969 Y9.6605
G01 X54.7047 Y9.6472
G01 X54.7137 Y9.6345
G01 X54.7198 Y9.6273
G01 X54.7269 Y9.6197
G01 X54.7379 Y9.6097
G01 X54.7379 Y7.6551
G01 X53.3722 Y7.6551
G01 X53.3722 Y7.8280
G01 X53.3719 Y7.8382
G01 X53.3702 Y7.8537
G01 X53.3668 Y7.8701
G01 X53.3630 Y7.8827
G01 X53.3566 Y7.8984
G01 X53.3516 Y7.9083
G01 X53.3452 Y7.9190
G01 X53.3386 Y7.9285
G01 X53.3303 Y7.9386
G01 X53.3211 Y7.9482
G01 X53.3131 Y7.9555
G01 X53.3061 Y7.9611
G01 X53.2965 Y7.9678
G01 X53.2892 Y7.9724
G01 X53.2777 Y7.9785
G01 X53.2675 Y7.9830
G01 X53.2543 Y7.9877
G01 X53.2440 Y7.9905
G01 X53.2312 Y7.9930
G01 X53.2196 Y7.9945
G01 X53.2103 Y7.9950
G01 X43.7150 Y7.9951
G01 X43.7005 Y7.9945
G01 X43.6835 Y7.9921
G01 X43.6684 Y7.9885
G01 X43.6520 Y7.9828
G01 X43.6386 Y7.9766
G01 X43.6235 Y7.9678
G01 X43.6095 Y7.9576
G01 X43.5968 Y7.9462
G01 X42.3423 Y6.6914
G01 X42.3356 Y6.6837
G01 X42.3301 Y6.6766
G01 X42.3228 Y6.6657
G01 X42.3184 Y6.6581
G01 X42.3129 Y6.6472
G01 X42.3090 Y6.6378
G01 X42.3055 Y6.6279
G01 X42.3033 Y6.6200
G01 X42.3004 Y6.6071
G01 X42.2990 Y6.5973
G01 X42.2982 Y6.5880
G01 X42.2979 Y6.5762
G01 X42.2982 Y6.5675
G01 X42.2995 Y6.5545
G01 X42.3011 Y6.5455
G01 X42.3034 Y6.5355
G01 X42.3072 Y6.5230
G01 X42.3104 Y6.5144
G01 X42.3634 Y6.3877
G01 X42.3671 Y6.3802
G01 X42.3725 Y6.3706
G01 X42.3798 Y6.3597
G01 X42.3859 Y6.3519
G01 X42.3971 Y6.3395
G01 X42.4097 Y6.3282
G01 X42.4244 Y6.3175
G01 X42.4376 Y6.3098
G01 X42.4520 Y6.3031
G01 X42.4689 Y6.2973
G01 X42.4840 Y6.2937
G01 X42.5005 Y6.2914
G01 X42.5150 Y6.2908
G01 X44.8779 Y6.2908
G01 X44.8779 Y2.8151
G01 X36.0622 Y2.8151
G01 X36.0622 Y6.2908
G01 X37.1503 Y6.2909
G01 X37.1629 Y6.2918
G01 X37.1766 Y6.2938
G01 X37.1872 Y6.2962
G01 X37.1997 Y6.3000
G01 X37.2111 Y6.3044
G01 X37.2244 Y6.3109
G01 X37.2365 Y6.3181
G01 X37.2461 Y6.3249
G01 X37.2531 Y6.3304
G01 X37.2611 Y6.3377
G01 X37.2675 Y6.3442
G01 X37.2745 Y6.3522
G01 X37.2805 Y6.3600
G01 X37.2857 Y6.3677
G01 X37.2935 Y6.3812
G01 X37.2981 Y6.3909
G01 X37.3017 Y6.3997
G01 X37.3068 Y6.4158
G01 X37.3102 Y6.4323
G01 X37.3114 Y6.4419
G01 X37.3121 Y6.4514
G01 X37.3122 Y7.0880
G01 X37.3119 Y7.0982
G01 X37.3102 Y7.1137
G01 X37.3077 Y7.1265
G01 X37.3046 Y7.1379
G01 X37.2993 Y7.1522
G01 X37.2931 Y7.1654
G01 X37.2876 Y7.1752
G01 X37.2786 Y7.1885
G01 X37.2703 Y7.1986
G01 X37.2583 Y7.2109
G01 X37.2506 Y7.2176
G01 X37.2433 Y7.2232
G01 X37.2292 Y7.2324
G01 X37.2150 Y7.2397
G01 X37.1996 Y7.2459
G01 X37.1911 Y7.2486
G01 X37.1793 Y7.2516
G01 X37.1629 Y7.2541
G01 X37.1459 Y7.2551
G01 X32.1322 Y7.2551
G01 X32.1322 Y7.3380
G01 X32.1319 Y7.3476
G01 X32.1306 Y7.3606
G01 X32.1292 Y7.3694
G01 X32.1268 Y7.3801
G01 X32.1230 Y7.3927
G01 X32.1169 Y7.4078
G01 X32.1117 Y7.4181
G01 X32.1045 Y7.4302
G01 X32.0951 Y7.4429
G01 X32.0847 Y7.4547
G01 X32.0759 Y7.4630
G01 X32.0658 Y7.4713
G01 X32.0522 Y7.4806
G01 X32.1199 Y7.5145
G01 X32.1199 Y7.5812
G01 X32.1266 Y7.5744
G01 X32.1358 Y7.5659
G01 X32.1439 Y7.5592
G01 X32.1542 Y7.5514
G01 X32.1635 Y7.5451
G01 X32.1734 Y7.5392
G01 X32.1846 Y7.5331
G01 X32.1941 Y7.5286
G01 X32.2053 Y7.5240
G01 X32.2163 Y7.5200
G01 X32.2278 Y7.5165
G01 X32.2380 Y7.5140
G01 X32.2499 Y7.5116
G01 X32.2616 Y7.5099
G01 X32.2832 Y7.5082
G01 X34.9400 Y7.5081
G01 X34.9519 Y7.5084
G01 X34.9668 Y7.5097
G01 X34.9785 Y7.5113
G01 X34.9903 Y7.5136
G01 X35.0023 Y7.5165
G01 X35.0137 Y7.5200
G01 X35.0252 Y7.5241
G01 X35.0364 Y7.5288
G01 X35.0488 Y7.5349
G01 X35.0603 Y7.5413
G01 X35.0696 Y7.5471
G01 X35.0797 Y7.5542
G01 X35.0892 Y7.5616
G01 X35.0987 Y7.5698
G01 X35.1071 Y7.5779
G01 X35.1160 Y7.5876
G01 X35.1239 Y7.5969
G01 X35.1299 Y7.6048
G01 X35.1411 Y7.6217
G01 X35.1507 Y7.6392
G01 X35.1588 Y7.6576
G01 X35.1630 Y7.6693
G01 X35.1660 Y7.6790
G01 X35.1705 Y7.6982
G01 X35.1723 Y7.7082
G01 X35.1738 Y7.7206
G01 X35.1748 Y7.7394
G01 X35.1748 Y9.4938
G01 X35.1739 Y9.5135
G01 X35.1714 Y9.5329
G01 X35.1695 Y9.5429
G01 X35.1665 Y9.5551
G01 X35.1600 Y9.5752
G01 X35.1546 Y9.5883
G01 X35.1483 Y9.6014
G01 X35.1409 Y9.6145
G01 X35.1317 Y9.6285
G01 X35.1213 Y9.6422
G01 X35.1116 Y9.6533
G01 X35.0996 Y9.6652
G01 X35.0891 Y9.6744
G01 X35.0768 Y9.6838
G01 X35.0618 Y9.6937
G01 X35.0486 Y9.7012
G01 X35.0357 Y9.7074
G01 X35.0224 Y9.7128
G01 X35.0100 Y9.7171
G01 X34.9970 Y9.7207
G01 X34.9782 Y9.7246
G01 X34.9608 Y9.7268
G01 X34.9406 Y9.7278
G01 X34.2300 Y9.7278
G01 X34.2300 Y9.9814
G01 X34.2382 Y9.9728
G01 X34.2465 Y9.9647
G01 X34.2564 Y9.9562
G01 X34.2662 Y9.9486
G01 X34.2754 Y9.9422
G01 X34.2862 Y9.9355
G01 X34.2975 Y9.9292
G01 X34.3074 Y9.9244
G01 X34.3175 Y9.9201
G01 X34.3295 Y9.9156
G01 X34.3411 Y9.9120
G01 X34.3515 Y9.9093
G01 X34.3632 Y9.9069
G01 X34.3782 Y9.9047
G01 X34.3900 Y9.9036
G01 X34.4012 Y9.9032
G01 X39.3502 Y9.9031
G01 X39.3504 Y9.8779
G01 X39.3519 Y9.8599
G01 X39.3549 Y9.8413
G01 X39.3576 Y9.8295
G01 X39.3609 Y9.8180
G01 X39.3684 Y9.7974
G01 X39.3773 Y9.7786
G01 X39.3828 Y9.7687
G01 X39.3883 Y9.7597
G01 X39.4002 Y9.7431
G01 X39.4002 Y9.6646
G01 X39.3851 Y9.6776
G01 X39.3768 Y9.6838
G01 X39.3668 Y9.6906
G01 X39.3486 Y9.7012
G01 X39.3294 Y9.7101
G01 X39.3100 Y9.7171
G01 X39.2897 Y9.7224
G01 X39.2782 Y9.7246
G01 X39.2678 Y9.7261
G01 X39.2557 Y9.7272
G01 X39.2456 Y9.7277
G01 X36.5883 Y9.7278
G01 X36.5779 Y9.7275
G01 X36.5640 Y9.7263
G01 X36.5519 Y9.7246
G01 X36.5387 Y9.7221
G01 X36.5256 Y9.7187
G01 X36.5134 Y9.7149
G01 X36.4999 Y9.7098
G01 X36.4866 Y9.7038
G01 X36.4744 Y9.6973
G01 X36.4633 Y9.6906
G01 X36.4504 Y9.6817
G01 X36.4410 Y9.6744
G01 X36.4318 Y9.6664
G01 X36.4217 Y9.6567
G01 X36.4137 Y9.6480
G01 X36.4050 Y9.6375
G01 X36.3983 Y9.6285
G01 X36.3923 Y9.6195
G01 X36.3827 Y9.6031
G01 X36.3751 Y9.5875
G01 X36.3677 Y9.5683
G01 X36.3627 Y9.5517
G01 X36.3587 Y9.5329
G01 X36.3563 Y9.5153
G01 X36.3552 Y9.4956
G01 X36.3552 Y7.7421
G01 X36.3563 Y7.7206
G01 X36.3578 Y7.7082
G01 X36.3595 Y7.6982
G01 X36.3641 Y7.6790
G01 X36.3671 Y7.6693
G01 X36.3713 Y7.6575
G01 X36.3773 Y7.6436
G01 X36.3854 Y7.6278
G01 X36.3922 Y7.6165
G01 X36.4002 Y7.6048
G01 X36.4101 Y7.5921
G01 X36.4219 Y7.5791
G01 X36.4318 Y7.5695
G01 X36.4439 Y7.5592
G01 X36.4556 Y7.5504
G01 X36.4688 Y7.5419
G01 X36.4816 Y7.5347
G01 X36.4958 Y7.5279
G01 X36.5095 Y7.5224
G01 X36.5261 Y7.5170
G01 X36.5397 Y7.5136
G01 X36.5550 Y7.5108
G01 X36.5741 Y7.5087
G01 X36.5896 Y7.5081
G01 X37.3200 Y7.5081
G01 X37.3200 Y7.2445
G01 X37.3111 Y7.2539
G01 X37.3037 Y7.2611
G01 X37.2937 Y7.2697
G01 X37.2837 Y7.2775
G01 X37.2741 Y7.2841
G01 X37.2638 Y7.2905
G01 X37.2526 Y7.2967
G01 X37.2438 Y7.3010
G01 X37.2335 Y7.3055
G01 X37.2223 Y7.3097
G01 X37.2106 Y7.3134
G01 X37.1989 Y7.3165
G01 X37.1876 Y7.3189
G01 X37.1761 Y7.3207
G01 X37.1645 Y7.3219
G01 X37.1495 Y7.3227
G01 X32.1999 Y7.3228
G01 X32.1995 Y7.3514
G01 X32.1985 Y7.3630
G01 X32.1967 Y7.3759
G01 X32.1945 Y7.3876
G01 X32.1907 Y7.4027
G01 X32.1867 Y7.4154
G01 X32.1815 Y7.4290
G01 X32.1766 Y7.4398
G01 X32.1706 Y7.4514
G01 X32.1645 Y7.4619
G01 X32.1553 Y7.4755
G01 X32.1474 Y7.4858
G01 X32.1380 Y7.4968
G01 X32.1291 Y7.5059
G01 X32.1199 Y7.5145
G01 X32.2485 Y7.4434
G01 X32.2632 Y7.4417
G01 X32.2815 Y7.4406
G01 X34.9417 Y7.4405
G01 X34.9586 Y7.4411
G01 X34.9739 Y7.4424
G01 X34.9891 Y7.4445
G01 X35.0044 Y7.4474
G01 X35.0197 Y7.4512
G01 X35.0345 Y7.4556
G01 X35.0492 Y7.4609
G01 X35.0620 Y7.4661
G01 X35.0762 Y7.4729
G01 X35.0906 Y7.4806
G01 X35.1031 Y7.4882
G01 X35.1159 Y7.4969
G01 X35.1284 Y7.5063
G01 X35.1407 Y7.5166
G01 X35.1520 Y7.5272
G01 X35.1620 Y7.5375
G01 X35.1712 Y7.5480
G01 X35.1784 Y7.5568
G01 X35.1869 Y7.5682
G01 X35.1947 Y7.5797
G01 X35.2023 Y7.5923
G01 X35.2081 Y7.6028
G01 X35.2142 Y7.6152
G01 X35.2191 Y7.6262
G01 X35.2235 Y7.6376
G01 X35.2284 Y7.6518
G01 X35.2318 Y7.6634
G01 X35.2355 Y7.6782
G01 X35.2384 Y7.6934
G01 X35.2403 Y7.7066
G01 X35.2414 Y7.7171
G01 X35.2423 Y7.7325
G01 X35.2425 Y9.4947
G01 X35.2422 Y9.5069
G01 X35.2413 Y9.5196
G01 X35.2396 Y9.5347
G01 X35.2380 Y9.5451
G01 X35.2355 Y9.5577
G01 X35.2318 Y9.5725
G01 X35.2284 Y9.5841
G01 X35.2235 Y9.5985
G01 X35.2164 Y9.6158
G01 X35.2085 Y9.6322
G01 X35.1998 Y9.6478
G01 X35.1912 Y9.6615
G01 X35.1789 Y9.6785
G01 X35.1677 Y9.6921
G01 X35.1567 Y9.7040
G01 X35.1442 Y9.7161
G01 X35.1317 Y9.7269
G01 X35.1166 Y9.7385
G01 X35.1031 Y9.7477
G01 X35.0882 Y9.7566
G01 X35.0734 Y9.7644
G01 X35.0559 Y9.7724
G01 X35.0386 Y9.7789
G01 X35.0210 Y9.7844
G01 X35.0001 Y9.7894
G01 X34.9827 Y9.7924
G01 X34.9610 Y9.7947
G01 X34.9434 Y9.7954
G01 X34.2977 Y9.7954
G01 X34.2977 Y9.8552
G01 X34.3085 Y9.8513
G01 X34.3225 Y9.8470
G01 X34.3344 Y9.8438
G01 X34.3493 Y9.8407
G01 X34.3630 Y9.8384
G01 X34.3764 Y9.8369
G01 X34.3912 Y9.8358
G01 X34.4044 Y9.8355
G01 X39.2872 Y9.8355
G01 X39.2922 Y9.8123
G01 X39.2990 Y9.7896
G01 X39.2844 Y9.7921
G01 X39.2695 Y9.7940
G01 X39.2545 Y9.7951
G01 X39.2400 Y9.7954
G01 X36.5900 Y9.7954
G01 X36.5756 Y9.7951
G01 X36.5605 Y9.7940
G01 X36.5448 Y9.7920
G01 X36.5300 Y9.7894
G01 X36.5137 Y9.7856
G01 X36.4982 Y9.7811
G01 X36.4837 Y9.7761
G01 X36.4687 Y9.7700
G01 X36.4549 Y9.7636
G01 X36.4395 Y9.7553
G01 X36.4270 Y9.7477
G01 X36.4142 Y9.7390
G01 X36.4017 Y9.7296
G01 X36.3899 Y9.7197
G01 X36.3782 Y9.7089
G01 X36.3677 Y9.6980
G01 X36.3568 Y9.6855
G01 X36.3419 Y9.6659
G01 X36.3351 Y9.6558
G01 X36.3280 Y9.6440
G01 X36.3216 Y9.6322
G01 X36.3157 Y9.6202
G01 X36.3066 Y9.5985
G01 X36.3027 Y9.5874
G01 X36.2985 Y9.5734
G01 X36.2930 Y9.5499
G01 X36.2908 Y9.5373
G01 X36.2890 Y9.5223
G01 X36.2876 Y9.4983
G01 X36.2876 Y7.7412
G01 X36.2881 Y7.7255
G01 X36.2890 Y7.7136
G01 X36.2908 Y7.6986
G01 X36.2931 Y7.6852
G01 X36.2964 Y7.6703
G01 X36.2992 Y7.6599
G01 X36.3030 Y7.6476
G01 X36.3081 Y7.6334
G01 X36.3145 Y7.6182
G01 X36.3220 Y7.6028
G01 X36.3309 Y7.5869
G01 X36.3411 Y7.5711
G01 X36.3517 Y7.5568
G01 X36.3633 Y7.5427
G01 X36.3747 Y7.5305
G01 X36.3866 Y7.5192
G01 X36.4014 Y7.5065
G01 X36.4146 Y7.4966
G01 X36.4287 Y7.4871
G01 X36.4425 Y7.4789
G01 X36.4568 Y7.4714
G01 X36.4742 Y7.4636
G01 X36.4930 Y7.4565
G01 X36.5095 Y7.4514
G01 X36.5292 Y7.4467
G01 X36.5469 Y7.4436
G01 X36.5632 Y7.4417
G01 X36.5850 Y7.4405
G01 X37.2524 Y7.4405
G01 X37.2524 Y7.3707
G01 X37.2416 Y7.3746
G01 X37.2276 Y7.3789
G01 X37.2145 Y7.3823
G01 X37.2000 Y7.3854
G01 X37.1869 Y7.3875
G01 X37.1728 Y7.3891
G01 X37.1594 Y7.3901
G01 X37.1457 Y7.3904
G01 X32.2629 Y7.3904
G01 X32.2605 Y7.4026
G01 X32.2572 Y7.4161
G01 X32.2533 Y7.4295
G01 X32.2485 Y7.4434
G00 Z0.5000
G00 X32.1199 Y9.6547
G01 F250.00
G01 Z-0.0400
G01 F2500.00
G01 X32.1199 Y9.7114
G01 X32.1299 Y9.7207
G01 X32.1379 Y9.7290
G01 X32.1474 Y9.7401
G01 X32.1554 Y9.7505
G01 X32.1646 Y9.7642
G01 X32.1708 Y9.7748
G01 X32.1767 Y9.7862
G01 X32.1815 Y9.7969
G01 X32.1867 Y9.8104
G01 X32.1906 Y9.8228
G01 X32.1946 Y9.8384
G01 X32.1968 Y9.8500
G01 X32.1985 Y9.8629
G01 X32.1995 Y9.8745
G01 X32.1999 Y9.9031
G01 X32.8250 Y9.9031
G01 X32.8359 Y9.9034
G01 X32.8470 Y9.9042
G01 X32.8581 Y9.9055
G01 X32.8700 Y9.9075
G01 X32.8903 Y9.9124
G01 X32.9011 Y9.9158
G01 X32.9126 Y9.9201
G01 X32.9311 Y9.9285
G01 X32.9488 Y9.9384
G01 X32.9588 Y9.9450
G01 X32.9680 Y9.9517
G01 X32.9762 Y9.9583
G01 X32.9845 Y9.9656
G01 X33.0000 Y9.9814
G01 X33.0000 Y9.7278
G01 X32.2900 Y9.7278
G01 X32.2693 Y9.7268
G01 X32.2502 Y9.7244
G01 X32.2387 Y9.7221
G01 X32.2275 Y9.7193
G01 X32.2151 Y9.7155
G01 X32.2051 Y9.7119
G01 X32.1866 Y9.7038
G01 X32.1683 Y9.6937
G01 X32.1504 Y9.6817
G01 X32.1344 Y9.6688
G01 X32.1199 Y9.6547
G01 X32.2522 Y9.7930
G01 X32.2580 Y9.8127
G01 X32.2629 Y9.8355
G01 X32.8332 Y9.8356
G01 X32.8578 Y9.8373
G01 X32.8715 Y9.8391
G01 X32.8833 Y9.8412
G01 X32.8965 Y9.8440
G01 X32.9092 Y9.8475
G01 X32.9324 Y9.8552
G01 X32.9324 Y9.7954
G01 X32.2898 Y9.7954
G01 X32.2714 Y9.7948
G01 X32.2522 Y9.7930
G00 Z0.5000
G00 X33.0688 Y11.2944
G01 F250.00
G01 Z-0.0400
G01 F2500.00
G01 X33.0677 Y11.2680
G01 X33.0677 Y9.6601
G01 X32.2900 Y9.6601
G01 X32.2796 Y9.6598
G01 X32.2657 Y9.6583
G01 X32.2543 Y9.6562
G01 X32.2450 Y9.6539
G01 X32.2317 Y9.6496
G01 X32.2203 Y9.6449
G01 X32.2069 Y9.6380
G01 X32.1975 Y9.6322
G01 X32.1862 Y9.6239
G01 X32.1770 Y9.6161
G01 X32.1674 Y9.6066
G01 X32.1614 Y9.5996
G01 X32.1532 Y9.5890
G01 X32.1467 Y9.5790
G01 X32.1420 Y9.5706
G01 X32.1366 Y9.5592
G01 X32.1315 Y9.5459
G01 X32.1281 Y9.5343
G01 X32.1261 Y9.5255
G01 X32.1240 Y9.5118
G01 X32.1232 Y9.5034
G01 X32.1229 Y9.4930
G01 X32.1229 Y7.7430
G01 X32.1232 Y7.7325
G01 X32.1240 Y7.7241
G01 X32.1261 Y7.7104
G01 X32.1281 Y7.7016
G01 X32.1315 Y7.6900
G01 X32.1346 Y7.6816
G01 X32.1379 Y7.6738
G01 X32.1420 Y7.6654
G01 X32.1466 Y7.6572
G01 X32.1530 Y7.6472
G01 X32.1588 Y7.6394
G01 X32.1677 Y7.6291
G01 X32.1770 Y7.6198
G01 X32.1835 Y7.6141
G01 X32.1909 Y7.6084
G01 X32.2004 Y7.6019
G01 X32.2125 Y7.5949
G01 X32.2210 Y7.5907
G01 X32.2291 Y7.5873
G01 X32.2405 Y7.5833
G01 X32.2537 Y7.5798
G01 X32.2622 Y7.5781
G01 X32.2740 Y7.5766
G01 X32.2867 Y7.5758
G01 X34.9409 Y7.5758
G01 X34.9506 Y7.5761
G01 X34.9596 Y7.5770
G01 X34.9729 Y7.5791
G01 X34.9815 Y7.5810
G01 X34.9896 Y7.5833
G01 X35.0012 Y7.5874
G01 X35.0099 Y7.5911
G01 X35.0177 Y7.5950
G01 X35.0262 Y7.5997
G01 X35.0370 Y7.6068
G01 X35.0466 Y7.6142
G01 X35.0534 Y7.6201
G01 X35.0624 Y7.6291
G01 X35.0687 Y7.6362
G01 X35.0750 Y7.6443
G01 X35.0811 Y7.6533
G01 X35.0881 Y7.6654
G01 X35.0924 Y7.6742
G01 X35.0968 Y7.6849
G01 X35.0997 Y7.6934
G01 X35.1020 Y7.7016
G01 X35.1049 Y7.7152
G01 X35.1061 Y7.7241
G01 X35.1070 Y7.7360
G01 X35.1072 Y9.4930
G01 X35.1069 Y9.5034
G01 X35.1061 Y9.5118
G01 X35.1040 Y9.5255
G01 X35.1020 Y9.5343
G01 X35.0986 Y9.5459
G01 X35.0935 Y9.5592
G01 X35.0881 Y9.5706
G01 X35.0833 Y9.5790
G01 X35.0768 Y9.5890
G01 X35.0687 Y9.5996
G01 X35.0626 Y9.6066
G01 X35.0530 Y9.6161
G01 X35.0439 Y9.6239
G01 X35.0326 Y9.6322
G01 X35.0231 Y9.6380
G01 X35.0097 Y9.6449
G01 X34.9984 Y9.6496
G01 X34.9851 Y9.6539
G01 X34.9758 Y9.6562
G01 X34.9643 Y9.6583
G01 X34.9505 Y9.6598
G01 X34.9400 Y9.6601
G01 X34.1624 Y9.6601
G01 X34.1624 Y11.0417
G01 X36.3681 Y13.2543
G01 X36.3968 Y13.2441
G01 X36.4086 Y13.2404
G01 X36.5310 Y13.2097
G01 X36.5432 Y13.2072
G01 X36.6767 Y13.1876
G01 X36.8068 Y13.1810
G01 X36.8206 Y13.1809
G01 X36.9544 Y13.1877
G01 X37.0912 Y13.2080
G01 X37.2268 Y13.2419
G01 X37.3548 Y13.2877
G01 X37.3649 Y13.2920
G01 X37.4835 Y13.3484
G01 X37.5954 Y13.4152
G01 X37.6085 Y13.4239
G01 X37.7076 Y13.4974
G01 X37.7203 Y13.5078
G01 X37.8177 Y13.5965
G01 X37.9052 Y13.6927
G01 X37.9112 Y13.6998
G01 X37.9931 Y13.8102
G01 X38.0615 Y13.9239
G01 X38.0684 Y13.9369
G01 X38.1242 Y14.0553
G01 X38.1711 Y14.1862
G01 X38.2049 Y14.3211
G01 X38.2244 Y14.4509
G01 X38.2258 Y14.4639
G01 X38.2322 Y14.5980
G01 X38.2322 Y16.0980
G01 X38.2260 Y16.2287
G01 X38.2253 Y16.2379
G01 X38.2050 Y16.3741
G01 X38.1711 Y16.5097
G01 X38.1246 Y16.6396
G01 X38.0651 Y16.7656
G01 X37.9930 Y16.8858
G01 X37.9111 Y16.9963
G01 X37.9052 Y17.0032
G01 X37.8165 Y17.1006
G01 X37.7203 Y17.1881
G01 X37.7115 Y17.1955
G01 X37.6022 Y17.2764
G01 X37.4836 Y17.3475
G01 X37.3567 Y17.4075
G01 X37.2341 Y17.4515
G01 X37.2252 Y17.4545
G01 X37.0912 Y17.4879
G01 X36.9533 Y17.5083
G01 X36.8142 Y17.5151
G01 X36.6843 Y17.5089
G01 X36.6680 Y17.5073
G01 X36.5464 Y17.4892
G01 X36.5306 Y17.4861
G01 X36.4033 Y17.4540
G01 X36.2804 Y17.4102
G01 X36.2656 Y17.4041
G01 X36.1465 Y17.3475
G01 X36.0346 Y17.2807
G01 X36.0210 Y17.2716
G01 X35.9169 Y17.1941
G01 X35.9098 Y17.1881
G01 X35.8130 Y17.1000
G01 X35.7249 Y17.0032
G01 X35.7190 Y16.9963
G01 X35.6402 Y16.8903
G01 X35.6323 Y16.8784
G01 X35.5693 Y16.7731
G01 X35.5615 Y16.7587
G01 X35.5055 Y16.6396
G01 X35.4590 Y16.5097
G01 X35.4268 Y16.3819
G01 X35.4237 Y16.3663
G01 X35.4046 Y16.2363
G01 X35.3980 Y16.1029
G01 X35.3979 Y14.5980
G01 X35.4043 Y14.4639
G01 X35.4057 Y14.4509
G01 X35.4252 Y14.3211
G01 X35.4579 Y14.1900
G01 X35.4615 Y14.1788
G01 X35.5050 Y14.0575
G01 X35.5089 Y14.0485
G01 X35.5427 Y13.9770
G01 X33.2268 Y11.6538
G01 X33.1961 Y11.6200
G01 X33.1864 Y11.6081
G01 X33.1595 Y11.5714
G01 X33.1330 Y11.5272
G01 X33.1282 Y11.5179
G01 X33.1089 Y11.4764
G01 X33.0938 Y11.4346
G01 X33.0901 Y11.4227
G01 X33.0796 Y11.3810
G01 X33.0774 Y11.3706
G01 X33.0707 Y11.3250
G01 X33.0699 Y11.3160
G01 X33.0688 Y11.2944
G01 X33.1364 Y11.2911
G01 X33.1353 Y11.2680
G01 X33.1353 Y9.5925
G01 X32.2900 Y9.5925
G01 X32.2798 Y9.5919
G01 X32.2699 Y9.5904
G01 X32.2643 Y9.5891
G01 X32.2588 Y9.5874
G01 X32.2496 Y9.5839
G01 X32.2449 Y9.5816
G01 X32.2359 Y9.5764
G01 X32.2314 Y9.5733
G01 X32.2236 Y9.5670
G01 X32.2164 Y9.5599
G01 X32.2127 Y9.5556
G01 X32.2091 Y9.5509
G01 X32.2043 Y9.5434
G01 X32.1991 Y9.5334
G01 X32.1971 Y9.5286
G01 X32.1939 Y9.5187
G01 X32.1918 Y9.5085
G01 X32.1911 Y9.5031
G01 X32.1905 Y9.4930
G01 X32.1905 Y7.7430
G01 X32.1911 Y7.7328
G01 X32.1918 Y7.7274
G01 X32.1939 Y7.7172
G01 X32.1971 Y7.7073
G01 X32.2014 Y7.6978
G01 X32.2042 Y7.6927
G01 X32.2090 Y7.6852
G01 X32.2166 Y7.6758
G01 X32.2236 Y7.6689
G01 X32.2274 Y7.6656
G01 X32.2359 Y7.6595
G01 X32.2488 Y7.6524
G01 X32.2596 Y7.6482
G01 X32.2695 Y7.6456
G01 X32.2745 Y7.6447
G01 X32.2848 Y7.6436
G01 X32.2900 Y7.6435
G01 X34.9400 Y7.6435
G01 X34.9507 Y7.6440
G01 X34.9606 Y7.6456
G01 X34.9657 Y7.6468
G01 X34.9756 Y7.6500
G01 X34.9852 Y7.6543
G01 X34.9942 Y7.6595
G01 X34.9987 Y7.6626
G01 X35.0067 Y7.6691
G01 X35.0135 Y7.6758
G01 X35.0174 Y7.6804
G01 X35.0235 Y7.6888
G01 X35.0307 Y7.7019
G01 X35.0348 Y7.7125
G01 X35.0374 Y7.7226
G01 X35.0390 Y7.7328
G01 X35.0394 Y7.7378
G01 X35.0395 Y9.4930
G01 X35.0390 Y9.5031
G01 X35.0383 Y9.5085
G01 X35.0362 Y9.5187
G01 X35.0329 Y9.5286
G01 X35.0310 Y9.5334
G01 X35.0258 Y9.5434
G01 X35.0209 Y9.5509
G01 X35.0174 Y9.5556
G01 X35.0137 Y9.5599
G01 X35.0065 Y9.5670
G01 X34.9987 Y9.5733
G01 X34.9942 Y9.5764
G01 X34.9852 Y9.5816
G01 X34.9804 Y9.5839
G01 X34.9712 Y9.5874
G01 X34.9657 Y9.5891
G01 X34.9602 Y9.5904
G01 X34.9503 Y9.5919
G01 X34.9400 Y9.5925
G01 X34.0947 Y9.5925
G01 X34.0947 Y11.0697
G01 X36.3505 Y13.3325
G01 X36.4236 Y13.3065
G01 X36.5470 Y13.2755
G01 X36.5540 Y13.2740
G01 X36.6826 Y13.2550
G01 X36.8102 Y13.2486
G01 X36.8175 Y13.2485
G01 X36.9475 Y13.2550
G01 X37.0784 Y13.2744
G01 X37.2065 Y13.3065
G01 X37.3283 Y13.3499
G01 X37.3359 Y13.3532
G01 X37.4521 Y13.4083
G01 X37.5607 Y13.4733
G01 X37.5688 Y13.4787
G01 X37.6673 Y13.5518
G01 X37.6748 Y13.5580
G01 X37.7693 Y13.6437
G01 X37.8591 Y13.7429
G01 X37.9372 Y13.8483
G01 X38.0028 Y13.9576
G01 X38.0074 Y13.9662
G01 X38.0616 Y14.0810
G01 X38.1065 Y14.2065
G01 X38.1385 Y14.3341
G01 X38.1574 Y14.4608
G01 X38.1582 Y14.4680
G01 X38.1645 Y14.5980
G01 X38.1645 Y16.0980
G01 X38.1580 Y16.2304
G01 X38.1386 Y16.3613
G01 X38.1065 Y16.4894
G01 X38.0623 Y16.6133
G01 X38.0055 Y16.7335
G01 X37.9372 Y16.8476
G01 X37.8590 Y16.9531
G01 X37.7693 Y17.0522
G01 X37.6701 Y17.1420
G01 X37.5647 Y17.2201
G01 X37.4521 Y17.2876
G01 X37.3304 Y17.3452
G01 X37.2065 Y17.3894
G01 X37.0784 Y17.4215
G01 X36.9475 Y17.4409
G01 X36.8150 Y17.4474
G01 X36.6826 Y17.4409
G01 X36.5517 Y17.4215
G01 X36.4236 Y17.3894
G01 X36.2997 Y17.3452
G01 X36.1779 Y17.2876
G01 X36.0654 Y17.2201
G01 X35.9600 Y17.1420
G01 X35.8608 Y17.0522
G01 X35.7710 Y16.9530
G01 X35.6929 Y16.8476
G01 X35.6273 Y16.7383
G01 X35.6227 Y16.7297
G01 X35.5702 Y16.6188
G01 X35.5665 Y16.6098
G01 X35.5236 Y16.4894
G01 X35.4915 Y16.3613
G01 X35.4721 Y16.2304
G01 X35.4657 Y16.1028
G01 X35.4655 Y14.5980
G01 X35.4718 Y14.4680
G01 X35.4726 Y14.4608
G01 X35.4916 Y14.3341
G01 X35.5236 Y14.2065
G01 X35.5685 Y14.0810
G01 X35.6243 Y13.9629
G01 X33.2736 Y11.6049
G01 X33.2438 Y11.5717
G01 X33.2161 Y11.5344
G01 X33.1920 Y11.4940
G01 X33.1729 Y11.4539
G01 X33.1698 Y11.4463
G01 X33.1560 Y11.4071
G01 X33.1450 Y11.3637
G01 X33.1379 Y11.3175
G01 X33.1364 Y11.2911
G00 Z0.5000
G00 X35.2397 Y13.7688
G01 F250.00
G01 Z-0.0400
G01 F2500.00
G01 X35.2399 Y17.3931
G01 X36.0907 Y17.3931
G01 X35.9999 Y17.3387
G01 X35.9900 Y17.3324
G01 X35.9807 Y17.3259
G01 X35.8814 Y17.2523
G01 X35.8661 Y17.2397
G01 X35.7732 Y17.1555
G01 X35.7651 Y17.1479
G01 X35.7574 Y17.1398
G01 X35.6690 Y17.0420
G01 X35.6607 Y17.0315
G01 X35.5862 Y16.9310
G01 X35.5745 Y16.9135
G01 X35.5062 Y16.7991
G01 X35.5004 Y16.7876
G01 X35.4478 Y16.6765
G01 X35.4432 Y16.6659
G01 X35.4391 Y16.6554
G01 X35.3978 Y16.5399
G01 X35.3942 Y16.5292
G01 X35.3911 Y16.5179
G01 X35.3600 Y16.3936
G01 X35.3568 Y16.3763
G01 X35.3375 Y16.2446
G01 X35.3365 Y16.2320
G01 X35.3303 Y16.1021
G01 X35.3304 Y14.5877
G01 X35.3365 Y14.4639
G01 X35.3375 Y14.4513
G01 X35.3568 Y14.3196
G01 X35.3597 Y14.3037
G01 X35.3912 Y14.1777
G01 X35.3955 Y14.1626
G01 X35.4413 Y14.0347
G01 X35.4466 Y14.0221
G01 X35.4612 Y13.9910
G01 X35.2397 Y13.7688
G01 X35.3075 Y13.9327
G01 X35.3075 Y14.2332
G01 X35.3258 Y14.1601
G01 X35.3308 Y14.1428
G01 X35.3754 Y14.0177
G01 X35.3801 Y14.0055
G01 X35.3075 Y13.9327
G00 Z0.5000
G00 X36.4000 Y13.1728
G01 F250.00
G01 Z-0.0400
G01 F2500.00
G01 X36.3819 Y13.1724
G01 X36.3860 Y13.1765
G01 X36.4000 Y13.1728
G01 X37.5670 Y13.2404
G01 X37.6655 Y13.2995
G01 X37.6780 Y13.3074
G01 X37.6895 Y13.3156
G01 X37.7882 Y13.3887
G01 X37.7994 Y13.3975
G01 X37.8112 Y13.4076
G01 X37.9022 Y13.4901
G01 X37.9122 Y13.4996
G01 X37.9229 Y13.5108
G01 X38.0091 Y13.6060
G01 X38.0238 Y13.6242
G01 X38.0975 Y13.7235
G01 X38.1049 Y13.7340
G01 X38.1135 Y13.7475
G01 X38.1782 Y13.8554
G01 X38.1843 Y13.8663
G01 X38.1898 Y13.8772
G01 X38.2450 Y13.9939
G01 X38.2520 Y14.0105
G01 X38.2626 Y14.0397
G01 X38.2626 Y13.2404
G01 X37.5670 Y13.2404
G01 X37.7931 Y13.3081
G01 X37.8300 Y13.3355
G01 X37.8417 Y13.3447
G01 X37.8566 Y13.3574
G01 X37.9478 Y13.4401
G01 X37.9596 Y13.4513
G01 X37.9729 Y13.4652
G01 X38.0611 Y13.5627
G01 X38.0775 Y13.5830
G01 X38.1568 Y13.6902
G01 X38.1688 Y13.7082
G01 X38.1949 Y13.7517
G01 X38.1949 Y13.3081
G01 X37.7931 Y13.3081
G01 X37.9776 Y13.3758
G01 X38.0011 Y13.3973
G01 X38.0188 Y13.4152
G01 X38.1082 Y13.5137
G01 X38.1272 Y13.5366
G01 X38.1272 Y13.3758
G01 X37.9776 Y13.3758
G00 Z0.5000
G00 X39.9599 Y13.7162
G01 F250.00
G01 Z-0.0400
G01 F2500.00
G01 X39.9632 Y13.7128
G01 X39.9599 Y13.7128
G01 X39.9599 Y13.7162
G01 X39.9651 Y14.9451
G01 X39.9599 Y14.9397
G01 X39.9599 Y14.9445
G01 X39.9651 Y14.9451
G01 X40.1099 Y15.0213
G01 X40.1099 Y15.0119
G01 X40.0999 Y15.0108
G01 X40.1099 Y15.0213
G00 Z0.5000
G00 X41.3482 Y15.0128
G01 F250.00
G01 Z-0.0400
G01 F2500.00
G01 X41.3399 Y15.0128
G01 X41.3399 Y15.0215
G01 X41.3439 Y15.0172
G01 X41.3482 Y15.0128
G00 Z0.5000
G00 X41.8870 Y16.2281
G01 F250.00
G01 Z-0.0400
G01 F2500.00
G01 X41.9089 Y16.2525
G01 X41.9235 Y16.2706
G01 X41.9866 Y16.3557
G01 X41.9959 Y16.3693
G01 X42.0049 Y16.3836
G01 X42.0049 Y16.2281
G01 X41.8870 Y16.2281
G01 X42.0726 Y16.6681
G01 X42.0726 Y16.1604
G01 X41.7252 Y16.1604
G01 X41.7667 Y16.1980
G01 X41.7795 Y16.2105
G01 X41.8557 Y16.2944
G01 X41.8702 Y16.3123
G01 X41.9368 Y16.4025
G01 X41.9456 Y16.4164
G01 X41.9964 Y16.5011
G01 X42.0065 Y16.5194
G01 X42.0104 Y16.5272
G01 X42.0524 Y16.6159
G01 X42.0524 Y16.6160
G01 X42.0553 Y16.6225
G01 X42.0624 Y16.6398
G01 X42.0726 Y16.6681
G01 X41.7780 Y18.2302
G01 X41.8565 Y18.2302
G01 X41.8760 Y18.2307
G01 X41.8924 Y18.2318
G01 X41.9065 Y18.2332
G01 X41.9210 Y18.2352
G01 X41.9367 Y18.2379
G01 X41.9369 Y18.0735
G01 X41.8847 Y18.1310
G01 X41.8696 Y18.1467
G01 X41.8566 Y18.1590
G01 X41.7780 Y18.2302
G01 X41.5660 Y18.2978
G01 X41.8555 Y18.2978
G01 X41.8804 Y18.2987
G01 X41.8968 Y18.3002
G01 X41.9141 Y18.3026
G01 X41.9285 Y18.3052
G01 X41.9445 Y18.3088
G01 X41.9572 Y18.3122
G01 X41.9741 Y18.3175
G01 X41.9894 Y18.3231
G01 X42.0047 Y18.3294
G01 X42.0048 Y17.8724
G01 X41.9958 Y17.8868
G01 X41.9864 Y17.9005
G01 X41.9168 Y17.9939
G01 X41.9027 Y18.0105
G01 X41.8361 Y18.0839
G01 X41.8256 Y18.0950
G01 X41.8107 Y18.1093
G01 X41.7380 Y18.1752
G01 X41.7371 Y18.1760
G01 X41.7237 Y18.1875
G01 X41.7109 Y18.1975
G01 X41.6311 Y18.2567
G01 X41.6152 Y18.2679
G01 X41.6026 Y18.2758
G01 X41.5660 Y18.2978
G01 X41.2590 Y18.3655
G01 X41.8553 Y18.3655
G01 X41.8713 Y18.3659
G01 X41.8889 Y18.3674
G01 X41.9003 Y18.3689
G01 X41.9142 Y18.3713
G01 X41.9381 Y18.3771
G01 X41.9504 Y18.3809
G01 X41.9648 Y18.3861
G01 X41.9778 Y18.3915
G01 X41.9889 Y18.3967
G01 X42.0114 Y18.4091
G01 X42.0226 Y18.4161
G01 X42.0330 Y18.4234
G01 X42.0435 Y18.4314
G01 X42.0548 Y18.4409
G01 X42.0726 Y18.4578
G01 X42.0726 Y17.5878
G01 X42.0624 Y17.6161
G01 X42.0553 Y17.6334
G01 X42.0069 Y17.7358
G01 X41.9969 Y17.7540
G01 X41.9408 Y17.8473
G01 X41.9298 Y17.8632
G01 X41.8704 Y17.9434
G01 X41.8623 Y17.9537
G01 X41.8528 Y17.9648
G01 X41.8522 Y17.9655
G01 X41.7863 Y18.0382
G01 X41.7861 Y18.0383
G01 X41.7713 Y18.0536
G01 X41.6922 Y18.1254
G01 X41.6796 Y18.1362
G01 X41.5894 Y18.2034
G01 X41.5784 Y18.2111
G01 X41.5675 Y18.2180
G01 X41.4798 Y18.2706
G01 X41.4694 Y18.2764
G01 X41.4565 Y18.2830
G01 X41.3663 Y18.3256
G01 X41.3537 Y18.3312
G01 X41.3399 Y18.3365
G01 X41.2590 Y18.3655
G01 X39.7105 Y18.1051
G01 X39.7105 Y18.1836
G01 X39.7270 Y18.1790
G01 X39.7416 Y18.1754
G01 X39.7692 Y18.1699
G01 X39.7105 Y18.1051
G01 X39.6428 Y17.8999
G01 X39.6428 Y18.2851
G01 X39.6580 Y18.2770
G01 X39.6734 Y18.2697
G01 X39.6887 Y18.2630
G01 X39.7050 Y18.2567
G01 X39.7225 Y18.2507
G01 X39.7384 Y18.2460
G01 X39.7571 Y18.2413
G01 X39.7724 Y18.2380
G01 X39.7889 Y18.2352
G01 X39.8034 Y18.2332
G01 X39.8177 Y18.2318
G01 X39.8337 Y18.2307
G01 X39.8534 Y18.2302
G01 X39.9320 Y18.2302
G01 X39.8532 Y18.1587
G01 X39.8390 Y18.1452
G01 X39.8244 Y18.1300
G01 X39.8236 Y18.1291
G01 X39.7576 Y18.0564
G01 X39.7529 Y18.0510
G01 X39.7423 Y18.0384
G01 X39.7326 Y18.0261
G01 X39.6697 Y17.9413
G01 X39.6558 Y17.9210
G01 X39.6428 Y17.8999
G01 X39.5752 Y17.6144
G01 X39.5752 Y18.4258
G01 X39.5846 Y18.4152
G01 X39.5953 Y18.4043
G01 X39.6052 Y18.3948
G01 X39.6174 Y18.3842
G01 X39.6278 Y18.3758
G01 X39.6413 Y18.3658
G01 X39.6522 Y18.3584
G01 X39.6640 Y18.3510
G01 X39.6788 Y18.3425
G01 X39.6898 Y18.3367
G01 X39.7045 Y18.3298
G01 X39.7183 Y18.3240
G01 X39.7347 Y18.3179
G01 X39.7465 Y18.3141
G01 X39.7616 Y18.3098
G01 X39.7742 Y18.3068
G01 X39.7926 Y18.3031
G01 X39.8110 Y18.3005
G01 X39.8297 Y18.2987
G01 X39.8454 Y18.2979
G01 X40.1441 Y18.2978
G01 X40.1038 Y18.2736
G01 X40.0858 Y18.2617
G01 X39.9987 Y18.1972
G01 X39.9788 Y18.1812
G01 X39.9722 Y18.1754
G01 X39.9721 Y18.1753
G01 X39.8994 Y18.1093
G01 X39.8987 Y18.1088
G01 X39.8855 Y18.0960
G01 X39.8737 Y18.0837
G01 X39.8073 Y18.0104
G01 X39.7982 Y17.9999
G01 X39.7851 Y17.9833
G01 X39.7257 Y17.9033
G01 X39.7170 Y17.8910
G01 X39.7066 Y17.8746
G01 X39.6533 Y17.7857
G01 X39.6464 Y17.7734
G01 X39.6401 Y17.7608
G01 X39.5944 Y17.6643
G01 X39.5861 Y17.6444
G01 X39.5752 Y17.6144
G01 X39.6930 Y17.0208
G01 X39.6944 Y17.0061
G01 X39.7089 Y16.9083
G01 X39.7109 Y16.8973
G01 X39.7382 Y16.7888
G01 X39.7765 Y16.6820
G01 X39.8222 Y16.5848
G01 X39.8297 Y16.5706
G01 X39.8850 Y16.4790
G01 X39.9514 Y16.3893
G01 X39.9582 Y16.3813
G01 X40.0241 Y16.3086
G01 X40.0333 Y16.2992
G01 X40.1128 Y16.2273
G01 X40.1205 Y16.2211
G01 X40.1776 Y16.1788
G01 X40.1776 Y14.9451
G01 X40.1219 Y14.9449
G01 X40.1057 Y14.9433
G01 X40.0943 Y14.9412
G01 X40.0850 Y14.9389
G01 X40.0761 Y14.9362
G01 X40.0619 Y14.9306
G01 X40.0524 Y14.9259
G01 X40.0439 Y14.9212
G01 X40.0302 Y14.9120
G01 X40.0197 Y14.9035
G01 X40.0131 Y14.8974
G01 X40.0014 Y14.8846
G01 X39.9907 Y14.8702
G01 X39.9820 Y14.8556
G01 X39.9746 Y14.8394
G01 X39.9690 Y14.8228
G01 X39.9652 Y14.8057
G01 X39.9640 Y14.7968
G01 X39.9630 Y14.7849
G01 X39.9629 Y13.8780
G01 X39.9636 Y13.8626
G01 X39.9652 Y13.8502
G01 X39.9681 Y13.8366
G01 X39.9715 Y13.8250
G01 X39.9746 Y13.8165
G01 X39.9803 Y13.8037
G01 X39.9849 Y13.7950
G01 X39.9907 Y13.7857
G01 X39.9989 Y13.7744
G01 X40.0051 Y13.7670
G01 X40.0131 Y13.7585
G01 X40.0197 Y13.7524
G01 X40.0302 Y13.7439
G01 X40.0403 Y13.7370
G01 X40.0524 Y13.7300
G01 X40.0619 Y13.7253
G01 X40.0717 Y13.7213
G01 X40.0887 Y13.7160
G01 X40.1024 Y13.7131
G01 X40.1145 Y13.7115
G01 X40.1300 Y13.7108
G01 X40.7258 Y13.7106
G01 X41.5881 Y13.7110
G01 X41.5990 Y13.7119
G01 X41.6077 Y13.7131
G01 X41.6214 Y13.7160
G01 X41.6306 Y13.7186
G01 X41.6384 Y13.7213
G01 X41.6481 Y13.7253
G01 X41.6577 Y13.7300
G01 X41.6662 Y13.7347
G01 X41.6770 Y13.7418
G01 X41.6839 Y13.7470
G01 X41.6930 Y13.7548
G01 X41.6994 Y13.7609
G01 X41.7087 Y13.7713
G01 X41.7148 Y13.7790
G01 X41.7194 Y13.7857
G01 X41.7251 Y13.7950
G01 X41.7298 Y13.8037
G01 X41.7335 Y13.8117
G01 X41.7368 Y13.8199
G01 X41.7411 Y13.8331
G01 X41.7433 Y13.8420
G01 X41.7454 Y13.8537
G01 X41.7465 Y13.8626
G01 X41.7472 Y13.8762
G01 X41.7472 Y14.7780
G01 X41.7465 Y14.7933
G01 X41.7440 Y14.8105
G01 X41.7420 Y14.8193
G01 X41.7386 Y14.8309
G01 X41.7355 Y14.8394
G01 X41.7298 Y14.8522
G01 X41.7234 Y14.8640
G01 X41.7168 Y14.8740
G01 X41.7112 Y14.8815
G01 X41.7026 Y14.8916
G01 X41.6930 Y14.9011
G01 X41.6865 Y14.9068
G01 X41.6770 Y14.9141
G01 X41.6662 Y14.9212
G01 X41.6543 Y14.9277
G01 X41.6457 Y14.9317
G01 X41.6340 Y14.9362
G01 X41.6251 Y14.9389
G01 X41.6158 Y14.9412
G01 X41.6043 Y14.9433
G01 X41.5955 Y14.9444
G01 X41.5845 Y14.9450
G01 X41.2723 Y14.9451
G01 X41.2723 Y16.0389
G01 X41.2952 Y16.0471
G01 X41.3070 Y16.0520
G01 X41.3992 Y16.0956
G01 X41.4113 Y16.1020
G01 X41.5033 Y16.1574
G01 X41.5946 Y16.2250
G01 X41.6017 Y16.2311
G01 X41.6798 Y16.3021
G01 X41.7519 Y16.3813
G01 X41.7622 Y16.3938
G01 X41.8215 Y16.4738
G01 X41.8282 Y16.4837
G01 X41.8846 Y16.5782
G01 X41.9336 Y16.6820
G01 X41.9718 Y16.7888
G01 X41.9980 Y16.8923
G01 X42.0012 Y16.9083
G01 X42.0156 Y17.0054
G01 X42.0172 Y17.0217
G01 X42.0222 Y17.1288
G01 X42.0172 Y17.2342
G01 X42.0162 Y17.2458
G01 X41.9998 Y17.3553
G01 X41.9718 Y17.4671
G01 X41.9336 Y17.5739
G01 X41.8846 Y17.6777
G01 X41.8829 Y17.6809
G01 X41.8810 Y17.6842
G01 X41.8803 Y17.6853
G01 X41.8299 Y17.7695
G01 X41.8251 Y17.7769
G01 X41.7579 Y17.8677
G01 X41.7519 Y17.8746
G01 X41.6798 Y17.9538
G01 X41.6017 Y18.0248
G01 X41.5946 Y18.0309
G01 X41.5033 Y18.0985
G01 X41.4057 Y18.1570
G01 X41.3010 Y18.2065
G01 X41.1942 Y18.2447
G01 X41.0824 Y18.2727
G01 X40.9688 Y18.2895
G01 X40.8542 Y18.2951
G01 X40.8468 Y18.2949
G01 X40.7488 Y18.2901
G01 X40.7412 Y18.2895
G01 X40.6276 Y18.2727
G01 X40.5159 Y18.2447
G01 X40.5085 Y18.2423
G01 X40.4160 Y18.2092
G01 X40.4090 Y18.2065
G01 X40.3044 Y18.1570
G01 X40.2067 Y18.0985
G01 X40.1155 Y18.0309
G01 X40.1084 Y18.0248
G01 X40.0303 Y17.9538
G01 X39.9582 Y17.8746
G01 X39.9522 Y17.8677
G01 X39.8850 Y17.7769
G01 X39.8255 Y17.6777
G01 X39.7765 Y17.5739
G01 X39.7382 Y17.4671
G01 X39.7102 Y17.3553
G01 X39.6936 Y17.2434
G01 X39.6929 Y17.2342
G01 X39.6879 Y17.1288
G01 X39.6930 Y17.0208
G00 Z0.5000
G00 X39.7605 Y17.0251
G01 F250.00
G01 Z-0.0400
G01 F2500.00
G01 X39.7614 Y17.0159
G01 X39.7767 Y16.9133
G01 X39.8028 Y16.8091
G01 X39.8388 Y16.7083
G01 X39.8832 Y16.6140
G01 X39.8878 Y16.6054
G01 X39.9382 Y16.5212
G01 X39.9437 Y16.5131
G01 X40.0043 Y16.4314
G01 X40.0742 Y16.3540
G01 X40.0811 Y16.3471
G01 X40.1586 Y16.2772
G01 X40.2452 Y16.2131
G01 X40.2452 Y14.8775
G01 X40.1248 Y14.8773
G01 X40.1198 Y14.8769
G01 X40.1099 Y14.8754
G01 X40.1043 Y14.8741
G01 X40.0944 Y14.8709
G01 X40.0849 Y14.8666
G01 X40.0795 Y14.8636
G01 X40.0714 Y14.8583
G01 X40.0636 Y14.8520
G01 X40.0597 Y14.8483
G01 X40.0527 Y14.8406
G01 X40.0491 Y14.8359
G01 X40.0443 Y14.8284
G01 X40.0391 Y14.8184
G01 X40.0353 Y14.8084
G01 X40.0326 Y14.7983
G01 X40.0311 Y14.7881
G01 X40.0305 Y14.7780
G01 X40.0305 Y13.8780
G01 X40.0311 Y13.8678
G01 X40.0318 Y13.8624
G01 X40.0339 Y13.8522
G01 X40.0371 Y13.8424
G01 X40.0391 Y13.8375
G01 X40.0443 Y13.8275
G01 X40.0491 Y13.8200
G01 X40.0527 Y13.8154
G01 X40.0597 Y13.8076
G01 X40.0674 Y13.8006
G01 X40.0795 Y13.7923
G01 X40.0913 Y13.7863
G01 X40.1043 Y13.7818
G01 X40.1145 Y13.7797
G01 X40.1267 Y13.7785
G01 X41.5800 Y13.7785
G01 X41.5903 Y13.7790
G01 X41.5956 Y13.7797
G01 X41.6058 Y13.7818
G01 X41.6188 Y13.7863
G01 X41.6306 Y13.7923
G01 X41.6426 Y13.8006
G01 X41.6504 Y13.8076
G01 X41.6574 Y13.8153
G01 X41.6609 Y13.8200
G01 X41.6658 Y13.8275
G01 X41.6710 Y13.8375
G01 X41.6748 Y13.8475
G01 X41.6774 Y13.8576
G01 X41.6790 Y13.8678
G01 X41.6794 Y13.8728
G01 X41.6795 Y14.7780
G01 X41.6790 Y14.7881
G01 X41.6774 Y14.7983
G01 X41.6748 Y14.8084
G01 X41.6729 Y14.8136
G01 X41.6687 Y14.8231
G01 X41.6658 Y14.8284
G01 X41.6609 Y14.8359
G01 X41.6574 Y14.8406
G01 X41.6504 Y14.8483
G01 X41.6465 Y14.8520
G01 X41.6387 Y14.8583
G01 X41.6306 Y14.8636
G01 X41.6252 Y14.8666
G01 X41.6188 Y14.8696
G01 X41.6112 Y14.8724
G01 X41.6057 Y14.8741
G01 X41.5956 Y14.8762
G01 X41.5903 Y14.8769
G01 X41.5800 Y14.8775
G01 X41.2046 Y14.8775
G01 X41.2046 Y16.0866
G01 X41.2712 Y16.1104
G01 X41.2781 Y16.1132
G01 X41.3700 Y16.1566
G01 X41.3776 Y16.1607
G01 X41.4618 Y16.2111
G01 X41.4699 Y16.2166
G01 X41.5515 Y16.2772
G01 X41.6308 Y16.3488
G01 X41.6359 Y16.3540
G01 X41.7057 Y16.4314
G01 X41.7693 Y16.5172
G01 X41.8250 Y16.6102
G01 X41.8713 Y16.7083
G01 X41.9073 Y16.8091
G01 X41.9324 Y16.9087
G01 X41.9342 Y16.9183
G01 X41.9487 Y17.0159
G01 X41.9496 Y17.0251
G01 X41.9545 Y17.1280
G01 X41.9496 Y17.2309
G01 X41.9487 Y17.2400
G01 X41.9334 Y17.3426
G01 X41.9073 Y17.4468
G01 X41.8713 Y17.5476
G01 X41.8269 Y17.6419
G01 X41.8223 Y17.6505
G01 X41.7693 Y17.7387
G01 X41.7057 Y17.8245
G01 X41.6325 Y17.9054
G01 X41.5562 Y17.9747
G01 X41.5491 Y17.9806
G01 X41.4699 Y18.0393
G01 X41.4618 Y18.0448
G01 X41.3743 Y18.0971
G01 X41.2747 Y18.1442
G01 X41.1739 Y18.1802
G01 X41.0696 Y18.2063
G01 X40.9630 Y18.2221
G01 X40.8599 Y18.2273
G01 X40.8502 Y18.2273
G01 X40.7521 Y18.2225
G01 X40.7424 Y18.2216
G01 X40.6404 Y18.2063
G01 X40.5362 Y18.1802
G01 X40.4354 Y18.1442
G01 X40.3411 Y18.0998
G01 X40.3325 Y18.0952
G01 X40.2483 Y18.0448
G01 X40.2402 Y18.0393
G01 X40.1586 Y17.9787
G01 X40.0776 Y17.9054
G01 X40.0043 Y17.8245
G01 X39.9408 Y17.7387
G01 X39.8851 Y17.6457
G01 X39.8412 Y17.5532
G01 X39.8375 Y17.5442
G01 X39.8044 Y17.4518
G01 X39.8016 Y17.4424
G01 X39.7767 Y17.3426
G01 X39.7608 Y17.2359
G01 X39.7555 Y17.1280
G01 X39.7605 Y17.0251
G00 Z0.5000
G00 X39.5752 Y16.6415
G01 F250.00
G01 Z-0.0400
G01 F2500.00
G01 X39.5858 Y16.6121
G01 X39.5932 Y16.5942
G01 X39.6427 Y16.4898
G01 X39.6547 Y16.4678
G01 X39.7061 Y16.3821
G01 X39.7147 Y16.3684
G01 X39.7235 Y16.3556
G01 X39.7873 Y16.2697
G01 X39.8017 Y16.2519
G01 X39.8231 Y16.2281
G01 X39.5752 Y16.2281
G01 X39.5752 Y16.6415
G01 X39.6428 Y16.3560
G01 X39.6527 Y16.3398
G01 X39.6610 Y16.3270
G01 X39.6837 Y16.2958
G01 X39.6428 Y16.2958
G01 X39.6428 Y16.3560
G00 Z0.5000
G00 X38.2626 Y16.6562
G01 F250.00
G01 Z-0.0400
G01 F2500.00
G01 X38.2521 Y16.6852
G01 X38.2450 Y16.7020
G01 X38.1898 Y16.8187
G01 X38.1788 Y16.8394
G01 X38.1137 Y16.9481
G01 X38.1056 Y16.9609
G01 X38.0977 Y16.9721
G01 X38.0240 Y17.0715
G01 X38.0159 Y17.0819
G01 X38.0061 Y17.0933
G01 X37.9226 Y17.1854
G01 X37.9093 Y17.1992
G01 X37.8059 Y17.2930
G01 X37.7917 Y17.3045
G01 X37.7884 Y17.3071
G01 X37.7883 Y17.3071
G01 X37.7635 Y17.3255
G01 X38.2626 Y17.3255
G01 X38.2626 Y16.6562
G01 X38.1010 Y17.1902
G01 X38.1272 Y17.1902
G01 X38.1272 Y17.1592
G01 X38.1143 Y17.1752
G01 X38.1010 Y17.1902
G01 X37.9456 Y17.2578
G01 X38.1949 Y17.2578
G01 X38.1949 Y16.9443
G01 X38.1689 Y16.9875
G01 X38.1579 Y17.0043
G01 X38.1570 Y17.0056
G01 X38.1568 Y17.0059
G01 X38.1567 Y17.0060
G01 X38.1563 Y17.0066
G01 X38.1548 Y17.0087
G01 X38.1518 Y17.0128
G01 X38.0786 Y17.1114
G01 X38.0708 Y17.1216
G01 X38.0565 Y17.1385
G01 X37.9717 Y17.2320
G01 X37.9595 Y17.2447
G01 X37.9456 Y17.2578
G01 X37.5394 Y17.3931
G01 X38.3302 Y17.3931
G01 X38.3302 Y13.1728
G01 X37.2301 Y13.1728
G01 X37.2439 Y13.1764
G01 X37.2565 Y13.1805
G01 X37.3735 Y13.2224
G01 X37.3920 Y13.2300
G01 X37.5048 Y13.2834
G01 X37.5161 Y13.2891
G01 X37.6302 Y13.3572
G01 X37.6394 Y13.3630
G01 X37.6494 Y13.3700
G01 X37.7563 Y13.4496
G01 X37.7655 Y13.4575
G01 X37.8566 Y13.5401
G01 X37.8644 Y13.5474
G01 X37.8726 Y13.5561
G01 X37.9554 Y13.6474
G01 X37.9634 Y13.6567
G01 X38.0430 Y13.7636
G01 X38.0494 Y13.7727
G01 X38.0558 Y13.7828
G01 X38.1188 Y13.8880
G01 X38.1247 Y13.8983
G01 X38.1294 Y13.9076
G01 X38.1822 Y14.0194
G01 X38.1868 Y14.0296
G01 X38.1910 Y14.0405
G01 X38.2323 Y14.1560
G01 X38.2359 Y14.1667
G01 X38.2390 Y14.1780
G01 X38.2689 Y14.2973
G01 X38.2713 Y14.3082
G01 X38.2733 Y14.3196
G01 X38.2914 Y14.4414
G01 X38.2932 Y14.4588
G01 X38.2999 Y14.5975
G01 X38.2998 Y16.1045
G01 X38.2935 Y16.2333
G01 X38.2913 Y16.2548
G01 X38.2733 Y16.3763
G01 X38.2713 Y16.3875
G01 X38.2689 Y16.3986
G01 X38.2387 Y16.5190
G01 X38.2325 Y16.5395
G01 X38.1874 Y16.6648
G01 X38.1822 Y16.6767
G01 X38.1250 Y16.7970
G01 X38.1188 Y16.8079
G01 X38.0502 Y16.9220
G01 X38.0431 Y16.9322
G01 X37.9647 Y17.0376
G01 X37.9553 Y17.0486
G01 X37.8655 Y17.1473
G01 X37.8566 Y17.1558
G01 X37.7590 Y17.2440
G01 X37.7481 Y17.2527
G01 X37.6408 Y17.3320
G01 X37.6302 Y17.3387
G01 X37.5394 Y17.3931
G00 Z0.5000
G00 X35.4428 Y17.0785
G01 F250.00
G01 Z-0.0400
G01 F2500.00
G01 X35.4428 Y17.1902
G01 X35.5291 Y17.1902
G01 X35.5147 Y17.1739
G01 X35.5016 Y17.1576
G01 X35.4428 Y17.0785
G01 X35.3752 Y16.8394
G01 X35.3752 Y17.2578
G01 X35.6845 Y17.2578
G01 X35.6700 Y17.2441
G01 X35.6570 Y17.2305
G01 X35.5717 Y17.1364
G01 X35.5608 Y17.1234
G01 X35.5516 Y17.1117
G01 X35.4777 Y17.0119
G01 X35.4661 Y16.9952
G01 X35.4584 Y16.9830
G01 X35.3942 Y16.8758
G01 X35.3859 Y16.8611
G01 X35.3781 Y16.8456
G01 X35.3752 Y16.8394
G01 X35.3075 Y16.4627
G01 X35.3075 Y17.3255
G01 X35.8665 Y17.3255
G01 X35.8381 Y17.3044
G01 X35.8226 Y17.2916
G01 X35.7268 Y17.2048
G01 X35.7104 Y17.1886
G01 X35.6243 Y17.0937
G01 X35.6132 Y17.0807
G01 X35.5324 Y16.9721
G01 X35.5214 Y16.9562
G01 X35.4532 Y16.8427
G01 X35.4458 Y16.8296
G01 X35.4393 Y16.8168
G01 X35.3829 Y16.6972
G01 X35.3755 Y16.6785
G01 X35.3311 Y16.5540
G01 X35.3259 Y16.5360
G01 X35.3075 Y16.4627
G00 Z0.5000
G00 X39.5075 Y20.8856
G01 F250.00
G01 Z-0.0400
G01 F2500.00
G01 X39.6450 Y20.8856
G01 X39.6339 Y20.8743
G01 X39.6237 Y20.8627
G01 X39.6165 Y20.8540
G01 X39.6074 Y20.8416
G01 X39.6001 Y20.8307
G01 X39.5926 Y20.8182
G01 X39.5852 Y20.8047
G01 X39.5788 Y20.7913
G01 X39.5732 Y20.7777
G01 X39.5680 Y20.7633
G01 X39.5635 Y20.7484
G01 X39.5600 Y20.7347
G01 X39.5570 Y20.7194
G01 X39.5548 Y20.7041
G01 X39.5537 Y20.6936
G01 X39.5528 Y20.6785
G01 X39.5526 Y18.6666
G01 X39.5529 Y18.6540
G01 X39.5537 Y18.6414
G01 X39.5555 Y18.6263
G01 X39.5571 Y18.6156
G01 X39.5597 Y18.6029
G01 X39.5633 Y18.5883
G01 X39.5666 Y18.5768
G01 X39.5718 Y18.5620
G01 X39.5788 Y18.5446
G01 X39.5868 Y18.5283
G01 X39.5962 Y18.5115
G01 X39.6064 Y18.4958
G01 X39.6178 Y18.4803
G01 X39.6291 Y18.4668
G01 X39.6423 Y18.4529
G01 X39.6553 Y18.4409
G01 X39.6699 Y18.4288
G01 X39.6869 Y18.4165
G01 X39.7025 Y18.4068
G01 X39.7189 Y18.3978
G01 X39.7355 Y18.3901
G01 X39.7520 Y18.3836
G01 X39.7720 Y18.3771
G01 X39.7889 Y18.3728
G01 X39.8056 Y18.3696
G01 X39.8211 Y18.3674
G01 X39.8364 Y18.3661
G01 X39.8525 Y18.3655
G01 X40.4511 Y18.3655
G01 X40.3702 Y18.3365
G01 X40.3564 Y18.3312
G01 X40.3437 Y18.3256
G01 X40.2518 Y18.2821
G01 X40.2392 Y18.2756
G01 X40.2289 Y18.2698
G01 X40.1434 Y18.2186
G01 X40.1303 Y18.2102
G01 X40.1195 Y18.2025
G01 X40.0389 Y18.1427
G01 X40.0292 Y18.1352
G01 X40.0182 Y18.1257
G01 X39.9443 Y18.0588
G01 X39.9335 Y18.0484
G01 X39.9239 Y18.0383
G01 X39.8559 Y17.9632
G01 X39.8472 Y17.9530
G01 X39.8399 Y17.9436
G01 X39.7802 Y17.8631
G01 X39.7724 Y17.8520
G01 X39.7644 Y17.8395
G01 X39.7132 Y17.7540
G01 X39.7063 Y17.7418
G01 X39.7006 Y17.7307
G01 X39.6574 Y17.6392
G01 X39.6516 Y17.6260
G01 X39.6465 Y17.6128
G01 X39.6131 Y17.5195
G01 X39.6088 Y17.5065
G01 X39.6051 Y17.4934
G01 X39.5780 Y17.3842
G01 X39.5751 Y17.3677
G01 X39.5604 Y17.2687
G01 X39.5588 Y17.2552
G01 X39.5578 Y17.2417
G01 X39.5529 Y17.1426
G01 X39.5526 Y17.1288
G01 X39.5529 Y17.1137
G01 X39.5577 Y17.0151
G01 X39.5588 Y17.0012
G01 X39.5604 Y16.9874
G01 X39.5751 Y16.8882
G01 X39.5774 Y16.8747
G01 X39.5806 Y16.8603
G01 X39.6048 Y16.7636
G01 X39.6112 Y16.7420
G01 X39.6465 Y16.6431
G01 X39.6516 Y16.6299
G01 X39.6574 Y16.6167
G01 X39.6997 Y16.5271
G01 X39.7061 Y16.5144
G01 X39.7130 Y16.5022
G01 X39.7692 Y16.4086
G01 X39.7795 Y16.3937
G01 X39.8394 Y16.3130
G01 X39.8543 Y16.2944
G01 X39.9323 Y16.2087
G01 X39.9436 Y16.1978
G01 X39.9905 Y16.1553
G01 X39.9771 Y16.1575
G01 X39.9637 Y16.1591
G01 X39.9495 Y16.1601
G01 X39.9386 Y16.1604
G01 X39.5075 Y16.1604
G01 X39.5075 Y20.8856
G01 X39.4399 Y20.9532
G01 X40.8905 Y20.9533
G01 X40.8400 Y20.9028
G01 X39.8550 Y20.9028
G01 X39.8393 Y20.9022
G01 X39.8220 Y20.9004
G01 X39.8089 Y20.8982
G01 X39.7964 Y20.8953
G01 X39.7813 Y20.8909
G01 X39.7694 Y20.8866
G01 X39.7572 Y20.8814
G01 X39.7444 Y20.8750
G01 X39.7322 Y20.8681
G01 X39.7201 Y20.8601
G01 X39.7091 Y20.8519
G01 X39.6987 Y20.8431
G01 X39.6879 Y20.8328
G01 X39.6799 Y20.8243
G01 X39.6711 Y20.8139
G01 X39.6619 Y20.8014
G01 X39.6542 Y20.7896
G01 X39.6477 Y20.7781
G01 X39.6414 Y20.7655
G01 X39.6362 Y20.7530
G01 X39.6310 Y20.7383
G01 X39.6273 Y20.7251
G01 X39.6237 Y20.7080
G01 X39.6219 Y20.6954
G01 X39.6206 Y20.6818
G01 X39.6202 Y20.6688
G01 X39.6202 Y18.6680
G01 X39.6206 Y18.6541
G01 X39.6219 Y18.6405
G01 X39.6246 Y18.6229
G01 X39.6277 Y18.6091
G01 X39.6327 Y18.5926
G01 X39.6396 Y18.5746
G01 X39.6477 Y18.5578
G01 X39.6572 Y18.5414
G01 X39.6629 Y18.5330
G01 X39.6698 Y18.5236
G01 X39.6799 Y18.5116
G01 X39.6913 Y18.4997
G01 X39.7059 Y18.4866
G01 X39.7216 Y18.4748
G01 X39.7368 Y18.4651
G01 X39.7517 Y18.4571
G01 X39.7703 Y18.4490
G01 X39.7864 Y18.4434
G01 X39.8054 Y18.4385
G01 X39.8220 Y18.4355
G01 X39.8429 Y18.4335
G01 X39.8550 Y18.4331
G01 X41.8606 Y18.4332
G01 X41.8775 Y18.4342
G01 X41.8949 Y18.4366
G01 X41.9120 Y18.4402
G01 X41.9287 Y18.4450
G01 X41.9423 Y18.4500
G01 X41.9593 Y18.4576
G01 X41.9764 Y18.4669
G01 X41.9900 Y18.4758
G01 X42.0010 Y18.4840
G01 X42.0101 Y18.4916
G01 X42.0199 Y18.5008
G01 X42.0278 Y18.5089
G01 X42.0364 Y18.5188
G01 X42.0451 Y18.5301
G01 X42.0528 Y18.5414
G01 X42.0595 Y18.5525
G01 X42.0655 Y18.5638
G01 X42.0715 Y18.5771
G01 X42.0771 Y18.5917
G01 X42.0809 Y18.6037
G01 X42.0841 Y18.6166
G01 X42.0864 Y18.6281
G01 X42.0884 Y18.6422
G01 X42.0894 Y18.6541
G01 X42.0899 Y18.6680
G01 X42.0899 Y20.4131
G01 X42.1198 Y20.4429
G01 X42.2080 Y20.4429
G01 X42.1995 Y20.4339
G01 X42.1927 Y20.4258
G01 X42.1868 Y20.4183
G01 X42.1797 Y20.4082
G01 X42.1742 Y20.3996
G01 X42.1685 Y20.3897
G01 X42.1635 Y20.3799
G01 X42.1584 Y20.3685
G01 X42.1548 Y20.3593
G01 X42.1508 Y20.3475
G01 X42.1476 Y20.3363
G01 X42.1450 Y20.3248
G01 X42.1417 Y20.3044
G01 X42.1406 Y20.2917
G01 X42.1402 Y20.2804
G01 X42.1402 Y16.0928
G01 X41.5275 Y16.0928
G01 X41.5398 Y16.1004
G01 X41.5505 Y16.1079
G01 X41.6305 Y16.1672
G01 X41.6470 Y16.1808
G01 X41.7201 Y16.2471
G01 X41.7294 Y16.2560
G01 X41.8027 Y16.3366
G01 X41.8164 Y16.3534
G01 X41.8754 Y16.4329
G01 X41.8823 Y16.4428
G01 X41.9384 Y16.5358
G01 X41.9451 Y16.5479
G01 X41.9913 Y16.6451
G01 X41.9964 Y16.6568
G01 X42.0335 Y16.7598
G01 X42.0397 Y16.7802
G01 X42.0637 Y16.8761
G01 X42.0663 Y16.8878
G01 X42.0825 Y16.9955
G01 X42.0840 Y17.0074
G01 X42.0896 Y17.1164
G01 X42.0899 Y17.1288
G01 X42.0848 Y17.2375
G01 X42.0838 Y17.2501
G01 X42.0681 Y17.3575
G01 X42.0662 Y17.3687
G01 X42.0637 Y17.3798
G01 X42.0398 Y17.4753
G01 X42.0366 Y17.4866
G01 X42.0000 Y17.5897
G01 X41.9959 Y17.6003
G01 X41.9913 Y17.6109
G01 X41.9492 Y17.6999
G01 X41.9416 Y17.7146
G01 X41.8823 Y17.8131
G01 X41.8754 Y17.8230
G01 X41.8165 Y17.9024
G01 X41.8027 Y17.9193
G01 X41.7288 Y18.0005
G01 X41.7198 Y18.0090
G01 X41.6464 Y18.0756
G01 X41.6300 Y18.0890
G01 X41.5505 Y18.1480
G01 X41.5409 Y18.1548
G01 X41.4472 Y18.2113
G01 X41.4285 Y18.2214
G01 X41.3379 Y18.2642
G01 X41.3274 Y18.2689
G01 X41.3168 Y18.2729
G01 X41.2239 Y18.3062
G01 X41.2137 Y18.3095
G01 X41.2028 Y18.3126
G01 X41.1070 Y18.3366
G01 X41.0958 Y18.3391
G01 X41.0849 Y18.3410
G01 X40.9871 Y18.3555
G01 X40.9657 Y18.3576
G01 X40.8666 Y18.3625
G01 X40.8542 Y18.3628
G01 X40.7455 Y18.3577
G01 X40.7345 Y18.3569
G01 X40.7226 Y18.3554
G01 X40.6252 Y18.3410
G01 X40.6143 Y18.3391
G01 X40.6038 Y18.3367
G01 X40.5073 Y18.3126
G01 X40.4956 Y18.3093
G01 X40.3839 Y18.2693
G01 X40.3725 Y18.2644
G01 X40.2816 Y18.2214
G01 X40.2635 Y18.2116
G01 X40.1787 Y18.1608
G01 X40.1692 Y18.1548
G01 X40.1596 Y18.1480
G01 X40.0800 Y18.0890
G01 X40.0696 Y18.0808
G01 X39.9902 Y18.0090
G01 X39.9813 Y18.0005
G01 X39.9080 Y17.9200
G01 X39.9001 Y17.9108
G01 X39.8347 Y17.8230
G01 X39.8278 Y17.8131
G01 X39.8222 Y17.8042
G01 X39.7714 Y17.7195
G01 X39.7616 Y17.7014
G01 X39.7188 Y17.6109
G01 X39.7141 Y17.6003
G01 X39.7101 Y17.5897
G01 X39.6745 Y17.4899
G01 X39.6704 Y17.4757
G01 X39.6463 Y17.3794
G01 X39.6439 Y17.3687
G01 X39.6420 Y17.3575
G01 X39.6274 Y17.2595
G01 X39.6261 Y17.2485
G01 X39.6253 Y17.2375
G01 X39.6202 Y17.1288
G01 X39.6205 Y17.1164
G01 X39.6253 Y17.0184
G01 X39.6261 Y17.0074
G01 X39.6276 Y16.9956
G01 X39.6420 Y16.8984
G01 X39.6442 Y16.8860
G01 X39.6730 Y16.7709
G01 X39.6770 Y16.7586
G01 X39.7137 Y16.6568
G01 X39.7186 Y16.6454
G01 X39.7609 Y16.5560
G01 X39.7659 Y16.5462
G01 X39.7717 Y16.5358
G01 X39.8224 Y16.4513
G01 X39.8309 Y16.4381
G01 X39.8997 Y16.3456
G01 X39.9079 Y16.3360
G01 X39.9773 Y16.2595
G01 X39.9899 Y16.2471
G01 X40.0671 Y16.1773
G01 X40.0786 Y16.1679
G01 X40.1099 Y16.1447
G01 X40.1099 Y16.0146
G01 X40.0945 Y16.0303
G01 X40.0862 Y16.0376
G01 X40.0780 Y16.0442
G01 X40.0688 Y16.0509
G01 X40.0588 Y16.0575
G01 X40.0426 Y16.0667
G01 X40.0241 Y16.0752
G01 X40.0038 Y16.0825
G01 X39.9933 Y16.0854
G01 X39.9818 Y16.0881
G01 X39.9619 Y16.0912
G01 X39.9487 Y16.0924
G01 X39.9353 Y16.0928
G01 X39.4399 Y16.0928
G01 X39.4399 Y20.9532
G01 X39.3722 Y21.0209
G01 X40.8850 Y21.0209
G01 X40.8947 Y21.0212
G01 X40.9077 Y21.0225
G01 X40.9166 Y21.0239
G01 X40.9270 Y21.0263
G01 X40.9396 Y21.0301
G01 X40.9481 Y21.0332
G01 X40.9640 Y21.0407
G01 X40.9725 Y21.0456
G01 X40.9797 Y21.0503
G01 X40.9861 Y21.0549
G01 X40.9962 Y21.0633
G01 X41.0032 Y21.0698
G01 X41.4248 Y21.4913
G01 X41.5608 Y21.5933
G01 X41.6490 Y21.6334
G01 X41.7072 Y21.6553
G01 X41.8775 Y21.6808
G01 X48.0450 Y21.6808
G01 X48.0623 Y21.6817
G01 X48.0766 Y21.6838
G01 X48.0911 Y21.6873
G01 X48.1031 Y21.6912
G01 X48.1111 Y21.6944
G01 X48.1210 Y21.6991
G01 X48.1370 Y21.7083
G01 X48.1506 Y21.7183
G01 X48.1632 Y21.7298
G01 X50.4932 Y24.0598
G01 X50.4997 Y24.0666
G01 X50.5079 Y24.0765
G01 X50.5149 Y24.0865
G01 X50.5222 Y24.0988
G01 X50.5267 Y24.1077
G01 X50.5326 Y24.1221
G01 X50.5371 Y24.1369
G01 X50.5397 Y24.1495
G01 X50.5413 Y24.1611
G01 X50.5422 Y24.1759
G01 X50.5418 Y24.1890
G01 X50.5402 Y24.2035
G01 X50.5222 Y24.3030
G01 X50.5222 Y24.6274
G01 X50.6013 Y24.9437
G01 X50.7681 Y25.2246
G01 X50.9970 Y25.4535
G01 X51.2799 Y25.6126
G01 X51.5884 Y25.7008
G01 X51.9123 Y25.7008
G01 X52.2308 Y25.6123
G01 X52.5131 Y25.4535
G01 X52.7406 Y25.2260
G01 X52.8994 Y24.9437
G01 X52.9879 Y24.6252
G01 X52.9879 Y24.3107
G01 X52.8994 Y23.9922
G01 X52.7406 Y23.7099
G01 X52.5160 Y23.4853
G01 X52.4603 Y23.4575
G01 X52.4461 Y23.4494
G01 X52.4377 Y23.4438
G01 X52.4271 Y23.4356
G01 X52.4143 Y23.4235
G01 X52.4059 Y23.4141
G01 X52.3980 Y23.4036
G01 X52.3899 Y23.3909
G01 X52.3840 Y23.3795
G01 X52.3778 Y23.3647
G01 X52.3738 Y23.3519
G01 X52.3704 Y23.3369
G01 X52.3690 Y23.3270
G01 X52.3682 Y23.3182
G01 X52.3679 Y23.3080
G01 X52.3679 Y22.1880
G01 X52.3682 Y22.1777
G01 X52.3690 Y22.1685
G01 X52.3705 Y22.1587
G01 X52.3746 Y22.1412
G01 X52.3771 Y22.1333
G01 X52.3807 Y22.1237
G01 X52.3847 Y22.1148
G01 X52.3888 Y22.1070
G01 X52.3951 Y22.0966
G01 X52.3998 Y22.0898
G01 X52.4097 Y22.0774
G01 X52.4169 Y22.0697
G01 X52.4238 Y22.0632
G01 X52.4379 Y22.0520
G01 X52.4379 Y20.0739
G01 X52.4238 Y20.0627
G01 X52.4126 Y20.0517
G01 X52.4033 Y20.0408
G01 X52.3943 Y20.0282
G01 X52.3882 Y20.0178
G01 X52.3846 Y20.0108
G01 X52.3784 Y19.9963
G01 X52.3733 Y19.9801
G01 X52.3705 Y19.9672
G01 X52.3687 Y19.9541
G01 X52.3679 Y19.9380
G01 X52.3679 Y19.6880
G01 X52.3687 Y19.6718
G01 X52.3705 Y19.6587
G01 X52.3733 Y19.6458
G01 X52.3771 Y19.6333
G01 X52.3834 Y19.6175
G01 X52.3888 Y19.6070
G01 X52.3969 Y19.5938
G01 X52.4054 Y19.5825
G01 X52.4169 Y19.5697
G01 X52.4270 Y19.5604
G01 X52.4367 Y19.5528
G01 X52.4476 Y19.5455
G01 X52.4624 Y19.5374
G01 X52.4770 Y19.5312
G01 X52.4889 Y19.5273
G01 X52.5035 Y19.5238
G01 X52.5178 Y19.5217
G01 X52.5350 Y19.5208
G01 X53.6579 Y19.5208
G01 X53.6579 Y17.4051
G01 X49.8922 Y17.4051
G01 X49.8922 Y19.1580
G01 X49.8918 Y19.1694
G01 X49.8908 Y19.1795
G01 X49.8879 Y19.1954
G01 X49.8856 Y19.2044
G01 X49.8824 Y19.2144
G01 X49.8759 Y19.2298
G01 X49.8690 Y19.2429
G01 X49.8621 Y19.2536
G01 X49.8520 Y19.2667
G01 X49.8425 Y19.2768
G01 X49.8338 Y19.2849
G01 X49.7625 Y19.3460
G01 X49.7512 Y19.3546
G01 X49.7414 Y19.3611
G01 X49.7292 Y19.3678
G01 X49.7184 Y19.3726
G01 X49.7091 Y19.3761
G01 X49.6957 Y19.3801
G01 X49.6858 Y19.3822
G01 X49.5609 Y19.4057
G01 X49.4726 Y19.4668
G01 X48.5408 Y20.3985
G01 X48.5331 Y20.4055
G01 X48.5234 Y20.4131
G01 X48.5125 Y20.4204
G01 X48.5040 Y20.4253
G01 X48.4881 Y20.4328
G01 X48.4796 Y20.4359
G01 X48.4670 Y20.4397
G01 X48.4566 Y20.4421
G01 X48.4477 Y20.4436
G01 X48.4347 Y20.4448
G01 X48.4250 Y20.4451
G01 X42.3750 Y20.4451
G01 X42.3654 Y20.4448
G01 X42.3524 Y20.4436
G01 X42.3435 Y20.4421
G01 X42.3330 Y20.4397
G01 X42.3205 Y20.4359
G01 X42.3089 Y20.4315
G01 X42.2961 Y20.4253
G01 X42.2831 Y20.4176
G01 X42.2739 Y20.4111
G01 X42.2619 Y20.4010
G01 X42.2526 Y20.3917
G01 X42.2433 Y20.3808
G01 X42.2343 Y20.3682
G01 X42.2282 Y20.3578
G01 X42.2234 Y20.3484
G01 X42.2184 Y20.3363
G01 X42.2146 Y20.3247
G01 X42.2111 Y20.3105
G01 X42.2090 Y20.2974
G01 X42.2080 Y20.2845
G01 X42.2079 Y16.0251
G01 X41.5150 Y16.0251
G01 X41.4999 Y16.0244
G01 X41.4835 Y16.0221
G01 X41.4678 Y16.0183
G01 X41.4570 Y16.0147
G01 X41.4424 Y16.0085
G01 X41.4309 Y16.0024
G01 X41.4204 Y15.9957
G01 X41.4095 Y15.9876
G01 X41.3992 Y15.9785
G01 X41.3898 Y15.9686
G01 X41.3815 Y15.9585
G01 X41.3723 Y15.9450
G01 X41.3664 Y15.9344
G01 X41.3605 Y15.9217
G01 X41.3556 Y15.9082
G01 X41.3524 Y15.8965
G01 X41.3499 Y15.8836
G01 X41.3482 Y15.8682
G01 X41.3479 Y15.8580
G01 X41.3480 Y15.1714
G01 X41.3487 Y15.1618
G01 X41.3499 Y15.1523
G01 X41.3533 Y15.1357
G01 X41.3571 Y15.1232
G01 X41.3607 Y15.1137
G01 X41.3685 Y15.0976
G01 X41.3747 Y15.0872
G01 X41.3797 Y15.0799
G01 X41.3898 Y15.0673
G01 X41.4019 Y15.0549
G01 X41.4095 Y15.0483
G01 X41.4167 Y15.0428
G01 X41.4309 Y15.0336
G01 X41.4391 Y15.0291
G01 X41.4489 Y15.0244
G01 X41.4658 Y15.0182
G01 X41.4814 Y15.0142
G01 X41.4966 Y15.0118
G01 X41.5127 Y15.0108
G01 X41.8079 Y15.0108
G01 X41.8079 Y13.6451
G01 X39.8922 Y13.6451
G01 X39.8922 Y15.0108
G01 X39.9422 Y15.0110
G01 X39.9535 Y15.0118
G01 X39.9666 Y15.0138
G01 X39.9822 Y15.0176
G01 X39.9931 Y15.0212
G01 X40.0077 Y15.0274
G01 X40.0225 Y15.0355
G01 X40.0361 Y15.0449
G01 X40.0482 Y15.0549
G01 X40.0603 Y15.0673
G01 X40.0705 Y15.0800
G01 X40.0794 Y15.0937
G01 X40.0867 Y15.1077
G01 X40.0930 Y15.1232
G01 X40.0977 Y15.1394
G01 X40.0997 Y15.1489
G01 X40.1011 Y15.1585
G01 X40.1019 Y15.1677
G01 X40.1022 Y15.1780
G01 X40.1022 Y15.8580
G01 X40.1014 Y15.8741
G01 X40.0997 Y15.8870
G01 X40.0968 Y15.9002
G01 X40.0930 Y15.9127
G01 X40.0881 Y15.9252
G01 X40.0816 Y15.9383
G01 X40.0754 Y15.9487
G01 X40.0686 Y15.9585
G01 X40.0603 Y15.9686
G01 X40.0508 Y15.9785
G01 X40.0406 Y15.9876
G01 X40.0297 Y15.9957
G01 X40.0192 Y16.0024
G01 X40.0077 Y16.0085
G01 X39.9931 Y16.0147
G01 X39.9811 Y16.0186
G01 X39.9687 Y16.0217
G01 X39.9535 Y16.0241
G01 X39.9356 Y16.0251
G01 X39.3722 Y16.0251
G01 X39.3722 Y21.0209
G01 X39.2997 Y21.0886
G01 X40.8850 Y21.0886
G01 X40.8942 Y21.0890
G01 X40.8996 Y21.0896
G01 X40.9092 Y21.0915
G01 X40.9186 Y21.0944
G01 X40.9309 Y21.0998
G01 X40.9362 Y21.1027
G01 X40.9443 Y21.1081
G01 X40.9536 Y21.1159
G01 X41.3804 Y21.5426
G01 X41.5261 Y21.6519
G01 X41.6231 Y21.6960
G01 X41.6902 Y21.7211
G01 X41.8725 Y21.7485
G01 X48.0450 Y21.7485
G01 X48.0542 Y21.7489
G01 X48.0596 Y21.7495
G01 X48.0692 Y21.7514
G01 X48.0786 Y21.7543
G01 X48.0876 Y21.7580
G01 X48.0962 Y21.7626
G01 X48.1043 Y21.7680
G01 X48.1087 Y21.7715
G01 X48.1154 Y21.7776
G01 X50.4454 Y24.1076
G01 X50.4548 Y24.1185
G01 X50.4602 Y24.1264
G01 X50.4647 Y24.1349
G01 X50.4674 Y24.1410
G01 X50.4701 Y24.1487
G01 X50.4733 Y24.1623
G01 X50.4743 Y24.1718
G01 X50.4745 Y24.1780
G01 X50.4743 Y24.1853
G01 X50.4729 Y24.1958
G01 X50.4545 Y24.2969
G01 X50.4545 Y24.6357
G01 X50.5380 Y24.9697
G01 X50.7142 Y25.2664
G01 X50.9557 Y25.5079
G01 X51.2536 Y25.6755
G01 X51.5790 Y25.7685
G01 X51.9215 Y25.7685
G01 X52.2568 Y25.6753
G01 X52.5543 Y25.5079
G01 X52.7950 Y25.2673
G01 X52.9624 Y24.9697
G01 X53.0555 Y24.6344
G01 X53.0555 Y24.3015
G01 X52.9624 Y23.9662
G01 X52.7950 Y23.6686
G01 X52.5561 Y23.4297
G01 X52.4861 Y23.3946
G01 X52.4748 Y23.3871
G01 X52.4656 Y23.3792
G01 X52.4587 Y23.3718
G01 X52.4528 Y23.3640
G01 X52.4456 Y23.3515
G01 X52.4416 Y23.3423
G01 X52.4387 Y23.3327
G01 X52.4371 Y23.3258
G01 X52.4361 Y23.3184
G01 X52.4355 Y23.3080
G01 X52.4357 Y22.1831
G01 X52.4372 Y22.1698
G01 X52.4385 Y22.1638
G01 X52.4414 Y22.1544
G01 X52.4437 Y22.1485
G01 X52.4475 Y22.1406
G01 X52.4522 Y22.1328
G01 X52.4570 Y22.1262
G01 X52.4613 Y22.1211
G01 X52.4682 Y22.1142
G01 X52.4794 Y22.1054
G01 X52.4839 Y22.1026
G01 X52.4925 Y22.0980
G01 X52.5055 Y22.0930
G01 X52.5055 Y20.0330
G01 X52.4925 Y20.0279
G01 X52.4839 Y20.0233
G01 X52.4794 Y20.0205
G01 X52.4713 Y20.0144
G01 X52.4613 Y20.0048
G01 X52.4570 Y19.9997
G01 X52.4517 Y19.9923
G01 X52.4451 Y19.9805
G01 X52.4398 Y19.9667
G01 X52.4372 Y19.9561
G01 X52.4361 Y19.9487
G01 X52.4355 Y19.9380
G01 X52.4355 Y19.6880
G01 X52.4361 Y19.6772
G01 X52.4372 Y19.6698
G01 X52.4398 Y19.6592
G01 X52.4451 Y19.6454
G01 X52.4497 Y19.6368
G01 X52.4551 Y19.6287
G01 X52.4613 Y19.6211
G01 X52.4656 Y19.6167
G01 X52.4713 Y19.6115
G01 X52.4794 Y19.6054
G01 X52.4891 Y19.5997
G01 X52.4965 Y19.5962
G01 X52.5015 Y19.5943
G01 X52.5109 Y19.5914
G01 X52.5204 Y19.5895
G01 X52.5302 Y19.5886
G01 X53.7255 Y19.5885
G01 X53.7255 Y17.3375
G01 X49.8245 Y17.3375
G01 X49.8245 Y19.1580
G01 X49.8243 Y19.1653
G01 X49.8235 Y19.1722
G01 X49.8221 Y19.1799
G01 X49.8190 Y19.1907
G01 X49.8154 Y19.1995
G01 X49.8110 Y19.2080
G01 X49.8059 Y19.2160
G01 X49.7999 Y19.2234
G01 X49.7933 Y19.2303
G01 X49.7198 Y19.2935
G01 X49.7114 Y19.2999
G01 X49.7035 Y19.3049
G01 X49.6914 Y19.3106
G01 X49.6824 Y19.3136
G01 X49.6759 Y19.3152
G01 X49.5342 Y19.3418
G01 X49.4291 Y19.4147
G01 X48.4954 Y20.3483
G01 X48.4887 Y20.3544
G01 X48.4843 Y20.3579
G01 X48.4762 Y20.3633
G01 X48.4636 Y20.3697
G01 X48.4586 Y20.3716
G01 X48.4492 Y20.3745
G01 X48.4396 Y20.3764
G01 X48.4342 Y20.3770
G01 X48.4250 Y20.3775
G01 X42.3750 Y20.3775
G01 X42.3659 Y20.3770
G01 X42.3604 Y20.3764
G01 X42.3509 Y20.3745
G01 X42.3415 Y20.3716
G01 X42.3365 Y20.3697
G01 X42.3291 Y20.3662
G01 X42.3194 Y20.3605
G01 X42.3082 Y20.3517
G01 X42.3013 Y20.3448
G01 X42.2970 Y20.3397
G01 X42.2917 Y20.3323
G01 X42.2871 Y20.3246
G01 X42.2837 Y20.3174
G01 X42.2814 Y20.3115
G01 X42.2785 Y20.3021
G01 X42.2772 Y20.2961
G01 X42.2761 Y20.2887
G01 X42.2755 Y20.2780
G01 X42.2755 Y15.9575
G01 X41.5150 Y15.9575
G01 X41.5050 Y15.9569
G01 X41.4952 Y15.9555
G01 X41.4860 Y15.9531
G01 X41.4765 Y15.9497
G01 X41.4691 Y15.9462
G01 X41.4639 Y15.9433
G01 X41.4558 Y15.9379
G01 X41.4482 Y15.9317
G01 X41.4413 Y15.9248
G01 X41.4373 Y15.9201
G01 X41.4317 Y15.9123
G01 X41.4269 Y15.9042
G01 X41.4235 Y15.8970
G01 X41.4214 Y15.8915
G01 X41.4185 Y15.8821
G01 X41.4166 Y15.8726
G01 X41.4157 Y15.8628
G01 X41.4155 Y15.1780
G01 X41.4161 Y15.1672
G01 X41.4185 Y15.1538
G01 X41.4214 Y15.1444
G01 X41.4237 Y15.1385
G01 X41.4297 Y15.1268
G01 X41.4373 Y15.1158
G01 X41.4456 Y15.1067
G01 X41.4558 Y15.0980
G01 X41.4639 Y15.0926
G01 X41.4725 Y15.0880
G01 X41.4815 Y15.0843
G01 X41.4909 Y15.0814
G01 X41.5050 Y15.0790
G01 X41.5150 Y15.0785
G01 X41.8755 Y15.0785
G01 X41.8755 Y13.5775
G01 X39.8245 Y13.5775
G01 X39.8245 Y15.0785
G01 X39.9399 Y15.0786
G01 X39.9496 Y15.0795
G01 X39.9549 Y15.0805
G01 X39.9686 Y15.0843
G01 X39.9809 Y15.0897
G01 X39.9906 Y15.0954
G01 X39.9987 Y15.1015
G01 X40.0088 Y15.1111
G01 X40.0150 Y15.1187
G01 X40.0184 Y15.1236
G01 X40.0231 Y15.1317
G01 X40.0287 Y15.1444
G01 X40.0316 Y15.1538
G01 X40.0340 Y15.1672
G01 X40.0345 Y15.1780
G01 X40.0344 Y15.8628
G01 X40.0335 Y15.8726
G01 X40.0316 Y15.8821
G01 X40.0287 Y15.8915
G01 X40.0264 Y15.8974
G01 X40.0227 Y15.9050
G01 X40.0181 Y15.9127
G01 X40.0127 Y15.9201
G01 X40.0088 Y15.9248
G01 X40.0019 Y15.9317
G01 X39.9943 Y15.9379
G01 X39.9862 Y15.9433
G01 X39.9809 Y15.9462
G01 X39.9736 Y15.9497
G01 X39.9633 Y15.9534
G01 X39.9496 Y15.9564
G01 X39.9350 Y15.9575
G01 X39.3045 Y15.9575
G01 X39.3045 Y21.0580
G01 X39.3035 Y21.0725
G01 X39.3016 Y21.0821
G01 X39.2997 Y21.0886
G00 Z0.5000
G00 X41.6623 Y21.5662
G01 F250.00
G01 Z-0.0400
G01 F2500.00
G01 X41.6495 Y21.5610
G01 X41.6099 Y21.5422
G01 X41.5999 Y21.5366
G01 X41.5638 Y21.5149
G01 X41.5543 Y21.5084
G01 X41.5187 Y21.4818
G01 X41.4836 Y21.4503
G01 X40.8680 Y20.8351
G01 X39.8550 Y20.8351
G01 X39.8446 Y20.8348
G01 X39.8360 Y20.8340
G01 X39.8227 Y20.8319
G01 X39.8055 Y20.8276
G01 X39.7970 Y20.8247
G01 X39.7866 Y20.8205
G01 X39.7771 Y20.8158
G01 X39.7680 Y20.8107
G01 X39.7595 Y20.8051
G01 X39.7516 Y20.7992
G01 X39.7380 Y20.7873
G01 X39.7264 Y20.7746
G01 X39.7199 Y20.7663
G01 X39.7140 Y20.7577
G01 X39.7070 Y20.7456
G01 X39.7025 Y20.7363
G01 X39.6983 Y20.7260
G01 X39.6940 Y20.7128
G01 X39.6919 Y20.7042
G01 X39.6897 Y20.6922
G01 X39.6882 Y20.6783
G01 X39.6879 Y20.6680
G01 X39.6879 Y18.6662
G01 X39.6886 Y18.6527
G01 X39.6897 Y18.6437
G01 X39.6919 Y18.6317
G01 X39.6940 Y18.6231
G01 X39.6965 Y18.6150
G01 X39.7009 Y18.6033
G01 X39.7055 Y18.5933
G01 X39.7099 Y18.5850
G01 X39.7140 Y18.5782
G01 X39.7199 Y18.5696
G01 X39.7264 Y18.5613
G01 X39.7357 Y18.5509
G01 X39.7440 Y18.5430
G01 X39.7516 Y18.5367
G01 X39.7595 Y18.5308
G01 X39.7680 Y18.5252
G01 X39.7771 Y18.5201
G01 X39.7877 Y18.5150
G01 X39.7970 Y18.5112
G01 X39.8102 Y18.5069
G01 X39.8193 Y18.5047
G01 X39.8307 Y18.5026
G01 X39.8446 Y18.5011
G01 X39.8539 Y18.5008
G01 X41.8550 Y18.5008
G01 X41.8705 Y18.5015
G01 X41.8827 Y18.5031
G01 X41.8998 Y18.5069
G01 X41.9131 Y18.5112
G01 X41.9265 Y18.5169
G01 X41.9390 Y18.5234
G01 X41.9505 Y18.5308
G01 X41.9617 Y18.5393
G01 X41.9744 Y18.5509
G01 X41.9863 Y18.5645
G01 X41.9961 Y18.5782
G01 X42.0046 Y18.5933
G01 X42.0117 Y18.6097
G01 X42.0170 Y18.6266
G01 X42.0204 Y18.6437
G01 X42.0220 Y18.6610
G01 X42.0222 Y20.4411
G01 X42.0917 Y20.5106
G01 X48.5298 Y20.5106
G01 X49.5377 Y19.5089
G01 X49.5510 Y19.4971
G01 X49.5648 Y19.4872
G01 X49.5790 Y19.4791
G01 X49.5890 Y19.4744
G01 X49.5970 Y19.4712
G01 X49.6044 Y19.4686
G01 X49.6155 Y19.4655
G01 X49.6248 Y19.4636
G01 X49.6377 Y19.4617
G01 X49.6480 Y19.4610
G01 X49.6608 Y19.4609
G01 X49.6696 Y19.4615
G01 X49.6804 Y19.4627
G01 X49.6896 Y19.4644
G01 X49.6999 Y19.4669
G01 X49.7156 Y19.4722
G01 X49.7805 Y19.5008
G01 X51.2077 Y19.5008
G01 X51.2077 Y19.4601
G01 X50.1250 Y19.4601
G01 X50.1096 Y19.4594
G01 X50.1007 Y19.4583
G01 X50.0893 Y19.4562
G01 X50.0721 Y19.4515
G01 X50.0636 Y19.4484
G01 X50.0535 Y19.4440
G01 X50.0472 Y19.4408
G01 X50.0351 Y19.4338
G01 X50.0267 Y19.4281
G01 X50.0184 Y19.4216
G01 X50.0057 Y19.4100
G01 X49.9938 Y19.3964
G01 X49.9878 Y19.3884
G01 X49.9817 Y19.3790
G01 X49.9755 Y19.3676
G01 X49.9716 Y19.3592
G01 X49.9667 Y19.3465
G01 X49.9641 Y19.3379
G01 X49.9618 Y19.3287
G01 X49.9597 Y19.3172
G01 X49.9586 Y19.3082
G01 X49.9579 Y19.2947
G01 X49.9580 Y17.6360
G01 X49.9590 Y17.6242
G01 X49.9602 Y17.6153
G01 X49.9631 Y17.6016
G01 X49.9656 Y17.5927
G01 X49.9684 Y17.5847
G01 X49.9725 Y17.5746
G01 X49.9770 Y17.5653
G01 X49.9817 Y17.5569
G01 X49.9878 Y17.5475
G01 X49.9938 Y17.5395
G01 X50.0001 Y17.5320
G01 X50.0080 Y17.5236
G01 X50.0216 Y17.5117
G01 X50.0296 Y17.5058
G01 X50.0411 Y17.4984
G01 X50.0508 Y17.4932
G01 X50.0593 Y17.4892
G01 X50.0721 Y17.4844
G01 X50.0802 Y17.4819
G01 X50.0893 Y17.4797
G01 X50.1007 Y17.4776
G01 X50.1146 Y17.4761
G01 X50.1250 Y17.4758
G01 X53.4295 Y17.4759
G01 X53.4405 Y17.4765
G01 X53.4527 Y17.4781
G01 X53.4663 Y17.4810
G01 X53.4779 Y17.4844
G01 X53.4913 Y17.4895
G01 X53.4997 Y17.4934
G01 X53.5121 Y17.5002
G01 X53.5234 Y17.5078
G01 X53.5360 Y17.5180
G01 X53.5444 Y17.5259
G01 X53.5537 Y17.5363
G01 X53.5602 Y17.5446
G01 X53.5683 Y17.5569
G01 X53.5746 Y17.5683
G01 X53.5792 Y17.5783
G01 X53.5836 Y17.5900
G01 X53.5870 Y17.6015
G01 X53.5899 Y17.6152
G01 X53.5915 Y17.6277
G01 X53.5922 Y17.6430
G01 X53.5922 Y19.2930
G01 X53.5919 Y19.3033
G01 X53.5904 Y19.3172
G01 X53.5882 Y19.3292
G01 X53.5847 Y19.3425
G01 X53.5806 Y19.3540
G01 X53.5746 Y19.3676
G01 X53.5683 Y19.3790
G01 X53.5622 Y19.3884
G01 X53.5563 Y19.3964
G01 X53.5500 Y19.4039
G01 X53.5387 Y19.4155
G01 X53.5317 Y19.4216
G01 X53.5234 Y19.4281
G01 X53.5090 Y19.4375
G01 X53.4924 Y19.4459
G01 X53.4831 Y19.4497
G01 X53.4746 Y19.4526
G01 X53.4664 Y19.4549
G01 X53.4527 Y19.4578
G01 X53.4440 Y19.4590
G01 X53.4331 Y19.4599
G01 X52.3024 Y19.4601
G01 X52.3024 Y20.1971
G01 X52.3117 Y20.2043
G01 X52.3187 Y20.2104
G01 X52.3276 Y20.2193
G01 X52.3337 Y20.2263
G01 X52.3445 Y20.2408
G01 X52.3501 Y20.2500
G01 X52.3546 Y20.2583
G01 X52.3585 Y20.2667
G01 X52.3618 Y20.2749
G01 X52.3647 Y20.2834
G01 X52.3682 Y20.2967
G01 X52.3711 Y20.3142
G01 X52.3719 Y20.3226
G01 X52.3722 Y20.3330
G01 X52.3720 Y21.7899
G01 X52.3711 Y21.8017
G01 X52.3699 Y21.8106
G01 X52.3660 Y21.8279
G01 X52.3606 Y21.8440
G01 X52.3570 Y21.8526
G01 X52.3531 Y21.8606
G01 X52.3484 Y21.8690
G01 X52.3422 Y21.8784
G01 X52.3363 Y21.8864
G01 X52.3300 Y21.8939
G01 X52.3221 Y21.9023
G01 X52.3160 Y21.9079
G01 X52.3024 Y21.9188
G01 X52.3024 Y23.4371
G01 X52.3124 Y23.4427
G01 X52.3965 Y23.4931
G01 X52.4102 Y23.5022
G01 X52.4946 Y23.5650
G01 X52.5017 Y23.5711
G01 X52.5803 Y23.6426
G01 X52.6522 Y23.7217
G01 X52.6619 Y23.7334
G01 X52.7251 Y23.8190
G01 X52.7803 Y23.9106
G01 X52.7879 Y23.9248
G01 X52.8336 Y24.0220
G01 X52.8694 Y24.1214
G01 X52.8741 Y24.1371
G01 X52.8998 Y24.2406
G01 X52.9157 Y24.3461
G01 X52.9172 Y24.3617
G01 X52.9220 Y24.4598
G01 X52.9221 Y24.4729
G01 X52.9166 Y24.5818
G01 X52.9012 Y24.6876
G01 X52.8984 Y24.7019
G01 X52.8741 Y24.7989
G01 X52.8694 Y24.8146
G01 X52.8336 Y24.9139
G01 X52.7846 Y25.0177
G01 X52.7260 Y25.1156
G01 X52.6623 Y25.2019
G01 X52.6531 Y25.2132
G01 X52.5860 Y25.2873
G01 X52.5744 Y25.2989
G01 X52.4946 Y25.3709
G01 X52.4040 Y25.4380
G01 X52.3124 Y25.4933
G01 X52.2979 Y25.5010
G01 X52.2010 Y25.5465
G01 X52.0983 Y25.5834
G01 X52.0859 Y25.5870
G01 X51.9907 Y25.6109
G01 X51.9749 Y25.6141
G01 X51.8688 Y25.6295
G01 X51.7632 Y25.6349
G01 X51.7468 Y25.6349
G01 X51.6412 Y25.6295
G01 X51.5352 Y25.6141
G01 X51.5193 Y25.6109
G01 X51.4159 Y25.5847
G01 X51.3160 Y25.5492
G01 X51.3012 Y25.5431
G01 X51.2118 Y25.5008
G01 X51.2032 Y25.4964
G01 X51.1067 Y25.4385
G01 X51.0211 Y25.3752
G01 X51.0087 Y25.3651
G01 X50.9297 Y25.2933
G01 X50.8579 Y25.2143
G01 X50.8478 Y25.2019
G01 X50.7840 Y25.1156
G01 X50.7263 Y25.0192
G01 X50.6799 Y24.9217
G01 X50.6738 Y24.9069
G01 X50.6382 Y24.8071
G01 X50.6117 Y24.7019
G01 X50.6089 Y24.6876
G01 X50.5945 Y24.5905
G01 X50.5929 Y24.5742
G01 X50.5879 Y24.4671
G01 X50.5929 Y24.3609
G01 X50.5944 Y24.3461
G01 X50.6105 Y24.2394
G01 X50.6367 Y24.1341
G01 X50.6396 Y24.1246
G01 X50.6463 Y24.1056
G01 X48.1460 Y21.6053
G01 X41.8650 Y21.6053
G01 X41.8120 Y21.6027
G01 X41.7586 Y21.5948
G01 X41.7074 Y21.5821
G01 X41.6623 Y21.5662
G00 Z0.5000
G00 X41.6860 Y21.5029
G01 F250.00
G01 Z-0.0400
G01 F2500.00
G01 X41.6781 Y21.4997
G01 X41.6380 Y21.4805
G01 X41.5986 Y21.4569
G01 X41.5618 Y21.4296
G01 X41.5282 Y21.3994
G01 X40.8960 Y20.7675
G01 X39.8517 Y20.7674
G01 X39.8395 Y20.7662
G01 X39.8293 Y20.7641
G01 X39.8246 Y20.7627
G01 X39.8146 Y20.7589
G01 X39.8038 Y20.7533
G01 X39.7924 Y20.7453
G01 X39.7847 Y20.7383
G01 X39.7777 Y20.7306
G01 X39.7716 Y20.7221
G01 X39.7647 Y20.7096
G01 X39.7603 Y20.6984
G01 X39.7577 Y20.6884
G01 X39.7568 Y20.6835
G01 X39.7560 Y20.6780
G01 X39.7555 Y20.6680
G01 X39.7555 Y18.6680
G01 X39.7560 Y18.6579
G01 X39.7568 Y18.6524
G01 X39.7589 Y18.6422
G01 X39.7621 Y18.6323
G01 X39.7664 Y18.6228
G01 X39.7693 Y18.6175
G01 X39.7738 Y18.6104
G01 X39.7814 Y18.6010
G01 X39.7881 Y18.5943
G01 X39.7924 Y18.5906
G01 X39.8009 Y18.5845
G01 X39.8099 Y18.5793
G01 X39.8146 Y18.5770
G01 X39.8246 Y18.5732
G01 X39.8293 Y18.5718
G01 X39.8395 Y18.5697
G01 X39.8448 Y18.5690
G01 X39.8550 Y18.5685
G01 X41.8550 Y18.5685
G01 X41.8653 Y18.5690
G01 X41.8752 Y18.5705
G01 X41.8807 Y18.5718
G01 X41.8906 Y18.5750
G01 X41.9002 Y18.5793
G01 X41.9062 Y18.5826
G01 X41.9125 Y18.5868
G01 X41.9220 Y18.5943
G01 X41.9287 Y18.6010
G01 X41.9362 Y18.6104
G01 X41.9408 Y18.6175
G01 X41.9460 Y18.6275
G01 X41.9496 Y18.6370
G01 X41.9525 Y18.6478
G01 X41.9540 Y18.6579
G01 X41.9545 Y18.6680
G01 X41.9545 Y20.4691
G01 X42.0637 Y20.5783
G01 X48.5577 Y20.5783
G01 X49.5849 Y19.5574
G01 X49.5924 Y19.5506
G01 X49.6007 Y19.5446
G01 X49.6091 Y19.5397
G01 X49.6215 Y19.5343
G01 X49.6355 Y19.5304
G01 X49.6498 Y19.5286
G01 X49.6624 Y19.5287
G01 X49.6689 Y19.5294
G01 X49.6783 Y19.5312
G01 X49.6875 Y19.5339
G01 X49.6937 Y19.5363
G01 X49.7662 Y19.5685
G01 X51.2753 Y19.5685
G01 X51.2753 Y19.3925
G01 X50.1217 Y19.3924
G01 X50.1095 Y19.3912
G01 X50.0993 Y19.3891
G01 X50.0946 Y19.3877
G01 X50.0846 Y19.3839
G01 X50.0738 Y19.3783
G01 X50.0624 Y19.3703
G01 X50.0547 Y19.3633
G01 X50.0477 Y19.3556
G01 X50.0438 Y19.3505
G01 X50.0393 Y19.3434
G01 X50.0336 Y19.3321
G01 X50.0289 Y19.3187
G01 X50.0268 Y19.3085
G01 X50.0261 Y19.3030
G01 X50.0255 Y19.2930
G01 X50.0255 Y17.6430
G01 X50.0261 Y17.6329
G01 X50.0268 Y17.6274
G01 X50.0289 Y17.6172
G01 X50.0336 Y17.6038
G01 X50.0393 Y17.5925
G01 X50.0438 Y17.5854
G01 X50.0477 Y17.5803
G01 X50.0547 Y17.5726
G01 X50.0624 Y17.5656
G01 X50.0738 Y17.5576
G01 X50.0863 Y17.5513
G01 X50.0993 Y17.5468
G01 X50.1095 Y17.5447
G01 X50.1148 Y17.5440
G01 X50.1250 Y17.5435
G01 X53.4250 Y17.5435
G01 X53.4353 Y17.5440
G01 X53.4406 Y17.5447
G01 X53.4507 Y17.5468
G01 X53.4555 Y17.5482
G01 X53.4606 Y17.5500
G01 X53.4702 Y17.5543
G01 X53.4762 Y17.5576
G01 X53.4825 Y17.5618
G01 X53.4876 Y17.5656
G01 X53.4954 Y17.5726
G01 X53.5024 Y17.5804
G01 X53.5062 Y17.5854
G01 X53.5108 Y17.5925
G01 X53.5137 Y17.5978
G01 X53.5165 Y17.6038
G01 X53.5198 Y17.6125
G01 X53.5224 Y17.6225
G01 X53.5233 Y17.6274
G01 X53.5240 Y17.6329
G01 X53.5245 Y17.6430
G01 X53.5245 Y19.2930
G01 X53.5240 Y19.3030
G01 X53.5233 Y19.3085
G01 X53.5224 Y19.3134
G01 X53.5198 Y19.3234
G01 X53.5165 Y19.3321
G01 X53.5137 Y19.3381
G01 X53.5108 Y19.3434
G01 X53.5062 Y19.3505
G01 X53.4987 Y19.3599
G01 X53.4920 Y19.3666
G01 X53.4825 Y19.3741
G01 X53.4762 Y19.3783
G01 X53.4702 Y19.3816
G01 X53.4606 Y19.3859
G01 X53.4507 Y19.3891
G01 X53.4406 Y19.3912
G01 X53.4283 Y19.3924
G01 X52.2347 Y19.3925
G01 X52.2347 Y20.2380
G01 X52.2406 Y20.2400
G01 X52.2502 Y20.2443
G01 X52.2562 Y20.2476
G01 X52.2625 Y20.2518
G01 X52.2676 Y20.2556
G01 X52.2754 Y20.2626
G01 X52.2824 Y20.2704
G01 X52.2862 Y20.2754
G01 X52.2908 Y20.2825
G01 X52.2937 Y20.2878
G01 X52.2965 Y20.2938
G01 X52.2998 Y20.3025
G01 X52.3024 Y20.3125
G01 X52.3033 Y20.3174
G01 X52.3040 Y20.3229
G01 X52.3045 Y20.3330
G01 X52.3044 Y21.7882
G01 X52.3040 Y21.7930
G01 X52.3025 Y21.8031
G01 X52.3012 Y21.8087
G01 X52.2979 Y21.8186
G01 X52.2954 Y21.8246
G01 X52.2908 Y21.8334
G01 X52.2862 Y21.8405
G01 X52.2824 Y21.8456
G01 X52.2787 Y21.8499
G01 X52.2720 Y21.8566
G01 X52.2625 Y21.8641
G01 X52.2562 Y21.8683
G01 X52.2502 Y21.8716
G01 X52.2438 Y21.8746
G01 X52.2347 Y21.8779
G01 X52.2347 Y23.4799
G01 X52.2744 Y23.4988
G01 X52.3638 Y23.5524
G01 X52.3699 Y23.5566
G01 X52.4487 Y23.6150
G01 X52.4552 Y23.6203
G01 X52.5325 Y23.6905
G01 X52.6018 Y23.7667
G01 X52.6080 Y23.7743
G01 X52.6664 Y23.8531
G01 X52.6706 Y23.8592
G01 X52.7250 Y23.9502
G01 X52.7689 Y24.0427
G01 X52.7726 Y24.0517
G01 X52.8073 Y24.1491
G01 X52.8334 Y24.2533
G01 X52.8486 Y24.3553
G01 X52.8496 Y24.3651
G01 X52.8544 Y24.4631
G01 X52.8545 Y24.4704
G01 X52.8492 Y24.5759
G01 X52.8342 Y24.6776
G01 X52.8324 Y24.6872
G01 X52.8085 Y24.7824
G01 X52.8057 Y24.7918
G01 X52.7713 Y24.8876
G01 X52.7250 Y24.9857
G01 X52.6693 Y25.0787
G01 X52.6080 Y25.1616
G01 X52.6018 Y25.1692
G01 X52.5359 Y25.2419
G01 X52.5290 Y25.2488
G01 X52.4515 Y25.3187
G01 X52.3658 Y25.3822
G01 X52.2776 Y25.4352
G01 X52.2690 Y25.4398
G01 X52.1747 Y25.4842
G01 X52.0764 Y25.5194
G01 X51.9743 Y25.5453
G01 X51.9649 Y25.5471
G01 X51.8630 Y25.5621
G01 X51.7599 Y25.5673
G01 X51.7502 Y25.5673
G01 X51.6471 Y25.5621
G01 X51.5452 Y25.5471
G01 X51.5358 Y25.5453
G01 X51.4362 Y25.5202
G01 X51.3388 Y25.4855
G01 X51.3298 Y25.4818
G01 X51.2358 Y25.4371
G01 X51.1443 Y25.3822
G01 X51.0614 Y25.3209
G01 X51.0538 Y25.3147
G01 X50.9776 Y25.2454
G01 X50.9043 Y25.1645
G01 X50.8437 Y25.0828
G01 X50.8382 Y25.0747
G01 X50.7851 Y24.9857
G01 X50.7412 Y24.8932
G01 X50.7375 Y24.8842
G01 X50.7028 Y24.7868
G01 X50.6771 Y24.6846
G01 X50.6614 Y24.5806
G01 X50.6605 Y24.5709
G01 X50.6555 Y24.4680
G01 X50.6606 Y24.3625
G01 X50.6758 Y24.2583
G01 X50.6774 Y24.2500
G01 X50.7028 Y24.1491
G01 X50.7245 Y24.0881
G01 X48.1740 Y21.5376
G01 X41.8650 Y21.5376
G01 X41.8179 Y21.5353
G01 X41.7714 Y21.5284
G01 X41.7261 Y21.5171
G01 X41.6860 Y21.5029
G00 Z0.5000
G00 X38.0805 Y25.7651
G01 F250.00
G01 Z-0.0400
G01 F2500.00
G01 X38.0814 Y25.7559
G01 X38.0967 Y25.6533
G01 X38.1228 Y25.5491
G01 X38.1588 Y25.4483
G01 X38.2051 Y25.3502
G01 X38.2608 Y25.2572
G01 X38.3243 Y25.1714
G01 X38.3976 Y25.0905
G01 X38.4786 Y25.0172
G01 X38.5643 Y24.9537
G01 X38.6558 Y24.8988
G01 X38.7554 Y24.8517
G01 X38.8562 Y24.8157
G01 X38.9604 Y24.7896
G01 X39.0671 Y24.7738
G01 X39.1750 Y24.7685
G01 X39.2830 Y24.7738
G01 X39.3896 Y24.7896
G01 X39.4939 Y24.8157
G01 X39.5947 Y24.8517
G01 X39.6943 Y24.8988
G01 X39.7858 Y24.9537
G01 X39.8715 Y25.0172
G01 X39.9525 Y25.0905
G01 X40.0257 Y25.1714
G01 X40.0893 Y25.2572
G01 X40.1450 Y25.3502
G01 X40.1913 Y25.4483
G01 X40.2273 Y25.5491
G01 X40.2534 Y25.6533
G01 X40.2692 Y25.7600
G01 X40.2745 Y25.8680
G01 X40.2692 Y25.9759
G01 X40.2534 Y26.0826
G01 X40.2273 Y26.1868
G01 X40.1913 Y26.2876
G01 X40.1469 Y26.3819
G01 X40.1423 Y26.3905
G01 X40.0918 Y26.4747
G01 X40.0864 Y26.4828
G01 X40.0257 Y26.5645
G01 X39.9559 Y26.6419
G01 X39.9508 Y26.6471
G01 X39.8715 Y26.7187
G01 X39.7899 Y26.7793
G01 X39.7818 Y26.7848
G01 X39.6943 Y26.8371
G01 X39.6003 Y26.8818
G01 X39.5912 Y26.8855
G01 X39.4988 Y26.9186
G01 X39.4895 Y26.9214
G01 X39.3896 Y26.9463
G01 X39.2830 Y26.9621
G01 X39.1750 Y26.9675
G01 X39.0699 Y26.9624
G01 X39.0522 Y26.9600
G01 X34.9645 Y31.0550
G01 X34.9645 Y32.9780
G01 X34.9640 Y32.9882
G01 X34.9625 Y32.9981
G01 X34.9598 Y33.0084
G01 X34.9560 Y33.0184
G01 X34.9504 Y33.0291
G01 X34.9462 Y33.0355
G01 X34.9387 Y33.0449
G01 X34.9320 Y33.0516
G01 X34.9225 Y33.0591
G01 X34.9162 Y33.0633
G01 X34.9102 Y33.0666
G01 X34.9006 Y33.0709
G01 X34.8907 Y33.0741
G01 X34.8852 Y33.0754
G01 X34.8753 Y33.0769
G01 X34.8650 Y33.0775
G01 X32.3650 Y33.0775
G01 X32.3548 Y33.0769
G01 X32.3449 Y33.0754
G01 X32.3393 Y33.0741
G01 X32.3294 Y33.0709
G01 X32.3199 Y33.0666
G01 X32.3138 Y33.0633
G01 X32.3024 Y33.0553
G01 X32.2947 Y33.0483
G01 X32.2877 Y33.0406
G01 X32.2816 Y33.0321
G01 X32.2764 Y33.0231
G01 X32.2721 Y33.0136
G01 X32.2689 Y33.0037
G01 X32.2668 Y32.9935
G01 X32.2661 Y32.9882
G01 X32.2655 Y32.9780
G01 X32.2655 Y30.4780
G01 X32.2661 Y30.4679
G01 X32.2677 Y30.4575
G01 X32.2703 Y30.4475
G01 X32.2721 Y30.4424
G01 X32.2747 Y30.4363
G01 X32.2793 Y30.4275
G01 X32.2838 Y30.4204
G01 X32.2877 Y30.4154
G01 X32.2947 Y30.4076
G01 X32.3024 Y30.4006
G01 X32.3109 Y30.3945
G01 X32.3199 Y30.3893
G01 X32.3294 Y30.3850
G01 X32.3393 Y30.3818
G01 X32.3495 Y30.3797
G01 X32.3617 Y30.3785
G01 X34.2843 Y30.3785
G01 X38.2293 Y26.4264
G01 X38.2041 Y26.3838
G01 X38.1588 Y26.2876
G01 X38.1228 Y26.1868
G01 X38.0971 Y26.0846
G01 X38.0814 Y25.9806
G01 X38.0805 Y25.9709
G01 X38.0755 Y25.8680
G01 X38.0805 Y25.7651
G00 Z0.5000
G00 X38.0130 Y25.7608
G01 F250.00
G01 Z-0.0400
G01 F2500.00
G01 X38.0144 Y25.7461
G01 X38.0302 Y25.6406
G01 X38.0578 Y25.5304
G01 X38.0607 Y25.5214
G01 X38.0965 Y25.4220
G01 X38.1455 Y25.3182
G01 X38.2050 Y25.2190
G01 X38.2722 Y25.1282
G01 X38.2782 Y25.1213
G01 X38.3503 Y25.0421
G01 X38.4284 Y24.9711
G01 X38.4355 Y24.9650
G01 X38.5267 Y24.8974
G01 X38.6244 Y24.8389
G01 X38.7290 Y24.7894
G01 X38.8359 Y24.7512
G01 X38.9476 Y24.7232
G01 X39.0612 Y24.7064
G01 X39.1759 Y24.7008
G01 X39.2888 Y24.7064
G01 X39.4024 Y24.7232
G01 X39.5142 Y24.7512
G01 X39.6210 Y24.7894
G01 X39.7257 Y24.8389
G01 X39.8233 Y24.8974
G01 X39.9146 Y24.9650
G01 X39.9217 Y24.9711
G01 X39.9998 Y25.0421
G01 X40.0719 Y25.1213
G01 X40.0779 Y25.1282
G01 X40.1451 Y25.2190
G01 X40.2046 Y25.3182
G01 X40.2536 Y25.4220
G01 X40.2918 Y25.5288
G01 X40.3198 Y25.6406
G01 X40.3366 Y25.7542
G01 X40.3422 Y25.8688
G01 X40.3366 Y25.9818
G01 X40.3198 Y26.0953
G01 X40.2923 Y26.2055
G01 X40.2894 Y26.2146
G01 X40.2536 Y26.3139
G01 X40.2081 Y26.4108
G01 X40.2003 Y26.4253
G01 X40.1495 Y26.5102
G01 X40.1410 Y26.5228
G01 X40.0779 Y26.6077
G01 X40.0060 Y26.6873
G01 X39.9980 Y26.6955
G01 X39.9217 Y26.7648
G01 X39.9146 Y26.7709
G01 X39.8233 Y26.8385
G01 X39.7257 Y26.8970
G01 X39.6288 Y26.9431
G01 X39.6140 Y26.9492
G01 X39.5126 Y26.9852
G01 X39.4103 Y27.0110
G01 X39.3949 Y27.0141
G01 X39.2968 Y27.0286
G01 X39.2813 Y27.0301
G01 X39.1759 Y27.0351
G01 X39.0774 Y27.0305
G01 X35.0322 Y31.0830
G01 X35.0320 Y32.9849
G01 X35.0304 Y33.0023
G01 X35.0270 Y33.0193
G01 X35.0218 Y33.0360
G01 X35.0170 Y33.0474
G01 X35.0096 Y33.0619
G01 X35.0002 Y33.0763
G01 X34.9937 Y33.0846
G01 X34.9876 Y33.0916
G01 X34.9760 Y33.1029
G01 X34.9634 Y33.1131
G01 X34.9521 Y33.1207
G01 X34.9393 Y33.1277
G01 X34.9231 Y33.1347
G01 X34.9098 Y33.1390
G01 X34.8927 Y33.1428
G01 X34.8805 Y33.1444
G01 X34.8650 Y33.1451
G01 X32.3633 Y33.1451
G01 X32.3496 Y33.1444
G01 X32.3327 Y33.1419
G01 X32.3202 Y33.1390
G01 X32.3070 Y33.1347
G01 X32.2955 Y33.1300
G01 X32.2811 Y33.1225
G01 X32.2695 Y33.1151
G01 X32.2616 Y33.1092
G01 X32.2480 Y33.0973
G01 X32.2364 Y33.0846
G01 X32.2299 Y33.0763
G01 X32.2242 Y33.0679
G01 X32.2153 Y33.0522
G01 X32.2096 Y33.0394
G01 X32.2065 Y33.0309
G01 X32.2018 Y33.0137
G01 X32.1990 Y32.9970
G01 X32.1982 Y32.9884
G01 X32.1979 Y32.9780
G01 X32.1979 Y30.4762
G01 X32.1990 Y30.4592
G01 X32.2011 Y30.4452
G01 X32.2040 Y30.4331
G01 X32.2083 Y30.4199
G01 X32.2131 Y30.4083
G01 X32.2199 Y30.3950
G01 X32.2256 Y30.3858
G01 X32.2338 Y30.3745
G01 X32.2457 Y30.3609
G01 X32.2584 Y30.3493
G01 X32.2667 Y30.3428
G01 X32.2751 Y30.3371
G01 X32.2908 Y30.3282
G01 X32.3070 Y30.3212
G01 X32.3237 Y30.3160
G01 X32.3407 Y30.3126
G01 X32.3588 Y30.3109
G01 X34.2563 Y30.3108
G01 X38.1444 Y26.4157
G01 X38.0965 Y26.3139
G01 X38.0607 Y26.2146
G01 X38.0559 Y26.1989
G01 X38.0302 Y26.0953
G01 X38.0144 Y25.9898
G01 X38.0129 Y25.9742
G01 X38.0079 Y25.8671
G01 X38.0130 Y25.7608
G00 Z0.5000
G00 X42.3858 Y28.5180
G01 F250.00
G01 Z-0.0400
G01 F2500.00
G01 X42.4084 Y28.4915
G01 X42.4831 Y28.4091
G01 X42.4974 Y28.3938
G01 X42.5225 Y28.3694
G01 X42.5894 Y28.3087
G01 X42.3858 Y28.3087
G01 X42.3858 Y28.5180
G01 X42.3182 Y28.7300
G01 X42.3368 Y28.6994
G01 X42.3524 Y28.6761
G01 X42.4246 Y28.5785
G01 X42.4349 Y28.5649
G01 X42.4465 Y28.5507
G01 X42.4579 Y28.5377
G01 X42.5431 Y28.4440
G01 X42.5556 Y28.4312
G01 X42.5698 Y28.4178
G01 X42.6532 Y28.3422
G01 X42.6683 Y28.3291
G01 X42.6926 Y28.3097
G01 X42.7851 Y28.2411
G01 X42.3182 Y28.2411
G01 X42.3182 Y28.7300
G01 X42.2505 Y29.0067
G01 X42.2617 Y28.9813
G01 X42.3088 Y28.8816
G01 X42.3187 Y28.8619
G01 X42.3313 Y28.8397
G01 X42.3876 Y28.7458
G01 X42.3988 Y28.7281
G01 X42.4141 Y28.7062
G01 X42.4798 Y28.6176
G01 X42.4917 Y28.6023
G01 X42.5088 Y28.5823
G01 X42.5897 Y28.4931
G01 X42.6023 Y28.4803
G01 X42.6155 Y28.4677
G01 X42.6985 Y28.3925
G01 X42.7125 Y28.3803
G01 X42.7341 Y28.3632
G01 X42.8303 Y28.2919
G01 X42.8447 Y28.2820
G01 X42.8605 Y28.2720
G01 X42.9666 Y28.2085
G01 X42.9920 Y28.1950
G01 X43.0374 Y28.1734
G01 X42.2505 Y28.1734
G01 X42.2505 Y29.0067
G01 X42.2033 Y29.4841
G01 X42.2046 Y29.4678
G01 X42.2066 Y29.4508
G01 X42.2067 Y29.4498
G01 X42.2068 Y29.4489
G01 X42.2069 Y29.4484
G01 X42.2073 Y29.4461
G01 X42.2232 Y29.3388
G01 X42.2268 Y29.3181
G01 X42.2315 Y29.2971
G01 X42.2583 Y29.1900
G01 X42.2652 Y29.1660
G01 X42.2700 Y29.1516
G01 X42.3073 Y29.0474
G01 X42.3135 Y29.0315
G01 X42.3206 Y29.0149
G01 X42.3698 Y28.9108
G01 X42.3799 Y28.8911
G01 X42.3890 Y28.8750
G01 X42.4449 Y28.7818
G01 X42.4557 Y28.7646
G01 X42.4685 Y28.7464
G01 X42.5339 Y28.6582
G01 X42.5441 Y28.6451
G01 X42.5589 Y28.6277
G01 X42.6332 Y28.5457
G01 X42.6482 Y28.5300
G01 X42.6631 Y28.5159
G01 X42.7472 Y28.4397
G01 X42.7607 Y28.4282
G01 X42.7741 Y28.4178
G01 X42.8641 Y28.3510
G01 X42.8820 Y28.3384
G01 X42.8979 Y28.3284
G01 X42.9914 Y28.2723
G01 X43.0098 Y28.2619
G01 X43.0292 Y28.2521
G01 X43.1282 Y28.2053
G01 X43.1456 Y28.1976
G01 X43.1657 Y28.1898
G01 X43.2713 Y28.1520
G01 X43.2877 Y28.1467
G01 X43.3034 Y28.1422
G01 X43.4148 Y28.1142
G01 X43.4363 Y28.1095
G01 X43.4581 Y28.1058
G01 X42.1828 Y28.1058
G01 X42.1828 Y32.8102
G01 X42.9170 Y32.8102
G01 X42.9170 Y32.7190
G01 X42.8905 Y32.7030
G01 X42.8706 Y32.6897
G01 X42.7657 Y32.6117
G01 X42.7443 Y32.5937
G01 X42.6628 Y32.5198
G01 X42.6506 Y32.5083
G01 X42.6330 Y32.4899
G01 X42.5592 Y32.4086
G01 X42.5455 Y32.3925
G01 X42.5340 Y32.3778
G01 X42.4681 Y32.2889
G01 X42.4599 Y32.2775
G01 X42.4509 Y32.2639
G01 X42.3890 Y32.1609
G01 X42.3781 Y32.1415
G01 X42.3697 Y32.1248
G01 X42.3229 Y32.0259
G01 X42.3141 Y32.0059
G01 X42.3066 Y31.9864
G01 X42.2698 Y31.8837
G01 X42.2637 Y31.8650
G01 X42.2578 Y31.8441
G01 X42.2282 Y31.7248
G01 X42.2232 Y31.6975
G01 X42.2070 Y31.5884
G01 X42.2048 Y31.5704
G01 X42.2031 Y31.5477
G01 X42.1977 Y31.4389
G01 X42.1973 Y31.4219
G01 X42.1972 Y29.6169
G01 X42.1977 Y29.5976
G01 X42.2033 Y29.4841
G01 X42.2709 Y29.4884
G01 X42.2719 Y29.4742
G01 X42.2739 Y29.4580
G01 X42.2901 Y29.3486
G01 X42.2928 Y29.3327
G01 X42.2971 Y29.3135
G01 X42.3236 Y29.2079
G01 X42.3284 Y29.1907
G01 X42.3336 Y29.1748
G01 X42.3703 Y29.0722
G01 X42.3785 Y29.0513
G01 X42.4318 Y28.9381
G01 X42.4393 Y28.9234
G01 X42.4471 Y28.9097
G01 X42.5034 Y28.8158
G01 X42.5134 Y28.8001
G01 X42.5226 Y28.7871
G01 X42.5874 Y28.6996
G01 X42.5983 Y28.6857
G01 X42.6104 Y28.6716
G01 X42.6832 Y28.5913
G01 X42.6945 Y28.5794
G01 X42.7080 Y28.5664
G01 X42.7949 Y28.4878
G01 X42.8156 Y28.4712
G01 X42.9038 Y28.4058
G01 X42.9161 Y28.3970
G01 X42.9327 Y28.3864
G01 X43.0266 Y28.3301
G01 X43.0395 Y28.3228
G01 X43.0542 Y28.3152
G01 X43.1558 Y28.2671
G01 X43.1727 Y28.2596
G01 X43.1894 Y28.2532
G01 X43.2921 Y28.2164
G01 X43.3106 Y28.2104
G01 X43.3254 Y28.2064
G01 X43.4309 Y28.1799
G01 X43.4514 Y28.1755
G01 X43.4656 Y28.1730
G01 X43.5730 Y28.1571
G01 X43.5921 Y28.1548
G01 X43.6083 Y28.1536
G01 X43.7177 Y28.1482
G01 X43.7427 Y28.1479
G01 X43.8613 Y28.1536
G01 X43.8781 Y28.1548
G01 X43.8963 Y28.1570
G01 X44.0048 Y28.1731
G01 X44.0208 Y28.1759
G01 X44.0365 Y28.1793
G01 X44.1451 Y28.2065
G01 X44.1641 Y28.2118
G01 X44.1786 Y28.2166
G01 X44.2807 Y28.2532
G01 X44.2959 Y28.2590
G01 X44.3132 Y28.2666
G01 X44.4144 Y28.3145
G01 X44.4287 Y28.3217
G01 X44.4410 Y28.3287
G01 X44.5365 Y28.3859
G01 X44.5515 Y28.3954
G01 X44.5660 Y28.4055
G01 X44.6544 Y28.4711
G01 X44.6672 Y28.4811
G01 X44.6805 Y28.4926
G01 X44.7639 Y28.5681
G01 X44.7752 Y28.5790
G01 X44.7851 Y28.5893
G01 X44.8599 Y28.6719
G01 X44.8722 Y28.6863
G01 X44.8826 Y28.6996
G01 X44.9477 Y28.7873
G01 X44.9584 Y28.8027
G01 X44.9669 Y28.8162
G01 X45.0226 Y28.9091
G01 X45.0317 Y28.9251
G01 X45.0397 Y28.9411
G01 X45.0863 Y29.0396
G01 X45.0930 Y29.0547
G01 X45.0996 Y29.0717
G01 X45.1362 Y29.1739
G01 X45.1418 Y29.1911
G01 X45.1466 Y29.2084
G01 X45.1739 Y29.3174
G01 X45.1770 Y29.3315
G01 X45.1796 Y29.3461
G01 X45.1961 Y29.4572
G01 X45.1982 Y29.4749
G01 X45.1994 Y29.4919
G01 X45.2051 Y29.6116
G01 X45.2051 Y31.4237
G01 X45.1994 Y31.5440
G01 X45.1981 Y31.5615
G01 X45.1960 Y31.5794
G01 X45.1784 Y31.6970
G01 X45.1733 Y31.7212
G01 X45.1465 Y31.8280
G01 X45.1424 Y31.8430
G01 X45.1362 Y31.8620
G01 X45.0996 Y31.9642
G01 X45.0934 Y31.9803
G01 X45.0864 Y31.9962
G01 X45.0398 Y32.0947
G01 X45.0308 Y32.1125
G01 X45.0229 Y32.1264
G01 X44.9666 Y32.2202
G01 X44.9519 Y32.2427
G01 X44.8818 Y32.3374
G01 X44.8691 Y32.3535
G01 X44.8600 Y32.3640
G01 X44.7863 Y32.4453
G01 X44.7761 Y32.4559
G01 X44.7663 Y32.4655
G01 X44.6788 Y32.5449
G01 X44.6672 Y32.5548
G01 X44.6572 Y32.5626
G01 X44.5563 Y32.6372
G01 X44.5386 Y32.6487
G01 X44.4854 Y32.6807
G01 X44.4854 Y32.8800
G01 X44.5042 Y32.8784
G01 X44.5248 Y32.8778
G01 X45.4348 Y32.8778
G01 X45.4348 Y28.0381
G01 X42.1152 Y28.0381
G01 X42.1152 Y32.8778
G01 X42.9550 Y32.8778
G01 X42.9703 Y32.8781
G01 X42.9847 Y32.8791
G01 X42.9847 Y32.6807
G01 X42.9314 Y32.6487
G01 X42.9137 Y32.6372
G01 X42.8129 Y32.5626
G01 X42.8029 Y32.5548
G01 X42.7913 Y32.5449
G01 X42.7038 Y32.4655
G01 X42.6937 Y32.4557
G01 X42.6838 Y32.4453
G01 X42.6102 Y32.3640
G01 X42.6010 Y32.3535
G01 X42.5883 Y32.3374
G01 X42.5186 Y32.2433
G01 X42.5112 Y32.2324
G01 X42.5036 Y32.2204
G01 X42.4472 Y32.1264
G01 X42.4394 Y32.1127
G01 X42.4304 Y32.0949
G01 X42.3837 Y31.9963
G01 X42.3771 Y31.9812
G01 X42.3703 Y31.9636
G01 X42.3336 Y31.8611
G01 X42.3284 Y31.8452
G01 X42.3234 Y31.8273
G01 X42.2970 Y31.7219
G01 X42.2938 Y31.7080
G01 X42.2901 Y31.6870
G01 X42.2740 Y31.5788
G01 X42.2721 Y31.5633
G01 X42.2706 Y31.5440
G01 X42.2653 Y31.4357
G01 X42.2649 Y31.4210
G01 X42.2649 Y29.6171
G01 X42.2653 Y29.6002
G01 X42.2709 Y29.4884
G01 X42.4735 Y29.5010
G01 X42.4749 Y29.4863
G01 X42.4922 Y29.3711
G01 X42.5203 Y29.2580
G01 X42.5250 Y29.2423
G01 X42.5641 Y29.1337
G01 X42.6140 Y29.0276
G01 X42.6215 Y29.0135
G01 X42.6818 Y28.9134
G01 X42.7509 Y28.8200
G01 X42.7609 Y28.8079
G01 X42.8384 Y28.7225
G01 X42.9249 Y28.6438
G01 X42.9371 Y28.6338
G01 X43.0312 Y28.5643
G01 X43.1306 Y28.5045
G01 X43.1437 Y28.4974
G01 X43.2440 Y28.4499
G01 X43.2578 Y28.4443
G01 X43.3668 Y28.4055
G01 X43.4798 Y28.3769
G01 X43.4957 Y28.3738
G01 X43.6098 Y28.3570
G01 X43.6190 Y28.3563
G01 X43.7359 Y28.3508
G01 X43.8511 Y28.3563
G01 X43.8603 Y28.3570
G01 X43.9744 Y28.3738
G01 X43.9903 Y28.3769
G01 X44.1032 Y28.4055
G01 X44.2123 Y28.4443
G01 X44.2260 Y28.4499
G01 X44.3280 Y28.4982
G01 X44.3395 Y28.5045
G01 X44.4389 Y28.5643
G01 X44.5380 Y28.6377
G01 X44.5451 Y28.6438
G01 X44.6316 Y28.7225
G01 X44.7095 Y28.8082
G01 X44.7192 Y28.8200
G01 X44.7847 Y28.9083
G01 X44.7930 Y28.9209
G01 X44.8528 Y29.0210
G01 X44.9024 Y29.1255
G01 X44.9087 Y29.1407
G01 X44.9475 Y29.2498
G01 X44.9767 Y29.3654
G01 X44.9793 Y29.3788
G01 X44.9960 Y29.4927
G01 X45.0022 Y29.6147
G01 X45.0022 Y31.4180
G01 X44.9961 Y31.5416
G01 X44.9793 Y31.6571
G01 X44.9762 Y31.6727
G01 X44.9475 Y31.7861
G01 X44.9087 Y31.8952
G01 X44.9024 Y31.9104
G01 X44.8528 Y32.0149
G01 X44.7913 Y32.1178
G01 X44.7839 Y32.1287
G01 X44.7195 Y32.2155
G01 X44.7095 Y32.2277
G01 X44.6311 Y32.3140
G01 X44.5420 Y32.3949
G01 X44.5324 Y32.4025
G01 X44.4457 Y32.4668
G01 X44.4362 Y32.4734
G01 X44.3351 Y32.5340
G01 X44.3264 Y32.5385
G01 X44.2824 Y32.5593
G01 X44.2824 Y36.9489
G01 X45.5164 Y38.1829
G01 X45.6090 Y38.1394
G01 X45.7084 Y38.1036
G01 X45.7241 Y38.0989
G01 X45.8276 Y38.0732
G01 X45.9325 Y38.0574
G01 X45.9488 Y38.0558
G01 X46.0559 Y38.0508
G01 X46.1621 Y38.0559
G01 X46.1768 Y38.0573
G01 X46.2747 Y38.0718
G01 X46.2903 Y38.0749
G01 X46.3942 Y38.1012
G01 X46.4940 Y38.1367
G01 X46.5088 Y38.1428
G01 X46.6057 Y38.1889
G01 X46.6966 Y38.2431
G01 X46.7102 Y38.2522
G01 X46.7896 Y38.3111
G01 X46.7973 Y38.3173
G01 X46.8744 Y38.3870
G01 X46.8860 Y38.3986
G01 X46.9531 Y38.4727
G01 X46.9623 Y38.4840
G01 X47.0256 Y38.5697
G01 X47.0803 Y38.6606
G01 X47.0879 Y38.6748
G01 X47.1336 Y38.7720
G01 X47.1718 Y38.8788
G01 X47.1998 Y38.9906
G01 X47.2166 Y39.1042
G01 X47.2222 Y39.2188
G01 X47.2172 Y39.3242
G01 X47.2165 Y39.3334
G01 X47.1996 Y39.4465
G01 X47.1741 Y39.5489
G01 X47.1694 Y39.5646
G01 X47.1336 Y39.6639
G01 X47.0881 Y39.7608
G01 X47.0803 Y39.7753
G01 X47.0299 Y39.8595
G01 X47.0208 Y39.8731
G01 X46.9580 Y39.9575
G01 X46.9519 Y39.9646
G01 X46.8826 Y40.0409
G01 X46.8744 Y40.0489
G01 X46.7946 Y40.1209
G01 X46.7033 Y40.1885
G01 X46.6057 Y40.2470
G01 X46.5092 Y40.2929
G01 X46.4998 Y40.2970
G01 X46.3942 Y40.3347
G01 X46.2907 Y40.3609
G01 X46.2810 Y40.3630
G01 X46.1776 Y40.3785
G01 X46.1663 Y40.3798
G01 X46.0600 Y40.3850
G01 X46.0501 Y40.3850
G01 X46.0182 Y40.3835
G01 X45.7913 Y40.6081
G01 X45.7839 Y40.6147
G01 X45.7711 Y40.6247
G01 X45.7606 Y40.6316
G01 X45.7498 Y40.6374
G01 X44.8572 Y41.5299
G01 X44.9060 Y41.6337
G01 X44.9451 Y41.7423
G01 X44.9496 Y41.7573
G01 X44.9760 Y41.8627
G01 X44.9793 Y41.8788
G01 X44.9960 Y41.9927
G01 X45.0021 Y42.1130
G01 X45.0022 Y43.9212
G01 X44.9967 Y44.0340
G01 X44.9951 Y44.0503
G01 X44.9779 Y44.1649
G01 X44.9490 Y44.2808
G01 X44.9451 Y44.2936
G01 X44.9087 Y44.3952
G01 X44.9024 Y44.4104
G01 X44.8523 Y44.5158
G01 X44.7887 Y44.6218
G01 X44.7153 Y44.7210
G01 X44.6367 Y44.8080
G01 X44.6251 Y44.8196
G01 X44.5380 Y44.8982
G01 X44.4389 Y44.9717
G01 X44.3395 Y45.0314
G01 X44.3254 Y45.0390
G01 X44.2193 Y45.0889
G01 X44.1032 Y45.1304
G01 X43.9903 Y45.1590
G01 X43.9742 Y45.1622
G01 X43.8586 Y45.1791
G01 X43.7342 Y45.1851
G01 X43.6114 Y45.1791
G01 X43.4881 Y45.1608
G01 X43.3668 Y45.1304
G01 X43.2508 Y45.0889
G01 X43.1372 Y45.0352
G01 X43.0312 Y44.9717
G01 X42.9320 Y44.8982
G01 X42.9249 Y44.8921
G01 X42.8390 Y44.8140
G01 X42.7609 Y44.7280
G01 X42.7548 Y44.7210
G01 X42.6813 Y44.6218
G01 X42.6178 Y44.5158
G01 X42.5641 Y44.4022
G01 X42.5226 Y44.2861
G01 X42.4922 Y44.1649
G01 X42.4739 Y44.0416
G01 X42.4679 Y43.9180
G01 X42.4679 Y42.1171
G01 X42.4734 Y42.0019
G01 X42.4741 Y41.9927
G01 X42.4908 Y41.8788
G01 X42.4934 Y41.8654
G01 X42.5204 Y41.7573
G01 X42.5250 Y41.7423
G01 X42.5641 Y41.6337
G01 X42.6138 Y41.5279
G01 X42.6215 Y41.5135
G01 X42.6813 Y41.4141
G01 X42.7534 Y41.3167
G01 X42.7609 Y41.3079
G01 X42.8396 Y41.2214
G01 X42.9249 Y41.1438
G01 X42.9338 Y41.1363
G01 X43.0243 Y41.0691
G01 X43.0352 Y41.0616
G01 X43.1350 Y41.0019
G01 X43.1437 Y40.9974
G01 X43.1877 Y40.9766
G01 X43.1877 Y32.5593
G01 X43.1437 Y32.5385
G01 X43.1350 Y32.5340
G01 X43.0352 Y32.4743
G01 X43.0243 Y32.4668
G01 X42.9338 Y32.3996
G01 X42.9249 Y32.3921
G01 X42.8396 Y32.3146
G01 X42.7609 Y32.2280
G01 X42.7534 Y32.2192
G01 X42.6813 Y32.1218
G01 X42.6215 Y32.0224
G01 X42.6138 Y32.0080
G01 X42.5641 Y31.9022
G01 X42.5250 Y31.7936
G01 X42.5204 Y31.7786
G01 X42.4934 Y31.6706
G01 X42.4908 Y31.6571
G01 X42.4741 Y31.5432
G01 X42.4734 Y31.5340
G01 X42.4679 Y31.4188
G01 X42.4679 Y29.6180
G01 X42.4735 Y29.5010
G00 Z0.5000
G00 X42.5410 Y29.5053
G01 F250.00
G01 Z-0.0400
G01 F2500.00
G01 X42.5419 Y29.4955
G01 X42.5578 Y29.3888
G01 X42.5596 Y29.3792
G01 X42.5871 Y29.2701
G01 X42.6264 Y29.1600
