(G-CODE GENERATED BY FLATCAM v8.991 - www.flatcam.org - Version Date: 2019/12/30)

(Name: Cncjob_Top_Copper_straightend)
(Type: G-code from Geometry)
(Units: MM)

(Created on Monday, 13 February 2023 at 22:53)

(TOOL DIAMETER: 1.5 mm)
(Feedrate: 1250.0 mm/min)
(Feedrate_Z: 250.0 mm/min)
(Feedrate rapids 1500.0 mm/min)

(Z_Cut: -0.04 mm)
(Z_Move: 0.5 mm)
(Z Toolchange: 15.0 mm)
(X,Y Toolchange: 0.0000, 0.0000 mm)
(Z Start: 0.5 mm)
(Z End: 2.0 mm)
(Steps per circle: 64)
(Preprocessor Geometry: default)

(X range:    2.0995 ...   77.2105  mm)
(Y range:    2.7475 ...   77.3435  mm)

(Spindle Speed: None RPM)
G21
G90
G94




G01 F1250.00
G00 Z0.5000
G00 Z0.5000
M03
G4 P1.0
G00 X25.5006 Y19.6120
G01 F250.00
G01 Z-0.0400
G01 F1250.00
G01 X25.4472 Y19.6116
G01 X25.4939 Y19.6402
G01 X25.5103 Y19.6515
G01 X25.5410 Y19.6750
G01 X25.5473 Y19.6680
G01 X25.5229 Y19.6398
G01 X25.5006 Y19.6120
G00 Z0.5000
G00 X37.2126 Y27.2288
G01 F250.00
G01 Z-0.0400
G01 F1250.00
G01 X37.5620 Y27.2288
G01 X37.6586 Y27.1317
G01 X37.6558 Y27.1055
G01 X37.6537 Y27.0765
G01 X37.6471 Y26.9445
G01 X37.6462 Y26.9165
G01 X37.5915 Y26.9709
G01 X37.5711 Y26.9899
G01 X37.5298 Y27.0272
G01 X37.5082 Y27.0454
G01 X37.4876 Y27.0618
G01 X37.4299 Y27.1048
G01 X37.4104 Y27.1184
G01 X37.3758 Y27.1409
G01 X37.3131 Y27.1783
G01 X37.2880 Y27.1920
G01 X37.2649 Y27.2039
G01 X37.2126 Y27.2288
G00 Z0.5000
G00 X2.9490 Y69.1271
G01 F250.00
G01 Z-0.0400
G01 F1250.00
G01 X2.9490 Y76.4940
G01 X76.3610 Y76.4940
G01 X76.3610 Y69.1271
G01 X2.9490 Y69.1271
G01 X3.4590 Y69.6371
G01 X3.4590 Y75.9840
G01 X75.8510 Y75.9840
G01 X75.8510 Y69.6371
G01 X3.4590 Y69.6371
G01 X3.9690 Y70.1471
G01 X3.9690 Y75.4740
G01 X75.3410 Y75.4740
G01 X75.3410 Y70.1471
G01 X3.9690 Y70.1471
G01 X4.4790 Y70.6571
G01 X4.4790 Y74.9640
G01 X74.8310 Y74.9640
G01 X74.8310 Y70.6571
G01 X4.4790 Y70.6571
G01 X4.9890 Y71.1671
G01 X4.9890 Y74.4540
G01 X74.3210 Y74.4540
G01 X74.3210 Y71.1671
G01 X4.9890 Y71.1671
G01 X5.4990 Y71.6771
G01 X5.4990 Y73.9440
G01 X73.8110 Y73.9440
G01 X73.8110 Y71.6771
G01 X5.4990 Y71.6771
G01 X6.0090 Y72.1871
G01 X6.0090 Y73.4340
G01 X73.3010 Y73.4340
G01 X73.3010 Y72.1871
G01 X6.0090 Y72.1871
G01 X6.5190 Y72.6971
G01 X6.5190 Y72.9240
G01 X72.7910 Y72.9240
G01 X72.7910 Y72.6971
G01 X6.5190 Y72.6971
G00 Z0.5000
M05
G00 Z0.5000
G00 Z2.00
G00 X0.0 Y0.0

