(G-CODE GENERATED BY FLATCAM v8.991 - www.flatcam.org - Version Date: 2019/12/30)

(Name: Cncjob_Top_Copper_pyramidal)
(Type: G-code from Geometry)
(Units: MM)

(Created on Monday, 13 February 2023 at 22:53)

(TOOL DIAMETER: 0.199 mm)
(Feedrate: 2500.0 mm/min)
(Feedrate_Z: 250.0 mm/min)
(Feedrate rapids 1500.0 mm/min)

(Z_Cut: -0.04 mm)
(Z_Move: 0.5 mm)
(Z Toolchange: 15.0 mm)
(X,Y Toolchange: 0.0000, 0.0000 mm)
(Z Start: 0.5 mm)
(Z End: 2.0 mm)
(Steps per circle: 64)
(Preprocessor Geometry: default)

(X range:    2.0995 ...   77.2105  mm)
(Y range:    2.7475 ...   77.3435  mm)

(Spindle Speed: None RPM)
G21
G90
G94




G01 F2500.00
G00 Z0.5000
G00 Z0.5000
M03
G4 P1.0
G00 X5.2151 Y13.6506
G01 F250.00
G01 Z-0.0400
G01 F2500.00
G01 X5.4374 Y13.4283
G01 X5.2151 Y13.4282
G01 X5.2151 Y13.6506
G01 X5.1474 Y13.8242
G01 X5.1624 Y13.8042
G01 X5.1706 Y13.7940
G01 X5.2012 Y13.7603
G01 X5.5347 Y13.4267
G01 X5.5632 Y13.4005
G01 X5.5743 Y13.3909
G01 X5.5857 Y13.3819
G01 X5.6151 Y13.3604
G01 X5.1474 Y13.3604
G01 X5.1474 Y13.8242
G00 Z0.5000
G00 X5.2531 Y14.8909
G01 F250.00
G01 Z-0.0400
G01 F2500.00
G01 X5.2512 Y14.8813
G01 X5.2472 Y14.8535
G01 X5.2454 Y14.8197
G01 X5.2454 Y14.1462
G01 X5.2470 Y14.1135
G01 X5.2522 Y14.0792
G01 X5.2603 Y14.0468
G01 X5.2715 Y14.0152
G01 X5.2863 Y13.9837
G01 X5.3042 Y13.9538
G01 X5.3242 Y13.9268
G01 X5.3445 Y13.9042
G01 X5.6792 Y13.5693
G01 X5.7038 Y13.5472
G01 X5.7267 Y13.5301
G01 X5.7348 Y13.5246
G01 X5.7607 Y13.5093
G01 X5.7867 Y13.4969
G01 X5.7935 Y13.4940
G01 X5.8213 Y13.4841
G01 X5.8520 Y13.4761
G01 X5.8616 Y13.4742
G01 X5.8905 Y13.4700
G01 X5.9250 Y13.4683
G01 X7.2650 Y13.4683
G01 X7.2944 Y13.4697
G01 X7.3041 Y13.4706
G01 X7.3335 Y13.4751
G01 X7.3617 Y13.4821
G01 X7.3710 Y13.4849
G01 X7.3984 Y13.4948
G01 X7.4264 Y13.5079
G01 X7.4340 Y13.5120
G01 X7.4591 Y13.5272
G01 X7.4829 Y13.5447
G01 X7.4894 Y13.5500
G01 X7.5104 Y13.5690
G01 X7.8456 Y13.9043
G01 X7.8658 Y13.9268
G01 X7.8857 Y13.9538
G01 X7.9036 Y13.9837
G01 X7.9173 Y14.0126
G01 X7.9296 Y14.0468
G01 X7.9378 Y14.0792
G01 X7.9429 Y14.1135
G01 X7.9446 Y14.1480
G01 X7.9445 Y14.8216
G01 X7.9429 Y14.8524
G01 X7.9378 Y14.8867
G01 X7.9296 Y14.9192
G01 X7.9196 Y14.9476
G01 X7.9165 Y14.9552
G01 X7.9036 Y14.9822
G01 X7.8870 Y15.0101
G01 X7.8658 Y15.0391
G01 X7.8456 Y15.0616
G01 X7.5108 Y15.3966
G01 X7.4894 Y15.4159
G01 X7.4829 Y15.4212
G01 X7.4591 Y15.4387
G01 X7.4340 Y15.4539
G01 X7.4264 Y15.4580
G01 X7.3984 Y15.4711
G01 X7.3650 Y15.4830
G01 X7.3984 Y15.4948
G01 X7.4264 Y15.5079
G01 X7.4340 Y15.5120
G01 X7.4591 Y15.5272
G01 X7.4829 Y15.5447
G01 X7.4894 Y15.5500
G01 X7.5104 Y15.5690
G01 X7.8456 Y15.9043
G01 X7.8658 Y15.9268
G01 X7.8860 Y15.9542
G01 X7.9036 Y15.9837
G01 X7.9180 Y16.0143
G01 X7.9296 Y16.0468
G01 X7.9378 Y16.0796
G01 X7.9429 Y16.1135
G01 X7.9446 Y16.1455
G01 X7.9446 Y16.8197
G01 X7.9429 Y16.8524
G01 X7.9387 Y16.8813
G01 X7.9371 Y16.8896
G01 X7.9296 Y16.9192
G01 X7.9190 Y16.9491
G01 X7.9055 Y16.9784
G01 X7.9009 Y16.9870
G01 X7.8857 Y17.0121
G01 X7.8647 Y17.0403
G01 X7.8422 Y17.0652
G01 X7.8205 Y17.0850
G01 X7.8129 Y17.0912
G01 X7.7916 Y17.1070
G01 X7.7857 Y17.1109
G01 X7.7592 Y17.1266
G01 X7.7311 Y17.1400
G01 X7.7010 Y17.1510
G01 X7.6917 Y17.1538
G01 X7.6619 Y17.1611
G01 X7.6294 Y17.1659
G01 X7.5950 Y17.1676
G01 X7.5656 Y17.1663
G01 X7.5558 Y17.1653
G01 X7.5264 Y17.1608
G01 X7.4938 Y17.1526
G01 X7.4656 Y17.1427
G01 X7.4567 Y17.1390
G01 X7.4335 Y17.1280
G01 X7.4267 Y17.1244
G01 X7.4008 Y17.1087
G01 X7.3760 Y17.0904
G01 X7.3705 Y17.0859
G01 X7.3513 Y17.0685
G01 X7.3444 Y17.0616
G01 X7.3238 Y17.0387
G01 X7.3042 Y17.0121
G01 X7.2871 Y16.9837
G01 X7.2746 Y16.9576
G01 X7.2746 Y17.1480
G01 X7.2731 Y17.1799
G01 X7.2687 Y17.2113
G01 X7.2671 Y17.2196
G01 X7.2596 Y17.2492
G01 X7.2490 Y17.2791
G01 X7.2460 Y17.2862
G01 X7.2336 Y17.3122
G01 X7.2160 Y17.3417
G01 X7.1961 Y17.3687
G01 X7.1756 Y17.3916
G01 X7.1704 Y17.3969
G01 X7.1505 Y17.4150
G01 X7.1429 Y17.4212
G01 X7.1171 Y17.4400
G01 X7.0932 Y17.4544
G01 X7.0857 Y17.4583
G01 X7.5950 Y17.4583
G01 X7.6264 Y17.4598
G01 X7.6341 Y17.4606
G01 X7.6635 Y17.4651
G01 X7.6962 Y17.4733
G01 X7.7277 Y17.4845
G01 X7.7592 Y17.4993
G01 X7.7891 Y17.5172
G01 X7.8139 Y17.5355
G01 X7.8194 Y17.5400
G01 X7.8386 Y17.5574
G01 X7.8456 Y17.5643
G01 X7.8661 Y17.5872
G01 X7.8860 Y17.6142
G01 X7.9036 Y17.6437
G01 X7.9180 Y17.6743
G01 X7.9296 Y17.7068
G01 X7.9378 Y17.7396
G01 X7.9429 Y17.7735
G01 X7.9445 Y17.8031
G01 X7.9445 Y17.8128
G01 X7.9432 Y17.8378
G01 X7.9423 Y17.8471
G01 X7.9378 Y17.8763
G01 X7.9290 Y17.9110
G01 X7.9180 Y17.9416
G01 X7.9055 Y17.9684
G01 X7.9015 Y17.9760
G01 X7.8860 Y18.0017
G01 X7.8682 Y18.0259
G01 X7.8630 Y18.0324
G01 X7.8422 Y18.0552
G01 X7.8205 Y18.0750
G01 X7.8139 Y18.0804
G01 X7.7891 Y18.0987
G01 X7.7632 Y18.1144
G01 X7.7564 Y18.1180
G01 X7.7277 Y18.1314
G01 X7.7010 Y18.1410
G01 X7.6917 Y18.1438
G01 X7.6619 Y18.1511
G01 X7.6294 Y18.1559
G01 X7.5950 Y18.1576
G01 X6.6146 Y18.1576
G01 X6.6146 Y18.6662
G01 X6.7428 Y18.7983
G01 X7.5950 Y18.7983
G01 X7.6294 Y18.8000
G01 X7.6619 Y18.8048
G01 X7.6962 Y18.8133
G01 X7.7243 Y18.8232
G01 X7.7332 Y18.8269
G01 X7.7592 Y18.8393
G01 X7.7857 Y18.8550
G01 X7.7932 Y18.8601
G01 X7.8157 Y18.8768
G01 X7.8422 Y18.9007
G01 X7.8630 Y18.9235
G01 X7.8682 Y18.9300
G01 X7.8857 Y18.9538
G01 X7.9015 Y18.9799
G01 X7.9050 Y18.9865
G01 X7.9180 Y19.0143
G01 X7.9296 Y19.0468
G01 X7.9378 Y19.0796
G01 X7.9429 Y19.1135
G01 X7.9446 Y19.1480
G01 X7.9429 Y19.1824
G01 X7.9378 Y19.2163
G01 X7.9296 Y19.2492
G01 X7.9170 Y19.2841
G01 X7.9028 Y19.3137
G01 X7.8857 Y19.3421
G01 X7.8647 Y19.3703
G01 X7.8404 Y19.3969
G01 X7.8157 Y19.4191
G01 X7.7932 Y19.4358
G01 X7.7857 Y19.4409
G01 X7.7632 Y19.4544
G01 X7.7564 Y19.4580
G01 X7.7311 Y19.4700
G01 X7.7096 Y19.4780
G01 X7.7311 Y19.4859
G01 X7.7574 Y19.4984
G01 X7.7640 Y19.5020
G01 X7.7899 Y19.5177
G01 X7.8139 Y19.5355
G01 X7.8205 Y19.5409
G01 X7.8422 Y19.5607
G01 X7.8632 Y19.5838
G01 X7.8682 Y19.5900
G01 X7.8857 Y19.6138
G01 X7.9015 Y19.6399
G01 X7.9050 Y19.6465
G01 X7.9180 Y19.6743
G01 X7.9280 Y19.7018
G01 X7.9304 Y19.7093
G01 X7.9374 Y19.7376
G01 X7.9429 Y19.7735
G01 X7.9446 Y19.8080
G01 X7.9446 Y20.4780
G01 X7.9429 Y20.5124
G01 X7.9378 Y20.5463
G01 X7.9308 Y20.5747
G01 X7.9285 Y20.5825
G01 X7.9180 Y20.6116
G01 X7.9050 Y20.6394
G01 X7.9015 Y20.6460
G01 X7.8857 Y20.6721
G01 X7.8682 Y20.6959
G01 X7.8630 Y20.7024
G01 X7.8422 Y20.7252
G01 X7.8194 Y20.7459
G01 X7.8129 Y20.7512
G01 X7.7891 Y20.7687
G01 X7.7632 Y20.7844
G01 X7.7554 Y20.7885
G01 X7.7277 Y20.8014
G01 X7.7010 Y20.8110
G01 X7.6917 Y20.8138
G01 X7.6635 Y20.8208
G01 X7.6341 Y20.8253
G01 X7.6244 Y20.8263
G01 X7.5950 Y20.8276
G01 X7.5605 Y20.8259
G01 X7.5264 Y20.8208
G01 X7.4982 Y20.8138
G01 X7.4889 Y20.8110
G01 X7.4623 Y20.8014
G01 X7.4345 Y20.7885
G01 X7.4267 Y20.7844
G01 X7.4028 Y20.7700
G01 X7.3967 Y20.7658
G01 X7.3723 Y20.7475
G01 X7.3513 Y20.7285
G01 X7.3444 Y20.7216
G01 X7.3252 Y20.7003
G01 X7.3071 Y20.6762
G01 X7.3018 Y20.6684
G01 X7.2884 Y20.6460
G01 X7.2849 Y20.6394
G01 X7.2719 Y20.6116
G01 X7.2597 Y20.5770
G01 X7.2518 Y20.5448
G01 X7.2472 Y20.5139
G01 X7.2462 Y20.4976
G01 X6.2650 Y20.4976
G01 X6.2305 Y20.4959
G01 X6.2014 Y20.4917
G01 X6.1933 Y20.4901
G01 X6.1638 Y20.4826
G01 X6.1356 Y20.4727
G01 X6.1278 Y20.4695
G01 X6.1007 Y20.4566
G01 X6.0748 Y20.4413
G01 X6.0683 Y20.4370
G01 X6.0442 Y20.4191
G01 X6.0177 Y20.3952
G01 X5.9970 Y20.3724
G01 X5.9917 Y20.3659
G01 X5.9742 Y20.3421
G01 X5.9584 Y20.3160
G01 X5.9549 Y20.3094
G01 X5.9419 Y20.2816
G01 X5.9303 Y20.2492
G01 X5.9221 Y20.2163
G01 X5.9170 Y20.1824
G01 X5.9154 Y20.1515
G01 X5.9154 Y19.8062
G01 X5.9170 Y19.7735
G01 X5.9221 Y19.7396
G01 X5.9303 Y19.7068
G01 X5.9402 Y19.6787
G01 X5.9434 Y19.6708
G01 X5.9549 Y19.6465
G01 X5.9590 Y19.6389
G01 X5.9742 Y19.6138
G01 X5.9917 Y19.5900
G01 X5.9970 Y19.5835
G01 X6.0169 Y19.5616
G01 X6.0423 Y19.5384
G01 X6.0708 Y19.5172
G01 X6.1007 Y19.4993
G01 X6.1278 Y19.4864
G01 X6.1356 Y19.4832
G01 X6.1638 Y19.4733
G01 X6.1920 Y19.4661
G01 X6.2014 Y19.4642
G01 X6.2305 Y19.4600
G01 X6.2650 Y19.4583
G01 X6.2944 Y19.4597
G01 X6.3041 Y19.4606
G01 X6.3335 Y19.4651
G01 X6.3617 Y19.4721
G01 X6.3710 Y19.4749
G01 X6.3977 Y19.4845
G01 X6.4254 Y19.4974
G01 X6.4332 Y19.5015
G01 X6.4557 Y19.5150
G01 X6.4632 Y19.5201
G01 X6.4876 Y19.5384
G01 X6.5086 Y19.5574
G01 X6.5156 Y19.5643
G01 X6.5347 Y19.5856
G01 X6.5529 Y19.6097
G01 X6.5581 Y19.6175
G01 X6.5736 Y19.6437
G01 X6.5865 Y19.6708
G01 X6.5897 Y19.6787
G01 X6.5996 Y19.7068
G01 X6.6071 Y19.7363
G01 X6.6087 Y19.7446
G01 X6.6129 Y19.7735
G01 X6.6142 Y19.7983
G01 X7.2457 Y19.7983
G01 X7.2470 Y19.7735
G01 X7.2512 Y19.7446
G01 X7.2531 Y19.7350
G01 X7.2609 Y19.7049
G01 X7.2709 Y19.6768
G01 X7.2739 Y19.6697
G01 X7.2871 Y19.6422
G01 X7.3029 Y19.6158
G01 X7.3217 Y19.5900
G01 X7.3270 Y19.5835
G01 X7.3477 Y19.5607
G01 X7.3695 Y19.5409
G01 X7.3760 Y19.5355
G01 X7.4008 Y19.5172
G01 X7.4267 Y19.5015
G01 X7.4342 Y19.4976
G01 X6.5925 Y19.4975
G01 X6.5601 Y19.4958
G01 X6.5301 Y19.4914
G01 X6.5232 Y19.4901
G01 X6.4963 Y19.4833
G01 X6.4869 Y19.4804
G01 X6.4576 Y19.4694
G01 X6.4317 Y19.4570
G01 X6.4253 Y19.4536
G01 X6.4017 Y19.4392
G01 X6.3941 Y19.4341
G01 X6.3716 Y19.4169
G01 X6.3458 Y19.3932
G01 X6.0119 Y19.0492
G01 X5.9914 Y19.0257
G01 X5.9748 Y19.0029
G01 X5.9696 Y18.9949
G01 X5.9569 Y18.9731
G01 X5.9534 Y18.9664
G01 X5.9429 Y18.9437
G01 X5.9393 Y18.9349
G01 X5.9296 Y18.9068
G01 X5.9228 Y18.8796
G01 X5.9213 Y18.8722
G01 X5.9171 Y18.8430
G01 X5.9154 Y18.8097
G01 X5.9154 Y17.8062
G01 X5.9170 Y17.7735
G01 X5.9212 Y17.7446
G01 X5.9231 Y17.7350
G01 X5.9309 Y17.7049
G01 X5.9419 Y17.6743
G01 X5.9571 Y17.6422
G01 X5.9742 Y17.6138
G01 X5.9952 Y17.5856
G01 X6.0177 Y17.5607
G01 X6.0442 Y17.5368
G01 X6.0708 Y17.5172
G01 X6.0967 Y17.5015
G01 X6.1035 Y17.4979
G01 X6.1323 Y17.4845
G01 X6.1638 Y17.4733
G01 X6.1964 Y17.4651
G01 X6.2282 Y17.4603
G01 X6.2650 Y17.4583
G01 X6.4342 Y17.4583
G01 X6.4259 Y17.4539
G01 X6.3983 Y17.4370
G01 X6.3723 Y17.4175
G01 X6.3495 Y17.3969
G01 X6.0173 Y17.0647
G01 X5.9952 Y17.0403
G01 X5.9739 Y17.0117
G01 X5.9563 Y16.9822
G01 X5.9439 Y16.9562
G01 X5.9409 Y16.9491
G01 X5.9303 Y16.9192
G01 X5.9221 Y16.8863
G01 X5.9170 Y16.8524
G01 X5.9154 Y16.8204
G01 X5.9153 Y16.1480
G01 X5.9169 Y16.1146
G01 X5.9212 Y16.0846
G01 X5.9231 Y16.0750
G01 X5.9296 Y16.0493
G01 X5.9314 Y16.0434
G01 X5.9419 Y16.0143
G01 X5.9563 Y15.9837
G01 X5.9718 Y15.9575
G01 X5.9771 Y15.9497
G01 X5.9942 Y15.9268
G01 X6.0164 Y15.9021
G01 X6.3477 Y15.5707
G01 X6.3705 Y15.5500
G01 X6.3760 Y15.5455
G01 X6.4000 Y15.5277
G01 X6.4292 Y15.5101
G01 X6.4615 Y15.4948
G01 X6.4950 Y15.4830
G01 X6.4615 Y15.4711
G01 X6.4335 Y15.4580
G01 X6.4259 Y15.4539
G01 X6.4008 Y15.4387
G01 X6.3770 Y15.4212
G01 X6.3705 Y15.4159
G01 X6.3477 Y15.3952
G01 X6.3270 Y15.3724
G01 X6.3217 Y15.3659
G01 X6.3042 Y15.3421
G01 X6.2890 Y15.3170
G01 X6.2849 Y15.3094
G01 X6.2726 Y15.2833
G01 X6.2600 Y15.2480
G01 X6.2484 Y15.2807
G01 X6.2328 Y15.3137
G01 X6.2146 Y15.3437
G01 X6.1982 Y15.3659
G01 X6.1920 Y15.3735
G01 X6.1722 Y15.3952
G01 X6.1505 Y15.4150
G01 X6.1439 Y15.4204
G01 X6.1232 Y15.4358
G01 X6.1157 Y15.4409
G01 X6.0907 Y15.4558
G01 X6.0584 Y15.4711
G01 X6.0262 Y15.4826
G01 X5.9919 Y15.4911
G01 X5.9594 Y15.4959
G01 X5.9286 Y15.4975
G01 X5.9201 Y15.4975
G01 X5.8893 Y15.4957
G01 X5.8616 Y15.4917
G01 X5.8520 Y15.4898
G01 X5.8238 Y15.4826
G01 X5.7957 Y15.4727
G01 X5.7878 Y15.4695
G01 X5.7645 Y15.4585
G01 X5.7559 Y15.4539
G01 X5.7343 Y15.4409
G01 X5.7267 Y15.4358
G01 X5.7038 Y15.4188
G01 X5.6795 Y15.3969
G01 X5.3477 Y15.0652
G01 X5.3279 Y15.0435
G01 X5.3217 Y15.0359
G01 X5.3042 Y15.0121
G01 X5.2890 Y14.9870
G01 X5.2849 Y14.9794
G01 X5.2734 Y14.9551
G01 X5.2702 Y14.9472
G01 X5.2603 Y14.9192
G01 X5.2531 Y14.8909
G00 Z0.5000
G00 X5.1875 Y14.9072
G01 F250.00
G01 Z-0.0400
G01 F2500.00
G01 X5.1848 Y14.8947
G01 X5.1800 Y14.8614
G01 X5.1791 Y14.8510
G01 X5.1777 Y14.8203
G01 X5.1777 Y14.1441
G01 X5.1797 Y14.1064
G01 X5.1858 Y14.0662
G01 X5.1957 Y14.0267
G01 X5.2091 Y13.9892
G01 X5.2261 Y13.9528
G01 X5.2440 Y13.9224
G01 X5.2510 Y13.9118
G01 X5.2673 Y13.8897
G01 X5.2778 Y13.8770
G01 X5.2999 Y13.8529
G01 X5.6326 Y13.5203
G01 X5.6544 Y13.5004
G01 X5.6619 Y13.4940
G01 X5.6891 Y13.4738
G01 X5.7001 Y13.4666
G01 X5.7287 Y13.4497
G01 X5.7581 Y13.4356
G01 X5.7700 Y13.4306
G01 X5.7993 Y13.4201
G01 X5.8088 Y13.4172
G01 X5.8360 Y13.4104
G01 X5.8516 Y13.4073
G01 X5.8847 Y13.4026
G01 X5.9250 Y13.4007
G01 X7.2658 Y13.4007
G01 X7.3005 Y13.4022
G01 X7.3132 Y13.4036
G01 X7.3464 Y13.4087
G01 X7.3789 Y13.4166
G01 X7.3930 Y13.4209
G01 X7.4239 Y13.4321
G01 X7.4557 Y13.4469
G01 X7.4679 Y13.4535
G01 X7.4966 Y13.4709
G01 X7.5232 Y13.4903
G01 X7.5340 Y13.4991
G01 X7.5568 Y13.5197
G01 X7.8900 Y13.8529
G01 X7.9122 Y13.8770
G01 X7.9226 Y13.8897
G01 X7.9389 Y13.9118
G01 X7.9447 Y13.9205
G01 X7.9632 Y13.9517
G01 X7.9798 Y13.9866
G01 X7.9832 Y13.9954
G01 X7.9942 Y14.0267
G01 X8.0042 Y14.0662
G01 X8.0102 Y14.1064
G01 X8.0122 Y14.1456
G01 X8.0122 Y14.8218
G01 X8.0102 Y14.8587
G01 X8.0055 Y14.8921
G01 X8.0029 Y14.9056
G01 X7.9937 Y14.9411
G01 X7.9832 Y14.9705
G01 X7.9798 Y14.9794
G01 X7.9665 Y15.0077
G01 X7.9619 Y15.0167
G01 X7.9459 Y15.0435
G01 X7.9405 Y15.0518
G01 X7.9220 Y15.0770
G01 X7.9134 Y15.0875
G01 X7.8900 Y15.1130
G01 X7.5595 Y15.4435
G01 X7.5326 Y15.4681
G01 X7.5133 Y15.4830
G01 X7.5326 Y15.4978
G01 X7.5597 Y15.5226
G01 X7.8900 Y15.8529
G01 X7.9134 Y15.8784
G01 X7.9220 Y15.8889
G01 X7.9401 Y15.9135
G01 X7.9461 Y15.9227
G01 X7.9617 Y15.9489
G01 X7.9665 Y15.9582
G01 X7.9802 Y15.9876
G01 X7.9924 Y16.0211
G01 X7.9956 Y16.0315
G01 X8.0024 Y16.0586
G01 X8.0054 Y16.0735
G01 X8.0103 Y16.1082
G01 X8.0122 Y16.1456
G01 X8.0122 Y16.8203
G01 X8.0102 Y16.8596
G01 X8.0041 Y16.9002
G01 X7.9958 Y16.9336
G01 X7.9919 Y16.9463
G01 X7.9807 Y16.9771
G01 X7.9665 Y17.0077
G01 X7.9597 Y17.0204
G01 X7.9424 Y17.0491
G01 X7.9226 Y17.0762
G01 X7.9164 Y17.0840
G01 X7.8936 Y17.1094
G01 X7.8841 Y17.1187
G01 X7.8585 Y17.1415
G01 X7.8313 Y17.1618
G01 X7.8206 Y17.1688
G01 X7.7912 Y17.1862
G01 X7.7607 Y17.2008
G01 X7.7483 Y17.2059
G01 X7.7164 Y17.2172
G01 X7.6844 Y17.2254
G01 X7.6697 Y17.2284
G01 X7.6409 Y17.2327
G01 X7.6284 Y17.2338
G01 X7.5941 Y17.2352
G01 X7.5595 Y17.2337
G01 X7.5467 Y17.2323
G01 X7.5135 Y17.2272
G01 X7.4810 Y17.2193
G01 X7.4669 Y17.2150
G01 X7.4359 Y17.2037
G01 X7.4043 Y17.1890
G01 X7.3933 Y17.1832
G01 X7.3640 Y17.1655
G01 X7.3422 Y17.1497
G01 X7.3403 Y17.1877
G01 X7.3356 Y17.2213
G01 X7.3329 Y17.2356
G01 X7.3258 Y17.2636
G01 X7.3234 Y17.2719
G01 X7.3107 Y17.3071
G01 X7.2952 Y17.3403
G01 X7.2897 Y17.3504
G01 X7.2756 Y17.3739
G01 X7.2701 Y17.3824
G01 X7.2641 Y17.3907
G01 X7.5958 Y17.3907
G01 X7.6284 Y17.3921
G01 X7.6409 Y17.3932
G01 X7.6697 Y17.3975
G01 X7.6844 Y17.4005
G01 X7.7164 Y17.4087
G01 X7.7483 Y17.4200
G01 X7.7607 Y17.4251
G01 X7.7912 Y17.4397
G01 X7.8213 Y17.4575
G01 X7.8335 Y17.4657
G01 X7.8613 Y17.4868
G01 X7.8903 Y17.5132
G01 X7.9164 Y17.5419
G01 X7.9372 Y17.5694
G01 X7.9461 Y17.5827
G01 X7.9597 Y17.6055
G01 X7.9652 Y17.6156
G01 X7.9807 Y17.6488
G01 X7.9924 Y17.6811
G01 X7.9956 Y17.6915
G01 X8.0026 Y17.7190
G01 X8.0056 Y17.7346
G01 X8.0103 Y17.7682
G01 X8.0122 Y17.8073
G01 X8.0108 Y17.8421
G01 X8.0092 Y17.8570
G01 X8.0041 Y17.8902
G01 X7.9942 Y17.9292
G01 X7.9832 Y17.9607
G01 X7.9778 Y17.9737
G01 X7.9632 Y18.0042
G01 X7.9456 Y18.0339
G01 X7.9377 Y18.0458
G01 X7.9172 Y18.0731
G01 X7.8936 Y18.0994
G01 X7.8841 Y18.1087
G01 X7.8604 Y18.1299
G01 X7.8330 Y18.1506
G01 X7.8213 Y18.1584
G01 X7.7912 Y18.1762
G01 X7.7600 Y18.1911
G01 X7.7471 Y18.1964
G01 X7.7149 Y18.2076
G01 X7.6805 Y18.2164
G01 X7.6685 Y18.2186
G01 X7.6369 Y18.2231
G01 X7.5958 Y18.2252
G01 X6.6822 Y18.2252
G01 X6.6822 Y18.6387
G01 X6.7715 Y18.7307
G01 X7.5958 Y18.7307
G01 X7.6369 Y18.7328
G01 X7.6685 Y18.7373
G01 X7.6794 Y18.7393
G01 X7.7112 Y18.7472
G01 X7.7238 Y18.7512
G01 X7.7540 Y18.7622
G01 X7.7847 Y18.7764
G01 X7.7977 Y18.7833
G01 X7.8260 Y18.8004
G01 X7.8335 Y18.8057
G01 X7.8604 Y18.8260
G01 X7.8847 Y18.8478
G01 X7.8951 Y18.8582
G01 X7.9172 Y18.8828
G01 X7.9372 Y18.9094
G01 X7.9456 Y18.9220
G01 X7.9624 Y18.9502
G01 X7.9772 Y18.9808
G01 X7.9814 Y18.9906
G01 X7.9942 Y19.0267
G01 X8.0029 Y19.0603
G01 X8.0054 Y19.0735
G01 X8.0092 Y19.0989
G01 X8.0108 Y19.1146
G01 X8.0122 Y19.1486
G01 X8.0102 Y19.1896
G01 X8.0043 Y19.2291
G01 X7.9956 Y19.2644
G01 X7.9924 Y19.2748
G01 X7.9834 Y19.3000
G01 X7.9773 Y19.3148
G01 X7.9624 Y19.3458
G01 X7.9415 Y19.3803
G01 X7.9185 Y19.4114
G01 X7.8936 Y19.4394
G01 X7.8865 Y19.4465
G01 X7.8645 Y19.4664
G01 X7.8500 Y19.4780
G01 X7.8645 Y19.4895
G01 X7.8865 Y19.5095
G01 X7.8951 Y19.5182
G01 X7.9134 Y19.5384
G01 X7.9194 Y19.5456
G01 X7.9392 Y19.5721
G01 X7.9461 Y19.5827
G01 X7.9638 Y19.6128
G01 X7.9773 Y19.6411
G01 X7.9814 Y19.6506
G01 X7.9946 Y19.6881
G01 X8.0031 Y19.7212
G01 X8.0056 Y19.7346
G01 X8.0103 Y19.7682
G01 X8.0122 Y19.8073
G01 X8.0122 Y20.4780
G01 X8.0108 Y20.5121
G01 X8.0093 Y20.5262
G01 X8.0043 Y20.5591
G01 X7.9963 Y20.5918
G01 X7.9924 Y20.6048
G01 X7.9802 Y20.6383
G01 X7.9638 Y20.6731
G01 X7.9463 Y20.7030
G01 X7.9377 Y20.7158
G01 X7.9172 Y20.7431
G01 X7.8912 Y20.7718
G01 X7.8659 Y20.7952
G01 X7.8546 Y20.8045
G01 X7.8269 Y20.8248
G01 X7.7977 Y20.8426
G01 X7.7847 Y20.8495
G01 X7.7540 Y20.8637
G01 X7.7189 Y20.8764
G01 X7.7082 Y20.8795
G01 X7.6776 Y20.8870
G01 X7.6369 Y20.8931
G01 X7.5958 Y20.8952
G01 X7.5622 Y20.8938
G01 X7.5530 Y20.8931
G01 X7.5124 Y20.8870
G01 X7.4817 Y20.8795
G01 X7.4710 Y20.8764
G01 X7.4428 Y20.8664
G01 X7.4325 Y20.8623
G01 X7.4036 Y20.8487
G01 X7.3922 Y20.8426
G01 X7.3686 Y20.8284
G01 X7.3602 Y20.8229
G01 X7.3344 Y20.8038
G01 X7.3240 Y20.7952
G01 X7.2996 Y20.7727
G01 X7.2778 Y20.7489
G01 X7.2693 Y20.7388
G01 X7.2527 Y20.7165
G01 X7.2454 Y20.7057
G01 X7.2283 Y20.6770
G01 X7.2239 Y20.6686
G01 X7.2108 Y20.6407
G01 X7.2067 Y20.6307
G01 X7.1963 Y20.6011
G01 X7.1870 Y20.5652
G01 X6.2617 Y20.5652
G01 X6.2247 Y20.5633
G01 X6.1914 Y20.5586
G01 X6.1773 Y20.5558
G01 X6.1435 Y20.5472
G01 X6.1128 Y20.5364
G01 X6.1025 Y20.5323
G01 X6.0736 Y20.5187
G01 X6.0622 Y20.5126
G01 X6.0371 Y20.4975
G01 X6.0264 Y20.4902
G01 X5.9995 Y20.4699
G01 X5.9758 Y20.4487
G01 X5.9664 Y20.4394
G01 X5.9435 Y20.4140
G01 X5.9373 Y20.4062
G01 X5.9184 Y20.3803
G01 X5.8967 Y20.3442
G01 X5.8821 Y20.3137
G01 X5.8779 Y20.3038
G01 X5.8657 Y20.2692
G01 X5.8571 Y20.2356
G01 X5.8545 Y20.2224
G01 X5.8507 Y20.1970
G01 X5.8492 Y20.1821
G01 X5.8477 Y20.1480
G01 X5.8477 Y19.8080
G01 X5.8497 Y19.7672
G01 X5.8556 Y19.7269
G01 X5.8657 Y19.6867
G01 X5.8792 Y19.6488
G01 X5.8942 Y19.6166
G01 X5.9010 Y19.6041
G01 X5.9184 Y19.5756
G01 X5.9414 Y19.5445
G01 X5.9648 Y19.5182
G01 X5.9758 Y19.5072
G01 X6.0014 Y19.4845
G01 X6.0302 Y19.4630
G01 X6.0386 Y19.4575
G01 X6.0622 Y19.4433
G01 X6.0743 Y19.4369
G01 X6.1059 Y19.4222
G01 X6.1410 Y19.4095
G01 X6.1510 Y19.4066
G01 X6.1755 Y19.4005
G01 X6.1869 Y19.3981
G01 X6.2230 Y19.3928
G01 X6.2496 Y19.3912
G01 X5.9651 Y19.0982
G01 X5.9381 Y19.0674
G01 X5.9200 Y19.0425
G01 X5.9141 Y19.0338
G01 X5.8979 Y19.0063
G01 X5.8921 Y18.9951
G01 X5.8799 Y18.9687
G01 X5.8754 Y18.9572
G01 X5.8648 Y18.9262
G01 X5.8571 Y18.8957
G01 X5.8545 Y18.8826
G01 X5.8498 Y18.8502
G01 X5.8490 Y18.8403
G01 X5.8477 Y18.8086
G01 X5.8477 Y17.8080
G01 X5.8491 Y17.7746
G01 X5.8502 Y17.7627
G01 X5.8559 Y17.7257
G01 X5.8657 Y17.6867
G01 X5.8792 Y17.6488
G01 X5.8942 Y17.6166
G01 X5.9002 Y17.6055
G01 X5.9139 Y17.5827
G01 X5.9227 Y17.5694
G01 X5.9386 Y17.5481
G01 X5.9444 Y17.5408
G01 X5.9648 Y17.5182
G01 X5.9734 Y17.5095
G01 X6.0014 Y17.4845
G01 X6.0330 Y17.4611
G01 X6.0672 Y17.4405
G01 X6.1025 Y17.4236
G01 X6.1128 Y17.4195
G01 X6.1435 Y17.4087
G01 X6.1795 Y17.3996
G01 X6.1914 Y17.3973
G01 X6.2207 Y17.3931
G01 X6.2295 Y17.3922
G01 X6.2482 Y17.3913
G01 X5.9693 Y17.1124
G01 X5.9444 Y17.0851
G01 X5.9377 Y17.0766
G01 X5.9184 Y17.0503
G01 X5.8975 Y17.0158
G01 X5.8933 Y17.0073
G01 X5.8792 Y16.9771
G01 X5.8657 Y16.9392
G01 X5.8571 Y16.9056
G01 X5.8543 Y16.8913
G01 X5.8496 Y16.8577
G01 X5.8477 Y16.8212
G01 X5.8477 Y16.1480
G01 X5.8497 Y16.1072
G01 X5.8545 Y16.0735
G01 X5.8575 Y16.0586
G01 X5.8663 Y16.0248
G01 X5.8792 Y15.9888
G01 X5.8939 Y15.9573
G01 X5.9008 Y15.9445
G01 X5.9184 Y15.9156
G01 X5.9408 Y15.8851
G01 X5.9478 Y15.8770
G01 X5.9699 Y15.8529
G01 X6.2999 Y15.5229
G01 X6.3273 Y15.4978
G01 X6.3467 Y15.4830
G01 X6.3273 Y15.4681
G01 X6.2996 Y15.4427
G01 X6.2749 Y15.4157
G01 X6.2600 Y15.3962
G01 X6.2450 Y15.4157
G01 X6.2251 Y15.4377
G01 X6.2182 Y15.4448
G01 X6.1894 Y15.4708
G01 X6.1597 Y15.4929
G01 X6.1506 Y15.4988
G01 X6.1235 Y15.5150
G01 X6.0922 Y15.5301
G01 X6.0770 Y15.5364
G01 X6.0506 Y15.5458
G01 X6.0412 Y15.5487
G01 X6.0064 Y15.5572
G01 X5.9666 Y15.5632
G01 X5.9258 Y15.5652
G01 X5.8895 Y15.5637
G01 X5.8767 Y15.5623
G01 X5.8461 Y15.5577
G01 X5.8117 Y15.5495
G01 X5.7961 Y15.5447
G01 X5.7700 Y15.5353
G01 X5.7599 Y15.5311
G01 X5.7272 Y15.5154
G01 X5.6930 Y15.4948
G01 X5.6615 Y15.4715
G01 X5.6358 Y15.4487
G01 X5.2946 Y15.1075
G01 X5.2721 Y15.0823
G01 X5.2515 Y15.0548
G01 X5.2440 Y15.0435
G01 X5.2267 Y15.0142
G01 X5.2119 Y14.9833
G01 X5.2067 Y14.9705
G01 X5.1957 Y14.9392
G01 X5.1875 Y14.9072
G01 X5.1218 Y14.9234
G01 X5.1181 Y14.9061
G01 X5.1128 Y14.8693
G01 X5.1115 Y14.8549
G01 X5.1100 Y14.8214
G01 X5.1100 Y14.1480
G01 X5.1115 Y14.1119
G01 X5.1134 Y14.0912
G01 X5.1180 Y14.0604
G01 X5.1206 Y14.0473
G01 X5.1305 Y14.0085
G01 X5.1428 Y13.9731
G01 X5.1503 Y13.9546
G01 X5.1671 Y13.9196
G01 X5.1875 Y13.8851
G01 X5.1984 Y13.8691
G01 X5.2143 Y13.8477
G01 X5.2220 Y13.8380
G01 X5.2498 Y13.8074
G01 X5.5848 Y13.4723
G01 X5.6093 Y13.4500
G01 X5.6187 Y13.4420
G01 X5.6461 Y13.4214
G01 X5.6557 Y13.4146
G01 X5.6863 Y13.3960
G01 X5.6967 Y13.3901
G01 X5.7067 Y13.3851
G01 X5.7389 Y13.3701
G01 X5.7501 Y13.3658
G01 X5.7840 Y13.3540
G01 X5.7953 Y13.3508
G01 X5.8283 Y13.3427
G01 X5.8413 Y13.3404
G01 X5.8749 Y13.3356
G01 X5.8875 Y13.3346
G01 X5.9168 Y13.3332
G01 X7.2691 Y13.3330
G01 X7.3118 Y13.3353
G01 X7.3486 Y13.3404
G01 X7.3682 Y13.3442
G01 X7.4067 Y13.3542
G01 X7.4435 Y13.3671
G01 X7.4589 Y13.3736
G01 X7.4933 Y13.3901
G01 X7.5247 Y13.4086
G01 X7.5404 Y13.4189
G01 X7.5704 Y13.4413
G01 X7.5812 Y13.4505
G01 X7.6079 Y13.4750
G01 X7.9381 Y13.8053
G01 X7.9666 Y13.8364
G01 X7.9766 Y13.8490
G01 X7.9976 Y13.8776
G01 X8.0041 Y13.8879
G01 X8.0217 Y13.9177
G01 X8.0276 Y13.9291
G01 X8.0422 Y13.9605
G01 X8.0469 Y13.9725
G01 X8.0581 Y14.0043
G01 X8.0614 Y14.0157
G01 X8.0687 Y14.0447
G01 X8.0726 Y14.0647
G01 X8.0765 Y14.0916
G01 X8.0778 Y14.1031
G01 X8.0796 Y14.1366
G01 X8.0799 Y14.1480
G01 X8.0798 Y14.8236
G01 X8.0777 Y14.8641
G01 X8.0725 Y14.9016
G01 X8.0689 Y14.9203
G01 X8.0594 Y14.9575
G01 X8.0555 Y14.9693
G01 X8.0433 Y15.0028
G01 X8.0278 Y15.0363
G01 X8.0220 Y15.0478
G01 X8.0043 Y15.0776
G01 X7.9976 Y15.0883
G01 X7.9766 Y15.1169
G01 X7.9675 Y15.1284
G01 X7.9383 Y15.1604
G01 X7.6158 Y15.4830
G01 X7.9381 Y15.8053
G01 X7.9675 Y15.8375
G01 X7.9766 Y15.8490
G01 X7.9976 Y15.8777
G01 X8.0040 Y15.8878
G01 X8.0220 Y15.9181
G01 X8.0277 Y15.9295
G01 X8.0427 Y15.9616
G01 X8.0470 Y15.9728
G01 X8.0581 Y16.0043
G01 X8.0613 Y16.0152
G01 X8.0686 Y16.0443
G01 X8.0725 Y16.0641
G01 X8.0777 Y16.1018
G01 X8.0799 Y16.1446
G01 X8.0799 Y16.8214
G01 X8.0784 Y16.8547
G01 X8.0775 Y16.8664
G01 X8.0726 Y16.9012
G01 X8.0704 Y16.9136
G01 X8.0621 Y16.9476
G01 X8.0588 Y16.9593
G01 X8.0468 Y16.9938
G01 X8.0414 Y17.0074
G01 X8.0270 Y17.0379
G01 X8.0209 Y17.0497
G01 X8.0021 Y17.0813
G01 X7.9923 Y17.0958
G01 X7.9739 Y17.1204
G01 X7.9623 Y17.1343
G01 X7.9380 Y17.1607
G01 X7.9113 Y17.1853
G01 X7.8971 Y17.1972
G01 X7.8690 Y17.2180
G01 X7.8570 Y17.2259
G01 X7.8322 Y17.2408
G01 X7.8159 Y17.2495
G01 X7.7803 Y17.2661
G01 X7.7453 Y17.2789
G01 X7.7291 Y17.2839
G01 X7.6956 Y17.2923
G01 X7.6785 Y17.2955
G01 X7.6420 Y17.3006
G01 X7.6061 Y17.3026
G01 X7.5875 Y17.3028
G01 X7.5513 Y17.3009
G01 X7.5364 Y17.2992
G01 X7.5001 Y17.2935
G01 X7.4649 Y17.2850
G01 X7.4499 Y17.2807
G01 X7.4142 Y17.2679
G01 X7.3965 Y17.2602
G01 X7.3888 Y17.2893
G01 X7.3771 Y17.3230
G01 X7.6024 Y17.3231
G01 X7.6345 Y17.3247
G01 X7.6468 Y17.3258
G01 X7.6809 Y17.3308
G01 X7.6999 Y17.3346
G01 X7.7359 Y17.3440
G01 X7.7705 Y17.3560
G01 X7.7882 Y17.3633
G01 X7.8233 Y17.3801
G01 X7.8567 Y17.3998
G01 X7.8711 Y17.4094
G01 X7.9014 Y17.4321
G01 X7.9096 Y17.4391
G01 X7.9304 Y17.4579
G01 X7.9432 Y17.4705
G01 X7.9696 Y17.5001
G01 X7.9940 Y17.5325
G01 X8.0040 Y17.5478
G01 X8.0231 Y17.5802
G01 X8.0403 Y17.6162
G01 X8.0457 Y17.6293
G01 X8.0554 Y17.6562
G01 X8.0613 Y17.6752
G01 X8.0706 Y17.7135
G01 X8.0764 Y17.7505
G01 X8.0783 Y17.7699
G01 X8.0797 Y17.7991
G01 X8.0799 Y17.8109
G01 X8.0777 Y17.8536
G01 X8.0764 Y17.8654
G01 X8.0726 Y17.8912
G01 X8.0689 Y17.9103
G01 X8.0588 Y17.9493
G01 X8.0459 Y17.9861
G01 X8.0394 Y18.0017
G01 X8.0228 Y18.0363
G01 X8.0040 Y18.0681
G01 X7.9940 Y18.0834
G01 X7.9714 Y18.1137
G01 X7.9623 Y18.1243
G01 X7.9447 Y18.1437
G01 X7.9367 Y18.1520
G01 X7.9088 Y18.1775
G01 X7.8953 Y18.1886
G01 X7.8647 Y18.2109
G01 X7.8317 Y18.2311
G01 X7.8153 Y18.2399
G01 X7.7803 Y18.2561
G01 X7.7449 Y18.2690
G01 X7.7261 Y18.2747
G01 X7.6898 Y18.2835
G01 X7.6535 Y18.2892
G01 X7.6358 Y18.2911
G01 X7.5999 Y18.2928
G01 X6.7499 Y18.2929
G01 X6.7499 Y18.6113
G01 X6.8001 Y18.6630
G01 X7.5991 Y18.6630
G01 X7.6324 Y18.6646
G01 X7.6468 Y18.6658
G01 X7.6809 Y18.6708
G01 X7.7002 Y18.6747
G01 X7.7359 Y18.6840
G01 X7.7699 Y18.6958
G01 X7.7868 Y18.7026
G01 X7.8162 Y18.7165
G01 X7.8317 Y18.7248
G01 X7.8643 Y18.7447
G01 X7.8942 Y18.7665
G01 X7.9061 Y18.7760
G01 X7.9331 Y18.8005
G01 X7.9458 Y18.8134
G01 X7.9640 Y18.8335
G01 X7.9710 Y18.8417
G01 X7.9940 Y18.8725
G01 X8.0034 Y18.8867
G01 X8.0228 Y18.9196
G01 X8.0394 Y18.9542
G01 X8.0459 Y18.9698
G01 X8.0591 Y19.0073
G01 X8.0686 Y19.0443
G01 X8.0723 Y19.0630
G01 X8.0777 Y19.1018
G01 X8.0798 Y19.1399
G01 X8.0796 Y19.1595
G01 X8.0774 Y19.1969
G01 X8.0710 Y19.2402
G01 X8.0686 Y19.2516
G01 X8.0613 Y19.2807
G01 X8.0558 Y19.2986
G01 X8.0427 Y19.3343
G01 X8.0249 Y19.3721
G01 X8.0183 Y19.3843
G01 X8.0040 Y19.4081
G01 X7.9945 Y19.4227
G01 X7.9714 Y19.4537
G01 X7.9644 Y19.4619
G01 X7.9500 Y19.4780
G01 X7.9646 Y19.4942
G01 X7.9723 Y19.5033
G01 X7.9918 Y19.5295
G01 X7.9990 Y19.5398
G01 X8.0220 Y19.5781
G01 X8.0269 Y19.5877
G01 X8.0396 Y19.6146
G01 X8.0471 Y19.6331
G01 X8.0569 Y19.6605
G01 X8.0612 Y19.6748
G01 X8.0707 Y19.7141
G01 X8.0772 Y19.7571
G01 X8.0784 Y19.7712
G01 X8.0799 Y19.8077
G01 X8.0799 Y20.4789
G01 X8.0777 Y20.5236
G01 X8.0764 Y20.5354
G01 X8.0725 Y20.5618
G01 X8.0689 Y20.5803
G01 X8.0591 Y20.6186
G01 X8.0459 Y20.6561
G01 X8.0384 Y20.6739
G01 X8.0220 Y20.7078
G01 X8.0018 Y20.7418
G01 X7.9940 Y20.7534
G01 X7.9768 Y20.7767
G01 X7.9644 Y20.7919
G01 X7.9380 Y20.8207
G01 X7.9096 Y20.8468
G01 X7.8953 Y20.8586
G01 X7.8633 Y20.8819
G01 X7.8255 Y20.9046
G01 X7.8153 Y20.9099
G01 X7.7911 Y20.9213
G01 X7.7723 Y20.9292
G01 X7.7367 Y20.9417
G01 X7.7246 Y20.9451
G01 X7.6898 Y20.9535
G01 X7.6785 Y20.9555
G01 X7.6436 Y20.9604
G01 X7.6310 Y20.9614
G01 X7.5958 Y20.9629
G01 X7.5834 Y20.9626
G01 X7.5480 Y20.9606
G01 X7.5360 Y20.9592
G01 X7.5007 Y20.9536
G01 X7.4893 Y20.9511
G01 X7.4556 Y20.9424
G01 X7.4433 Y20.9384
G01 X7.4108 Y20.9265
G01 X7.3996 Y20.9217
G01 X7.3689 Y20.9070
G01 X7.3569 Y20.9003
G01 X7.3266 Y20.8819
G01 X7.3164 Y20.8747
G01 X7.2892 Y20.8543
G01 X7.2791 Y20.8458
G01 X7.2528 Y20.8216
G01 X7.2444 Y20.8128
G01 X7.2230 Y20.7890
G01 X7.2136 Y20.7773
G01 X7.1926 Y20.7486
G01 X7.1861 Y20.7385
G01 X7.1694 Y20.7104
G01 X7.1630 Y20.6982
G01 X7.1488 Y20.6680
G01 X7.1442 Y20.6567
G01 X7.1358 Y20.6333
G01 X6.2600 Y20.6328
G01 X6.2180 Y20.6306
G01 X6.1808 Y20.6254
G01 X6.1613 Y20.6216
G01 X6.1338 Y20.6147
G01 X6.1207 Y20.6109
G01 X6.0894 Y20.5999
G01 X6.0762 Y20.5946
G01 X6.0450 Y20.5800
G01 X6.0331 Y20.5738
G01 X6.0040 Y20.5565
G01 X5.9917 Y20.5486
G01 X5.9633 Y20.5275
G01 X5.9486 Y20.5153
G01 X5.9219 Y20.4907
G01 X5.8976 Y20.4643
G01 X5.8860 Y20.4504
G01 X5.8676 Y20.4258
G01 X5.8578 Y20.4113
G01 X5.8390 Y20.3797
G01 X5.8330 Y20.3682
G01 X5.8188 Y20.3380
G01 X5.8133 Y20.3241
G01 X5.8017 Y20.2912
G01 X5.7979 Y20.2779
G01 X5.7897 Y20.2442
G01 X5.7874 Y20.2312
G01 X5.7825 Y20.1969
G01 X5.7816 Y20.1852
G01 X5.7801 Y20.1542
G01 X5.7802 Y19.7987
G01 X5.7823 Y19.7608
G01 X5.7875 Y19.7241
G01 X5.7910 Y19.7056
G01 X5.8005 Y19.6687
G01 X5.8045 Y19.6562
G01 X5.8175 Y19.6210
G01 X5.8335 Y19.5867
G01 X5.8425 Y19.5700
G01 X5.8617 Y19.5386
G01 X5.8836 Y19.5086
G01 X5.8951 Y19.4945
G01 X5.9197 Y19.4674
G01 X5.9304 Y19.4571
G01 X5.9506 Y19.4388
G01 X5.9586 Y19.4321
G01 X5.9888 Y19.4094
G01 X6.0029 Y19.4000
G01 X6.0299 Y19.3839
G01 X6.0465 Y19.3752
G01 X6.0796 Y19.3598
G01 X6.1129 Y19.3476
G01 X5.9155 Y19.1442
G01 X5.8913 Y19.1169
G01 X5.8793 Y19.1017
G01 X5.8586 Y19.0726
G01 X5.8406 Y19.0424
G01 X5.8319 Y19.0260
G01 X5.8195 Y18.9992
G01 X5.8123 Y18.9816
G01 X5.8010 Y18.9490
G01 X5.7973 Y18.9356
G01 X5.7895 Y18.9036
G01 X5.7871 Y18.8900
G01 X5.7824 Y18.8561
G01 X5.7815 Y18.8437
G01 X5.7800 Y18.8089
G01 X5.7800 Y17.8080
G01 X5.7803 Y17.7964
G01 X5.7823 Y17.7608
G01 X5.7877 Y17.7224
G01 X5.7919 Y17.7021
G01 X5.7986 Y17.6752
G01 X5.8017 Y17.6647
G01 X5.8165 Y17.6233
G01 X5.8334 Y17.5870
G01 X5.8425 Y17.5700
G01 X5.8623 Y17.5378
G01 X5.8876 Y17.5033
G01 X5.8955 Y17.4940
G01 X5.9149 Y17.4725
G01 X5.9295 Y17.4579
G01 X5.9503 Y17.4391
G01 X5.9586 Y17.4321
G01 X5.9917 Y17.4073
G01 X6.0029 Y17.4000
G01 X6.0267 Y17.3857
G01 X6.0427 Y17.3770
G01 X6.0796 Y17.3598
G01 X6.1099 Y17.3487
G01 X5.9209 Y17.1597
G01 X5.8970 Y17.1336
G01 X5.8872 Y17.1220
G01 X5.8681 Y17.0965
G01 X5.8609 Y17.0861
G01 X5.8425 Y17.0559
G01 X5.8359 Y17.0440
G01 X5.8213 Y17.0133
G01 X5.8160 Y17.0012
G01 X5.8035 Y16.9666
G01 X5.7987 Y16.9511
G01 X5.7893 Y16.9124
G01 X5.7837 Y16.8765
G01 X5.7818 Y16.8585
G01 X5.7801 Y16.8226
G01 X5.7800 Y16.1477
G01 X5.7818 Y16.1068
G01 X5.7836 Y16.0901
G01 X5.7896 Y16.0523
G01 X5.7989 Y16.0141
G01 X5.8045 Y15.9962
G01 X5.8168 Y15.9628
G01 X5.8335 Y15.9267
G01 X5.8427 Y15.9098
G01 X5.8567 Y15.8864
G01 X5.8645 Y15.8746
G01 X5.8897 Y15.8408
G01 X5.8972 Y15.8321
G01 X5.9192 Y15.8080
G01 X6.1492 Y15.5779
G01 X6.1168 Y15.5933
G01 X6.0998 Y15.6001
G01 X6.0643 Y15.6124
G01 X6.0269 Y15.6220
G01 X6.0095 Y15.6253
G01 X5.9718 Y15.6306
G01 X5.9331 Y15.6328
G01 X5.9134 Y15.6326
G01 X5.8768 Y15.6305
G01 X5.8400 Y15.6253
G01 X5.8217 Y15.6217
G01 X5.7832 Y15.6117
G01 X5.7464 Y15.5988
G01 X5.7294 Y15.5916
G01 X5.6951 Y15.5750
G01 X5.6597 Y15.5539
G01 X5.6471 Y15.5453
G01 X5.6192 Y15.5243
G01 X5.6093 Y15.5159
G01 X5.5845 Y15.4933
G01 X5.2518 Y15.1606
G01 X5.2233 Y15.1295
G01 X5.2133 Y15.1169
G01 X5.1911 Y15.0864
G01 X5.1721 Y15.0552
G01 X5.1635 Y15.0392
G01 X5.1495 Y15.0094
G01 X5.1430 Y14.9934
G01 X5.1309 Y14.9587
G01 X5.1218 Y14.9234
G01 X5.2151 Y15.3153
G01 X5.2151 Y25.1978
G01 X5.7826 Y25.1978
G01 X5.7595 Y25.1672
G01 X5.7506 Y25.1546
G01 X5.7416 Y25.1406
G01 X5.7261 Y25.1148
G01 X5.7188 Y25.1020
G01 X5.7120 Y25.0888
G01 X5.6976 Y25.0584
G01 X5.6912 Y25.0437
G01 X5.6855 Y25.0287
G01 X5.6727 Y24.9923
G01 X5.6679 Y24.9759
G01 X5.6605 Y24.9461
G01 X5.6570 Y24.9308
G01 X5.6542 Y24.9156
G01 X5.6495 Y24.8840
G01 X5.6476 Y24.8679
G01 X5.6465 Y24.8539
G01 X5.6451 Y24.8261
G01 X5.6447 Y24.8080
G01 X5.6447 Y23.8077
G01 X5.6450 Y23.7933
G01 X5.6465 Y23.7621
G01 X5.6489 Y23.7364
G01 X5.6556 Y23.6924
G01 X5.6598 Y23.6724
G01 X5.6703 Y23.6318
G01 X5.6766 Y23.6120
G01 X5.6914 Y23.5719
G01 X5.6992 Y23.5542
G01 X5.7114 Y23.5285
G01 X5.7179 Y23.5157
G01 X5.7269 Y23.4998
G01 X5.7412 Y23.4759
G01 X5.7492 Y23.4634
G01 X5.7579 Y23.4510
G01 X5.7743 Y23.4288
G01 X5.7858 Y23.4141
G01 X5.7965 Y23.4016
G01 X5.8220 Y23.3738
G01 X5.8923 Y23.3034
G01 X5.8766 Y23.2915
G01 X5.8628 Y23.2801
G01 X5.8351 Y23.2550
G01 X5.8207 Y23.2408
G01 X5.7963 Y23.2140
G01 X5.7855 Y23.2015
G01 X5.7751 Y23.1882
G01 X5.7527 Y23.1577
G01 X5.7412 Y23.1399
G01 X5.7209 Y23.1057
G01 X5.7122 Y23.0891
G01 X5.6992 Y23.0618
G01 X5.6924 Y23.0464
G01 X5.6863 Y23.0310
G01 X5.6750 Y22.9992
G01 X5.6692 Y22.9805
G01 X5.6602 Y22.9450
G01 X5.6566 Y22.9291
G01 X5.6538 Y22.9127
G01 X5.6488 Y22.8786
G01 X5.6468 Y22.8578
G01 X5.6450 Y22.8229
G01 X5.6447 Y22.8067
G01 X5.6451 Y22.7900
G01 X5.6467 Y22.7587
G01 X5.6482 Y22.7419
G01 X5.6537 Y22.7035
G01 X5.6570 Y22.6849
G01 X5.6606 Y22.6693
G01 X5.6708 Y22.6301
G01 X5.6758 Y22.6143
G01 X5.6884 Y22.5794
G01 X5.6975 Y22.5578
G01 X5.7163 Y22.5186
G01 X5.7263 Y22.5008
G01 X5.7481 Y22.4650
G01 X5.7596 Y22.4486
G01 X5.7767 Y22.4256
G01 X5.7857 Y22.4142
G01 X5.7947 Y22.4036
G01 X5.8139 Y22.3824
G01 X5.8274 Y22.3683
G01 X5.8582 Y22.3399
G01 X5.8730 Y22.3272
G01 X5.9063 Y22.3021
G01 X5.9234 Y22.2902
G01 X5.9588 Y22.2687
G01 X5.9770 Y22.2586
G01 X6.0163 Y22.2398
G01 X6.0408 Y22.2298
G01 X6.0710 Y22.2189
G01 X6.0882 Y22.2134
G01 X6.1267 Y22.2035
G01 X6.1433 Y22.1997
G01 X6.1610 Y22.1966
G01 X6.2004 Y22.1911
G01 X6.2165 Y22.1897
G01 X6.2477 Y22.1881
G01 X6.2650 Y22.1877
G01 X6.9747 Y22.1877
G01 X6.9747 Y22.0982
G01 X6.2641 Y22.0982
G01 X6.2469 Y22.0978
G01 X6.2062 Y22.0954
G01 X6.1917 Y22.0938
G01 X6.1615 Y22.0894
G01 X6.1403 Y22.0856
G01 X6.0964 Y22.0748
G01 X6.0711 Y22.0670
G01 X6.0425 Y22.0568
G01 X6.0281 Y22.0512
G01 X6.0146 Y22.0453
G01 X5.9888 Y22.0331
G01 X5.9661 Y22.0214
G01 X5.9325 Y22.0015
G01 X5.9187 Y21.9926
G01 X5.9056 Y21.9833
G01 X5.8796 Y21.9639
G01 X5.8614 Y21.9489
G01 X5.8371 Y21.9268
G01 X5.8240 Y21.9141
G01 X5.7970 Y21.8849
G01 X5.7858 Y21.8718
G01 X5.7747 Y21.8576
G01 X5.7509 Y21.8250
G01 X5.7415 Y21.8104
G01 X5.7251 Y21.7832
G01 X5.7172 Y21.7690
G01 X5.7099 Y21.7545
G01 X5.6957 Y21.7242
G01 X5.6871 Y21.7031
G01 X5.6755 Y21.6708
G01 X5.6704 Y21.6546
G01 X5.6604 Y21.6160
G01 X5.6566 Y21.5991
G01 X5.6536 Y21.5816
G01 X5.6481 Y21.5430
G01 X5.6466 Y21.5248
G01 X5.6450 Y21.4921
G01 X5.6447 Y21.4761
G01 X5.6451 Y21.4600
G01 X5.6469 Y21.4269
G01 X5.6492 Y21.4045
G01 X5.6540 Y21.3715
G01 X5.6572 Y21.3539
G01 X5.6667 Y21.3148
G01 X5.6714 Y21.2978
G01 X5.6758 Y21.2844
G01 X5.6860 Y21.2559
G01 X5.6944 Y21.2347
G01 X5.7132 Y21.1948
G01 X5.7197 Y21.1823
G01 X5.7269 Y21.1698
G01 X5.7414 Y21.1456
G01 X5.7495 Y21.1329
G01 X5.7582 Y21.1205
G01 X5.7773 Y21.0948
G01 X5.7942 Y21.0743
G01 X5.8154 Y21.0508
G01 X5.8260 Y21.0397
G01 X5.8373 Y21.0289
G01 X5.8587 Y21.0094
G01 X5.8761 Y20.9947
G01 X5.9120 Y20.9680
G01 X5.9230 Y20.9605
G01 X5.9356 Y20.9526
G01 X5.9599 Y20.9380
G01 X5.9737 Y20.9303
G01 X5.9862 Y20.9240
G01 X6.0154 Y20.9102
G01 X6.0281 Y20.9047
G01 X6.0409 Y20.8997
G01 X6.0700 Y20.8893
G01 X6.0842 Y20.8846
G01 X6.0998 Y20.8802
G01 X6.1315 Y20.8723
G01 X6.1449 Y20.8694
G01 X6.1598 Y20.8668
G01 X6.1892 Y20.8625
G01 X6.2054 Y20.8606
G01 X6.2204 Y20.8594
G01 X6.2548 Y20.8578
G01 X7.1047 Y20.8577
G01 X7.0861 Y20.8325
G01 X7.0766 Y20.8186
G01 X7.0561 Y20.7848
G01 X7.0470 Y20.7685
G01 X6.2649 Y20.7682
G01 X6.2492 Y20.7679
G01 X6.2169 Y20.7663
G01 X6.2006 Y20.7649
G01 X6.1614 Y20.7593
G01 X6.1443 Y20.7564
G01 X6.1269 Y20.7525
G01 X6.0888 Y20.7427
G01 X6.0735 Y20.7378
G01 X6.0437 Y20.7272
G01 X6.0304 Y20.7221
G01 X6.0180 Y20.7169
G01 X5.9790 Y20.6983
G01 X5.9591 Y20.6874
G01 X5.9223 Y20.6650
G01 X5.9055 Y20.6532
G01 X5.8823 Y20.6360
G01 X5.8697 Y20.6260
G01 X5.8373 Y20.5970
G01 X5.8198 Y20.5799
G01 X5.7938 Y20.5512
G01 X5.7807 Y20.5355
G01 X5.7549 Y20.5007
G01 X5.7472 Y20.4895
G01 X5.7399 Y20.4779
G01 X5.7248 Y20.4526
G01 X5.7177 Y20.4399
G01 X5.7113 Y20.4273
G01 X5.6988 Y20.4009
G01 X5.6886 Y20.3771
G01 X5.6751 Y20.3395
G01 X5.6707 Y20.3255
G01 X5.6666 Y20.3108
G01 X5.6587 Y20.2788
G01 X5.6548 Y20.2592
G01 X5.6496 Y20.2248
G01 X5.6477 Y20.2087
G01 X5.6465 Y20.1926
G01 X5.6448 Y20.1579
G01 X5.6448 Y19.7982
G01 X5.6465 Y19.7618
G01 X5.6481 Y19.7430
G01 X5.6537 Y19.7035
G01 X5.6573 Y19.6837
G01 X5.6667 Y19.6448
G01 X5.6714 Y19.6278
G01 X5.6770 Y19.6108
G01 X5.6912 Y19.5722
G01 X5.6988 Y19.5551
G01 X5.7163 Y19.5186
G01 X5.7251 Y19.5027
G01 X5.7438 Y19.4718
G01 X5.7562 Y19.4533
G01 X5.7815 Y19.4195
G01 X5.7938 Y19.4047
G01 X5.8176 Y19.3785
G01 X5.8339 Y19.3620
G01 X5.8608 Y19.3375
G01 X5.8747 Y19.3259
G01 X5.8905 Y19.3138
G01 X5.8139 Y19.2336
G01 X5.7900 Y19.2067
G01 X5.7796 Y19.1942
G01 X5.7552 Y19.1611
G01 X5.7444 Y19.1453
G01 X5.7224 Y19.1083
G01 X5.7119 Y19.0888
G01 X5.6959 Y19.0543
G01 X5.6877 Y19.0348
G01 X5.6735 Y18.9946
G01 X5.6694 Y18.9812
G01 X5.6658 Y18.9679
G01 X5.6591 Y18.9402
G01 X5.6562 Y18.9268
G01 X5.6536 Y18.9119
G01 X5.6495 Y18.8835
G01 X5.6468 Y18.8587
G01 X5.6448 Y18.8185
G01 X5.6447 Y17.8056
G01 X5.6451 Y17.7898
G01 X5.6474 Y17.7503
G01 X5.6492 Y17.7345
G01 X5.6541 Y17.7013
G01 X5.6590 Y17.6758
G01 X5.6692 Y17.6354
G01 X5.6754 Y17.6155
G01 X5.6884 Y17.5794
G01 X5.6972 Y17.5584
G01 X5.7143 Y17.5225
G01 X5.7238 Y17.5051
G01 X5.7400 Y17.4779
G01 X5.7548 Y17.4553
G01 X5.7786 Y17.4231
G01 X5.7923 Y17.4064
G01 X5.8139 Y17.3824
G01 X5.8317 Y17.3642
G01 X5.8577 Y17.3403
G01 X5.8709 Y17.3290
G01 X5.8860 Y17.3171
G01 X5.8193 Y17.2493
G01 X5.7948 Y17.2223
G01 X5.7838 Y17.2093
G01 X5.7594 Y17.1771
G01 X5.7486 Y17.1616
G01 X5.7266 Y17.1257
G01 X5.7172 Y17.1090
G01 X5.6990 Y17.0714
G01 X5.6912 Y17.0537
G01 X5.6766 Y17.0139
G01 X5.6703 Y16.9941
G01 X5.6598 Y16.9536
G01 X5.6556 Y16.9338
G01 X5.6490 Y16.8903
G01 X5.6466 Y16.8650
G01 X5.6450 Y16.8327
G01 X5.6447 Y16.8186
G01 X5.6447 Y16.1473
G01 X5.6450 Y16.1332
G01 X5.6465 Y16.1021
G01 X5.6488 Y16.0773
G01 X5.6537 Y16.0435
G01 X5.6564 Y16.0279
G01 X5.6597 Y16.0128
G01 X5.6677 Y15.9811
G01 X5.6714 Y15.9678
G01 X5.6758 Y15.9544
G01 X5.6871 Y15.9228
G01 X5.6931 Y15.9079
G01 X5.6993 Y15.8940
G01 X5.7162 Y15.8589
G01 X5.7246 Y15.8437
G01 X5.7401 Y15.8176
G01 X5.7481 Y15.8050
G01 X5.7562 Y15.7933
G01 X5.7761 Y15.7664
G01 X5.7871 Y15.7525
G01 X5.7595 Y15.7456
G01 X5.7448 Y15.7415
G01 X5.7307 Y15.7369
G01 X5.7045 Y15.7275
G01 X5.6806 Y15.7180
G01 X5.6480 Y15.7027
G01 X5.6244 Y15.6905
G01 X5.5885 Y15.6690
G01 X5.5714 Y15.6575
G01 X5.5419 Y15.6357
G01 X5.5220 Y15.6193
G01 X5.4891 Y15.5893
G01 X5.2151 Y15.3153
G01 X5.2828 Y15.4786
G01 X5.2828 Y25.1302
G01 X5.6572 Y25.1302
G01 X5.6504 Y25.1167
G01 X5.6374 Y25.0893
G01 X5.6280 Y25.0679
G01 X5.6119 Y25.0239
G01 X5.6045 Y25.0003
G01 X5.5938 Y24.9583
G01 X5.5888 Y24.9344
G01 X5.5817 Y24.8872
G01 X5.5800 Y24.8720
G01 X5.5789 Y24.8567
G01 X5.5774 Y24.8248
G01 X5.5770 Y24.8084
G01 X5.5770 Y23.8078
G01 X5.5775 Y23.7887
G01 X5.5795 Y23.7506
G01 X5.5821 Y23.7253
G01 X5.5891 Y23.6797
G01 X5.5938 Y23.6575
G01 X5.6041 Y23.6171
G01 X5.6116 Y23.5931
G01 X5.6265 Y23.5519
G01 X5.6352 Y23.5314
G01 X5.6499 Y23.5001
G01 X5.6625 Y23.4759
G01 X5.6820 Y23.4430
G01 X5.6930 Y23.4257
G01 X5.7053 Y23.4082
G01 X5.7255 Y23.3812
G01 X5.7403 Y23.3631
G01 X5.7683 Y23.3321
G01 X5.7924 Y23.3077
G01 X5.7804 Y23.2962
G01 X5.7697 Y23.2853
G01 X5.7459 Y23.2592
G01 X5.7356 Y23.2473
G01 X5.7237 Y23.2324
G01 X5.7051 Y23.2074
G01 X5.6882 Y23.1828
G01 X5.6645 Y23.1434
G01 X5.6573 Y23.1304
G01 X5.6503 Y23.1166
G01 X5.6362 Y23.0867
G01 X5.6295 Y23.0713
G01 X5.6236 Y23.0565
G01 X5.6134 Y23.0280
G01 X5.6082 Y23.0126
G01 X5.6034 Y22.9965
G01 X5.5918 Y22.9497
G01 X5.5868 Y22.9227
G01 X5.5824 Y22.8929
G01 X5.5804 Y22.8755
G01 X5.5790 Y22.8582
G01 X5.5775 Y22.8275
G01 X5.5771 Y22.8005
G01 X5.5794 Y22.7522
G01 X5.5809 Y22.7357
G01 X5.5828 Y22.7202
G01 X5.5873 Y22.6905
G01 X5.5907 Y22.6715
G01 X5.5944 Y22.6549
G01 X5.6034 Y22.6197
G01 X5.6082 Y22.6033
G01 X5.6134 Y22.5879
G01 X5.6250 Y22.5556
G01 X5.6339 Y22.5342
G01 X5.6500 Y22.4999
G01 X5.6580 Y22.4842
G01 X5.6669 Y22.4683
G01 X5.6860 Y22.4365
G01 X5.6996 Y22.4161
G01 X5.7202 Y22.3882
G01 X5.7310 Y22.3742
G01 X5.7428 Y22.3602
G01 X5.7660 Y22.3346
G01 X5.7786 Y22.3214
G01 X5.7919 Y22.3087
G01 X5.8188 Y22.2845
G01 X5.8381 Y22.2685
G01 X5.8652 Y22.2483
G01 X5.8796 Y22.2381
G01 X5.8936 Y22.2289
G01 X5.9249 Y22.2101
G01 X5.9414 Y22.2009
G01 X5.9572 Y22.1929
G01 X5.9926 Y22.1763
G01 X6.0156 Y22.1669
G01 X6.0491 Y22.1549
G01 X6.0691 Y22.1485
G01 X6.0898 Y22.1430
G01 X6.0691 Y22.1374
G01 X6.0492 Y22.1310
G01 X6.0156 Y22.1190
G01 X5.9924 Y22.1095
G01 X5.9571 Y22.0930
G01 X5.9412 Y22.0849
G01 X5.9248 Y22.0757
G01 X5.8927 Y22.0564
G01 X5.8729 Y22.0431
G01 X5.8451 Y22.0226
G01 X5.8316 Y22.0122
G01 X5.8177 Y22.0005
G01 X5.7915 Y21.9768
G01 X5.7777 Y21.9635
G01 X5.7653 Y21.9506
G01 X5.7403 Y21.9229
G01 X5.7251 Y21.9043
G01 X5.7046 Y21.8767
G01 X5.6936 Y21.8610
G01 X5.6841 Y21.8463
G01 X5.6664 Y21.8167
G01 X5.6572 Y21.8003
G01 X5.6491 Y21.7841
G01 X5.6323 Y21.7480
G01 X5.6243 Y21.7282
G01 X5.6126 Y21.6958
G01 X5.6071 Y21.6792
G01 X5.6025 Y21.6629
G01 X5.5938 Y21.6285
G01 X5.5900 Y21.6109
G01 X5.5868 Y21.5927
G01 X5.5815 Y21.5554
G01 X5.5791 Y21.5293
G01 X5.5771 Y21.4867
G01 X5.5773 Y21.4641
G01 X5.5789 Y21.4293
G01 X5.5813 Y21.4019
G01 X5.5866 Y21.3648
G01 X5.5900 Y21.3448
G01 X5.5945 Y21.3245
G01 X5.6029 Y21.2912
G01 X5.6091 Y21.2705
G01 X5.6236 Y21.2294
G01 X5.6324 Y21.2077
G01 X5.6501 Y21.1698
G01 X5.6600 Y21.1504
G01 X5.6826 Y21.1121
G01 X5.6951 Y21.0927
G01 X5.7205 Y21.0578
G01 X5.7336 Y21.0411
G01 X5.7470 Y21.0255
G01 X5.7661 Y21.0045
G01 X5.7770 Y20.9930
G01 X5.7930 Y20.9777
G01 X5.8249 Y20.9492
G01 X5.8415 Y20.9359
G01 X5.8729 Y20.9127
G01 X5.8959 Y20.8975
G01 X5.9332 Y20.8754
G01 X5.9529 Y20.8650
G01 X5.9862 Y20.8492
G01 X6.0109 Y20.8387
G01 X6.0475 Y20.8255
G01 X6.0682 Y20.8188
G01 X6.0898 Y20.8130
G01 X6.0725 Y20.8084
G01 X6.0541 Y20.8027
G01 X6.0199 Y20.7906
G01 X6.0037 Y20.7843
G01 X5.9862 Y20.7768
G01 X5.9543 Y20.7616
G01 X5.9384 Y20.7534
G01 X5.9232 Y20.7448
G01 X5.8963 Y20.7286
G01 X5.8801 Y20.7181
G01 X5.8660 Y20.7082
G01 X5.8353 Y20.6851
G01 X5.8182 Y20.6710
G01 X5.7914 Y20.6467
G01 X5.7775 Y20.6334
G01 X5.7644 Y20.6196
G01 X5.7431 Y20.5960
G01 X5.7314 Y20.5822
G01 X5.7211 Y20.5690
G01 X5.6995 Y20.5396
G01 X5.6864 Y20.5200
G01 X5.6686 Y20.4905
G01 X5.6601 Y20.4756
G01 X5.6522 Y20.4605
G01 X5.6363 Y20.4269
G01 X5.6291 Y20.4105
G01 X5.6225 Y20.3933
G01 X5.6099 Y20.3578
G01 X5.6031 Y20.3353
G01 X5.5940 Y20.2991
G01 X5.5900 Y20.2808
G01 X5.5867 Y20.2616
G01 X5.5821 Y20.2301
G01 X5.5800 Y20.2121
G01 X5.5788 Y20.1954
G01 X5.5771 Y20.1569
G01 X5.5771 Y19.8050
G01 X5.5789 Y19.7603
G01 X5.5807 Y19.7375
G01 X5.5869 Y19.6928
G01 X5.5917 Y19.6668
G01 X5.6012 Y19.6281
G01 X5.6059 Y19.6108
G01 X5.6117 Y19.5927
G01 X5.6236 Y19.5594
G01 X5.6295 Y19.5446
G01 X5.6367 Y19.5280
G01 X5.6521 Y19.4957
G01 X5.6622 Y19.4765
G01 X5.6823 Y19.4426
G01 X5.6922 Y19.4269
G01 X5.7035 Y19.4108
G01 X5.7251 Y19.3817
G01 X5.7410 Y19.3623
G01 X5.7646 Y19.3361
G01 X5.7781 Y19.3219
G01 X5.7919 Y19.3087
G01 X5.7571 Y19.2717
G01 X5.7332 Y19.2443
G01 X5.7174 Y19.2242
G01 X5.6975 Y19.1966
G01 X5.6850 Y19.1778
G01 X5.6633 Y19.1412
G01 X5.6521 Y19.1204
G01 X5.6353 Y19.0845
G01 X5.6272 Y19.0657
G01 X5.6201 Y19.0470
G01 X5.6064 Y19.0069
G01 X5.6005 Y18.9853
G01 X5.5909 Y18.9452
G01 X5.5873 Y18.9257
G01 X5.5822 Y18.8913
G01 X5.5803 Y18.8750
G01 X5.5790 Y18.8590
G01 X5.5774 Y18.8254
G01 X5.5770 Y18.8087
G01 X5.5770 Y17.8075
G01 X5.5774 Y17.7903
G01 X5.5793 Y17.7536
G01 X5.5819 Y17.7269
G01 X5.5885 Y17.6833
G01 X5.5931 Y17.6605
G01 X5.6015 Y17.6268
G01 X5.6094 Y17.5996
G01 X5.6218 Y17.5644
G01 X5.6292 Y17.5452
G01 X5.6380 Y17.5253
G01 X5.6522 Y17.4954
G01 X5.6623 Y17.4762
G01 X5.6841 Y17.4397
G01 X5.6984 Y17.4178
G01 X5.7230 Y17.3845
G01 X5.7378 Y17.3660
G01 X5.7684 Y17.3320
G01 X5.7869 Y17.3134
G01 X5.7649 Y17.2902
G01 X5.7364 Y17.2582
G01 X5.7228 Y17.2412
G01 X5.6982 Y17.2078
G01 X5.6840 Y17.1861
G01 X5.6623 Y17.1497
G01 X5.6522 Y17.1305
G01 X5.6380 Y17.1007
G01 X5.6293 Y17.0810
G01 X5.6218 Y17.0617
G01 X5.6094 Y17.0263
G01 X5.6016 Y16.9996
G01 X5.5932 Y16.9657
G01 X5.5887 Y16.9440
G01 X5.5820 Y16.8996
G01 X5.5794 Y16.8737
G01 X5.5774 Y16.8358
G01 X5.5770 Y16.8189
G01 X5.5770 Y16.1478
G01 X5.5775 Y16.1272
G01 X5.5800 Y16.0838
G01 X5.5830 Y16.0592
G01 X5.5874 Y16.0300
G01 X5.5907 Y16.0113
G01 X5.5941 Y15.9964
G01 X5.6022 Y15.9639
G01 X5.6102 Y15.9372
G01 X5.6250 Y15.8957
G01 X5.6360 Y15.8696
G01 X5.6501 Y15.8398
G01 X5.6571 Y15.8258
G01 X5.6653 Y15.8111
G01 X5.6779 Y15.7898
G01 X5.6608 Y15.7831
G01 X5.6434 Y15.7754
G01 X5.6115 Y15.7603
G01 X5.5897 Y15.7485
G01 X5.5580 Y15.7297
G01 X5.5420 Y15.7194
G01 X5.5264 Y15.7085
G01 X5.4952 Y15.6850
G01 X5.4760 Y15.6690
G01 X5.4431 Y15.6389
G01 X5.2828 Y15.4786
G01 X5.3504 Y15.6420
G01 X5.3504 Y25.0625
G01 X5.5539 Y25.0625
G01 X5.5450 Y25.0372
G01 X5.5381 Y25.0142
G01 X5.5279 Y24.9735
G01 X5.5226 Y24.9488
G01 X5.5160 Y24.9060
G01 X5.5133 Y24.8845
G01 X5.5115 Y24.8622
G01 X5.5096 Y24.8240
G01 X5.5094 Y24.8080
G01 X5.5094 Y23.8070
G01 X5.5099 Y23.7849
G01 X5.5123 Y23.7412
G01 X5.5154 Y23.7137
G01 X5.5222 Y23.6695
G01 X5.5271 Y23.6456
G01 X5.5353 Y23.6125
G01 X5.5410 Y23.5916
G01 X5.5475 Y23.5713
G01 X5.5608 Y23.5341
G01 X5.5699 Y23.5117
G01 X5.5881 Y23.4726
G01 X5.5978 Y23.4533
G01 X5.6086 Y23.4340
G01 X5.6301 Y23.3984
G01 X5.6450 Y23.3761
G01 X5.6691 Y23.3436
G01 X5.6837 Y23.3252
G01 X5.6988 Y23.3080
G01 X5.6864 Y23.2939
G01 X5.6743 Y23.2791
G01 X5.6430 Y23.2369
G01 X5.6262 Y23.2112
G01 X5.6088 Y23.1823
G01 X5.6008 Y23.1682
G01 X5.5876 Y23.1423
G01 X5.5741 Y23.1136
G01 X5.5658 Y23.0945
G01 X5.5592 Y23.0774
G01 X5.5476 Y23.0449
G01 X5.5425 Y23.0291
G01 X5.5381 Y23.0140
G01 X5.5264 Y22.9670
G01 X5.5228 Y22.9495
G01 X5.5199 Y22.9328
G01 X5.5151 Y22.8998
G01 X5.5130 Y22.8820
G01 X5.5115 Y22.8625
G01 X5.5099 Y22.8302
G01 X5.5094 Y22.8116
G01 X5.5096 Y22.7946
G01 X5.5121 Y22.7437
G01 X5.5155 Y22.7134
G01 X5.5201 Y22.6822
G01 X5.5230 Y22.6652
G01 X5.5291 Y22.6373
G01 X5.5370 Y22.6058
G01 X5.5422 Y22.5877
G01 X5.5478 Y22.5704
G01 X5.5589 Y22.5395
G01 X5.5698 Y22.5120
G01 X5.5901 Y22.4685
G01 X5.6033 Y22.4431
G01 X5.6293 Y22.3995
G01 X5.6389 Y22.3850
G01 X5.6499 Y22.3694
G01 X5.6695 Y22.3430
G01 X5.6811 Y22.3284
G01 X5.6929 Y22.3146
G01 X5.7144 Y22.2908
G01 X5.7259 Y22.2785
G01 X5.7381 Y22.2664
G01 X5.7719 Y22.2356
G01 X5.7845 Y22.2248
G01 X5.7981 Y22.2140
G01 X5.8394 Y22.1836
G01 X5.8632 Y22.1682
G01 X5.8907 Y22.1517
G01 X5.9062 Y22.1430
G01 X5.8905 Y22.1340
G01 X5.8603 Y22.1159
G01 X5.8449 Y22.1060
G01 X5.8305 Y22.0960
G01 X5.8017 Y22.0747
G01 X5.7873 Y22.0634
G01 X5.7722 Y22.0506
G01 X5.7476 Y22.0284
G01 X5.7339 Y22.0154
G01 X5.7214 Y22.0027
G01 X5.6861 Y21.9635
G01 X5.6664 Y21.9388
G01 X5.6463 Y21.9115
G01 X5.6352 Y21.8954
G01 X5.6255 Y21.8802
G01 X5.6074 Y21.8499
G01 X5.5984 Y21.8337
G01 X5.5901 Y21.8175
G01 X5.5747 Y21.7851
G01 X5.5670 Y21.7673
G01 X5.5603 Y21.7502
G01 X5.5489 Y21.7185
G01 X5.5432 Y21.7016
G01 X5.5378 Y21.6830
G01 X5.5288 Y21.6473
G01 X5.5249 Y21.6301
G01 X5.5207 Y21.6076
G01 X5.5160 Y21.5765
G01 X5.5124 Y21.5458
G01 X5.5100 Y21.5028
G01 X5.5094 Y21.4835
G01 X5.5097 Y21.4609
G01 X5.5113 Y21.4260
G01 X5.5128 Y21.4067
G01 X5.5149 Y21.3874
G01 X5.5204 Y21.3502
G01 X5.5243 Y21.3285
G01 X5.5291 Y21.3073
G01 X5.5402 Y21.2642
G01 X5.5468 Y21.2433
G01 X5.5581 Y21.2115
G01 X5.5652 Y21.1930
G01 X5.5729 Y21.1748
G01 X5.5894 Y21.1398
G01 X5.5987 Y21.1216
G01 X5.6086 Y21.1040
G01 X5.6283 Y21.0712
G01 X5.6389 Y21.0549
G01 X5.6509 Y21.0380
G01 X5.6710 Y21.0111
G01 X5.6851 Y20.9936
G01 X5.7144 Y20.9608
G01 X5.7297 Y20.9446
G01 X5.7454 Y20.9296
G01 X5.7730 Y20.9046
G01 X5.7884 Y20.8916
G01 X5.8043 Y20.8793
G01 X5.8314 Y20.8592
G01 X5.8496 Y20.8468
G01 X5.8876 Y20.8236
G01 X5.9062 Y20.8130
G01 X5.8905 Y20.8040
G01 X5.8603 Y20.7859
G01 X5.8449 Y20.7760
G01 X5.8305 Y20.7660
G01 X5.8017 Y20.7447
G01 X5.7875 Y20.7336
G01 X5.7722 Y20.7206
G01 X5.7483 Y20.6990
G01 X5.7341 Y20.6857
G01 X5.7218 Y20.6731
G01 X5.6865 Y20.6341
G01 X5.6672 Y20.6099
G01 X5.6481 Y20.5840
G01 X5.6367 Y20.5677
G01 X5.6262 Y20.5512
G01 X5.6089 Y20.5225
G01 X5.5942 Y20.4957
G01 X5.5720 Y20.4490
G01 X5.5648 Y20.4321
G01 X5.5582 Y20.4146
G01 X5.5475 Y20.3847
G01 X5.5416 Y20.3663
G01 X5.5368 Y20.3491
G01 X5.5279 Y20.3135
G01 X5.5239 Y20.2952
G01 X5.5207 Y20.2776
G01 X5.5156 Y20.2435
G01 X5.5134 Y20.2258
G01 X5.5113 Y20.2000
G01 X5.5094 Y20.1535
G01 X5.5095 Y19.7982
G01 X5.5114 Y19.7553
G01 X5.5134 Y19.7304
G01 X5.5155 Y19.7134
G01 X5.5198 Y19.6840
G01 X5.5243 Y19.6588
G01 X5.5283 Y19.6407
G01 X5.5374 Y19.6043
G01 X5.5423 Y19.5872
G01 X5.5480 Y19.5699
G01 X5.5601 Y19.5360
G01 X5.5670 Y19.5185
G01 X5.5750 Y19.5003
G01 X5.5917 Y19.4651
G01 X5.6001 Y19.4491
G01 X5.6087 Y19.4337
G01 X5.6276 Y19.4023
G01 X5.6389 Y19.3850
G01 X5.6499 Y19.3694
G01 X5.6723 Y19.3394
G01 X5.6849 Y19.3238
G01 X5.6988 Y19.3079
G01 X5.6812 Y19.2877
G01 X5.6675 Y19.2705
G01 X5.6430 Y19.2368
G01 X5.6286 Y19.2153
G01 X5.6067 Y19.1785
G01 X5.5969 Y19.1609
G01 X5.5867 Y19.1406
G01 X5.5709 Y19.1064
G01 X5.5634 Y19.0884
G01 X5.5562 Y19.0693
G01 X5.5445 Y19.0354
G01 X5.5368 Y19.0094
G01 X5.5274 Y18.9716
G01 X5.5233 Y18.9524
G01 X5.5197 Y18.9315
G01 X5.5142 Y18.8930
G01 X5.5125 Y18.8762
G01 X5.5113 Y18.8605
G01 X5.5098 Y18.8274
G01 X5.5094 Y18.8089
G01 X5.5094 Y17.8074
G01 X5.5098 Y17.7886
G01 X5.5115 Y17.7528
G01 X5.5133 Y17.7315
G01 X5.5160 Y17.7094
G01 X5.5221 Y17.6703
G01 X5.5278 Y17.6425
G01 X5.5372 Y17.6052
G01 X5.5437 Y17.5830
G01 X5.5584 Y17.5408
G01 X5.5669 Y17.5188
G01 X5.5763 Y17.4975
G01 X5.5962 Y17.4564
G01 X5.6076 Y17.4357
G01 X5.6276 Y17.4023
G01 X5.6431 Y17.3789
G01 X5.6663 Y17.3473
G01 X5.6806 Y17.3290
G01 X5.6943 Y17.3130
G01 X5.6806 Y17.2969
G01 X5.6664 Y17.2788
G01 X5.6441 Y17.2485
G01 X5.6279 Y17.2240
G01 X5.6078 Y17.1906
G01 X5.5965 Y17.1701
G01 X5.5767 Y17.1293
G01 X5.5679 Y17.1094
G01 X5.5590 Y17.0868
G01 X5.5443 Y17.0450
G01 X5.5376 Y17.0223
G01 X5.5287 Y16.9870
G01 X5.5239 Y16.9652
G01 X5.5201 Y16.9437
G01 X5.5146 Y16.9058
G01 X5.5120 Y16.8803
G01 X5.5098 Y16.8387
G01 X5.5094 Y16.8180
G01 X5.5094 Y16.1467
G01 X5.5098 Y16.1275
G01 X5.5118 Y16.0890
G01 X5.5148 Y16.0579
G01 X5.5222 Y16.0097
G01 X5.5275 Y15.9840
G01 X5.5376 Y15.9437
G01 X5.5463 Y15.9148
G01 X5.5611 Y15.8734
G01 X5.5709 Y15.8493
G01 X5.5836 Y15.8220
G01 X5.5559 Y15.8072
G01 X5.5142 Y15.7821
G01 X5.4920 Y15.7671
G01 X5.4578 Y15.7417
G01 X5.4352 Y15.7232
G01 X5.4040 Y15.6951
G01 X5.3921 Y15.6836
G01 X5.3504 Y15.6420
G01 X5.4181 Y15.7965
G01 X5.4181 Y24.9948
G01 X5.4634 Y24.9948
G01 X5.4591 Y24.9762
G01 X5.4552 Y24.9559
G01 X5.4471 Y24.9015
G01 X5.4453 Y24.8845
G01 X5.4440 Y24.8674
G01 X5.4418 Y24.8158
G01 X5.4417 Y23.8055
G01 X5.4421 Y23.7860
G01 X5.4438 Y23.7517
G01 X5.4450 Y23.7344
G01 X5.4467 Y23.7179
G01 X5.4528 Y23.6746
G01 X5.4564 Y23.6531
G01 X5.4614 Y23.6295
G01 X5.4698 Y23.5954
G01 X5.4755 Y23.5747
G01 X5.4818 Y23.5545
G01 X5.4949 Y23.5173
G01 X5.5021 Y23.4985
G01 X5.5121 Y23.4751
G01 X5.5282 Y23.4410
G01 X5.5376 Y23.4224
G01 X5.5473 Y23.4047
G01 X5.5672 Y23.3714
G01 X5.5787 Y23.3532
G01 X5.5912 Y23.3351
G01 X5.6112 Y23.3080
G01 X5.5881 Y23.2764
G01 X5.5722 Y23.2525
G01 X5.5476 Y23.2116
G01 X5.5319 Y23.1824
G01 X5.5122 Y23.1411
G01 X5.5006 Y23.1136
G01 X5.4829 Y23.0648
G01 X5.4776 Y23.0485
G01 X5.4729 Y23.0321
G01 X5.4618 Y22.9881
G01 X5.4559 Y22.9602
G01 X5.4480 Y22.9087
G01 X5.4447 Y22.8776
G01 X5.4421 Y22.8293
G01 X5.4418 Y22.7980
G01 X5.4442 Y22.7454
G01 X5.4456 Y22.7283
G01 X5.4474 Y22.7117
G01 X5.4539 Y22.6678
G01 X5.4596 Y22.6374
G01 X5.4718 Y22.5878
G01 X5.4811 Y22.5564
G01 X5.4976 Y22.5101
G01 X5.5097 Y22.4804
G01 X5.5318 Y22.4337
G01 X5.5406 Y22.4168
G01 X5.5499 Y22.4002
G01 X5.5721 Y22.3634
G01 X5.5898 Y22.3371
G01 X5.6208 Y22.2954
G01 X5.6326 Y22.2809
G01 X5.6448 Y22.2668
G01 X5.6759 Y22.2328
G01 X5.6891 Y22.2197
G01 X5.7018 Y22.2077
G01 X5.7262 Y22.1857
G01 X5.7407 Y22.1733
G01 X5.7572 Y22.1600
G01 X5.7801 Y22.1430
G01 X5.7572 Y22.1258
G01 X5.7405 Y22.1125
G01 X5.7259 Y22.1000
G01 X5.7003 Y22.0768
G01 X5.6863 Y22.0635
G01 X5.6738 Y22.0508
G01 X5.6413 Y22.0152
G01 X5.6296 Y22.0014
G01 X5.6178 Y21.9867
G01 X5.5861 Y21.9435
G01 X5.5685 Y21.9167
G01 X5.5428 Y21.8732
G01 X5.5274 Y21.8432
G01 X5.5128 Y21.8123
G01 X5.5044 Y21.7931
G01 X5.4969 Y21.7739
G01 X5.4855 Y21.7422
G01 X5.4756 Y21.7116
G01 X5.4707 Y21.6937
G01 X5.4624 Y21.6606
G01 X5.4556 Y21.6285
G01 X5.4474 Y21.5738
G01 X5.4453 Y21.5542
G01 X5.4438 Y21.5344
G01 X5.4421 Y21.4993
G01 X5.4417 Y21.4773
G01 X5.4421 Y21.4566
G01 X5.4438 Y21.4214
G01 X5.4452 Y21.4019
G01 X5.4473 Y21.3823
G01 X5.4556 Y21.3273
G01 X5.4593 Y21.3088
G01 X5.4634 Y21.2910
G01 X5.4723 Y21.2561
G01 X5.4790 Y21.2329
G01 X5.4851 Y21.2146
G01 X5.4985 Y21.1777
G01 X5.5060 Y21.1591
G01 X5.5146 Y21.1397
G01 X5.5294 Y21.1085
G01 X5.5391 Y21.0896
G01 X5.5496 Y21.0709
G01 X5.5688 Y21.0388
G01 X5.5796 Y21.0219
G01 X5.5909 Y21.0055
G01 X5.6134 Y20.9751
G01 X5.6264 Y20.9583
G01 X5.6415 Y20.9405
G01 X5.6661 Y20.9133
G01 X5.6797 Y20.8990
G01 X5.6944 Y20.8846
G01 X5.7234 Y20.8582
G01 X5.7384 Y20.8451
G01 X5.7565 Y20.8306
G01 X5.7801 Y20.8130
G01 X5.7572 Y20.7958
G01 X5.7405 Y20.7825
G01 X5.7259 Y20.7700
G01 X5.7006 Y20.7471
G01 X5.6867 Y20.7339
G01 X5.6742 Y20.7213
G01 X5.6419 Y20.6858
G01 X5.6298 Y20.6717
G01 X5.6181 Y20.6570
G01 X5.5869 Y20.6148
G01 X5.5690 Y20.5874
G01 X5.5442 Y20.5456
G01 X5.5362 Y20.5309
G01 X5.5285 Y20.5155
G01 X5.5133 Y20.4834
G01 X5.5055 Y20.4657
G01 X5.4944 Y20.4371
G01 X5.4833 Y20.4061
G01 X5.4768 Y20.3858
G01 X5.4714 Y20.3667
G01 X5.4632 Y20.3338
G01 X5.4563 Y20.3024
G01 X5.4531 Y20.2835
G01 X5.4479 Y20.2481
G01 X5.4459 Y20.2309
G01 X5.4444 Y20.2136
G01 X5.4423 Y20.1731
G01 X5.4417 Y20.1510
G01 X5.4418 Y19.7963
G01 X5.4438 Y19.7517
G01 X5.4458 Y19.7265
G01 X5.4489 Y19.7011
G01 X5.4560 Y19.6552
G01 X5.4594 Y19.6384
G01 X5.4632 Y19.6219
G01 X5.4718 Y19.5880
G01 X5.4778 Y19.5668
G01 X5.4841 Y19.5477
G01 X5.4968 Y19.5122
G01 X5.5035 Y19.4951
G01 X5.5107 Y19.4783
G01 X5.5327 Y19.4319
G01 X5.5414 Y19.4153
G01 X5.5506 Y19.3991
G01 X5.5684 Y19.3694
G01 X5.5797 Y19.3518
G01 X5.5915 Y19.3347
G01 X5.6111 Y19.3080
G01 X5.5891 Y19.2777
G01 X5.5762 Y19.2588
G01 X5.5645 Y19.2403
G01 X5.5452 Y19.2073
G01 X5.5348 Y19.1883
G01 X5.5256 Y19.1698
G01 X5.5103 Y19.1367
G01 X5.5008 Y19.1141
G01 X5.4932 Y19.0941
G01 X5.4806 Y19.0578
G01 X5.4743 Y19.0372
G01 X5.4687 Y19.0163
G01 X5.4605 Y18.9826
G01 X5.4556 Y18.9584
G01 X5.4488 Y18.9145
G01 X5.4462 Y18.8936
G01 X5.4437 Y18.8623
G01 X5.4421 Y18.8288
G01 X5.4417 Y18.8087
G01 X5.4417 Y17.8073
G01 X5.4421 Y17.7866
G01 X5.4438 Y17.7517
G01 X5.4457 Y17.7274
G01 X5.4486 Y17.7032
G01 X5.4548 Y17.6622
G01 X5.4602 Y17.6347
G01 X5.4705 Y17.5929
G01 X5.4768 Y17.5704
G01 X5.4838 Y17.5486
G01 X5.4971 Y17.5115
G01 X5.5051 Y17.4913
G01 X5.5139 Y17.4713
G01 X5.5308 Y17.4357
G01 X5.5434 Y17.4117
G01 X5.5656 Y17.3740
G01 X5.5765 Y17.3566
G01 X5.5898 Y17.3371
G01 X5.6075 Y17.3130
G01 X5.5905 Y17.2899
G01 X5.5779 Y17.2715
G01 X5.5668 Y17.2539
G01 X5.5465 Y17.2197
G01 X5.5367 Y17.2018
G01 X5.5279 Y17.1844
G01 X5.5120 Y17.1505
G01 X5.5021 Y17.1273
G01 X5.4950 Y17.1088
G01 X5.4822 Y17.0727
G01 X5.4760 Y17.0530
G01 X5.4703 Y17.0325
G01 X5.4617 Y16.9978
G01 X5.4570 Y16.9760
G01 X5.4532 Y16.9538
G01 X5.4473 Y16.9135
G01 X5.4453 Y16.8951
G01 X5.4439 Y16.8766
G01 X5.4422 Y16.8407
G01 X5.4417 Y16.8210
G01 X5.4417 Y16.1478
G01 X5.4424 Y16.1209
G01 X5.4443 Y16.0835
G01 X5.4467 Y16.0575
G01 X5.4532 Y16.0120
G01 X5.4580 Y15.9849
G01 X5.4635 Y15.9605
G01 X5.4707 Y15.9319
G01 X5.4756 Y15.9143
G01 X5.4834 Y15.8898
G01 X5.4972 Y15.8510
G01 X5.4782 Y15.8394
G01 X5.4611 Y15.8281
G01 X5.4464 Y15.8176
G01 X5.4181 Y15.7965
G00 Z0.5000
G00 X6.2453 Y15.0083
G01 F250.00
G01 Z-0.0400
G01 F2500.00
G01 X6.2454 Y14.4762
G01 X6.2470 Y14.4435
G01 X6.2525 Y14.4076
G01 X6.2609 Y14.3749
G01 X6.2703 Y14.3483
G01 X6.2739 Y14.3397
G01 X6.2849 Y14.3165
G01 X6.2890 Y14.3089
G01 X6.3042 Y14.2838
G01 X6.3217 Y14.2600
G01 X6.3270 Y14.2535
G01 X6.3469 Y14.2316
G01 X6.3738 Y14.2072
G01 X6.4008 Y14.1872
G01 X6.4259 Y14.1720
G01 X6.4342 Y14.1676
G01 X6.0698 Y14.1676
G01 X5.9446 Y14.2928
G01 X5.9446 Y14.6731
G01 X6.1722 Y14.9007
G01 X6.1920 Y14.9225
G01 X6.1982 Y14.9300
G01 X6.2171 Y14.9559
G01 X6.2328 Y14.9822
G01 X6.2453 Y15.0083
G01 X6.1777 Y14.8105
G01 X6.1777 Y14.4756
G01 X6.1796 Y14.4382
G01 X6.1844 Y14.4038
G01 X6.1874 Y14.3890
G01 X6.1939 Y14.3628
G01 X6.1967 Y14.3534
G01 X6.2091 Y14.3192
G01 X6.2247 Y14.2856
G01 X6.2294 Y14.2768
G01 X6.2452 Y14.2505
G01 X6.2558 Y14.2352
G01 X6.0978 Y14.2352
G01 X6.0122 Y14.3208
G01 X6.0122 Y14.6451
G01 X6.1777 Y14.8105
G01 X6.1100 Y14.6472
G01 X6.1100 Y14.4750
G01 X6.1123 Y14.4308
G01 X6.1176 Y14.3930
G01 X6.1212 Y14.3747
G01 X6.1309 Y14.3372
G01 X6.1429 Y14.3029
G01 X6.1258 Y14.3029
G01 X6.0799 Y14.3488
G01 X6.0799 Y14.6171
G01 X6.1100 Y14.6472
G00 Z0.5000
G00 X6.7557 Y14.1676
G01 F250.00
G01 Z-0.0400
G01 F2500.00
G01 X6.7640 Y14.1720
G01 X6.7891 Y14.1872
G01 X6.8161 Y14.2072
G01 X6.8422 Y14.2307
G01 X6.8658 Y14.2568
G01 X6.8857 Y14.2838
G01 X6.9036 Y14.3137
G01 X6.9184 Y14.3452
G01 X6.9296 Y14.3768
G01 X6.9371 Y14.4063
G01 X6.9387 Y14.4146
G01 X6.9429 Y14.4435
G01 X6.9445 Y14.4743
G01 X6.9446 Y14.7983
G01 X7.1201 Y14.7983
G01 X7.2453 Y14.6731
G01 X7.2453 Y14.2928
G01 X7.1201 Y14.1676
G01 X6.7557 Y14.1676
G01 X6.9341 Y14.2352
G01 X6.9442 Y14.2497
G01 X6.9589 Y14.2741
G01 X6.9657 Y14.2866
G01 X6.9793 Y14.3154
G01 X6.9832 Y14.3254
G01 X6.9934 Y14.3540
G01 X6.9962 Y14.3636
G01 X7.0039 Y14.3950
G01 X7.0100 Y14.4345
G01 X7.0108 Y14.4449
G01 X7.0122 Y14.4773
G01 X7.0122 Y14.7307
G01 X7.0921 Y14.7307
G01 X7.1777 Y14.6451
G01 X7.1777 Y14.3208
G01 X7.0921 Y14.2352
G01 X6.9341 Y14.2352
G01 X7.0471 Y14.3029
G01 X7.0557 Y14.3271
G01 X7.0613 Y14.3453
G01 X7.0702 Y14.3815
G01 X7.0723 Y14.3930
G01 X7.0763 Y14.4197
G01 X7.0780 Y14.4356
G01 X7.0799 Y14.4767
G01 X7.0799 Y14.6472
G01 X7.1100 Y14.6171
G01 X7.1100 Y14.3488
G01 X7.0641 Y14.3029
G01 X7.0471 Y14.3029
G00 Z0.5000
G00 X7.5749 Y13.3604
G01 F250.00
G01 Z-0.0400
G01 F2500.00
G01 X7.6042 Y13.3819
G01 X7.6156 Y13.3909
G01 X7.6268 Y13.4005
G01 X7.6550 Y13.4265
G01 X7.9887 Y13.7602
G01 X8.0193 Y13.7940
G01 X8.0275 Y13.8042
G01 X8.0425 Y13.8242
G01 X8.0425 Y13.3604
G01 X7.5749 Y13.3604
G01 X7.7523 Y13.4281
G01 X7.9748 Y13.6506
G01 X7.9748 Y13.4281
G01 X7.7523 Y13.4281
G00 Z0.5000
G00 X8.1367 Y14.9272
G01 F250.00
G01 Z-0.0400
G01 F2500.00
G01 X8.1273 Y14.9658
G01 X8.1226 Y14.9821
G01 X8.1096 Y15.0190
G01 X8.1007 Y15.0405
G01 X8.0825 Y15.0780
G01 X8.0761 Y15.0895
G01 X8.0624 Y15.1124
G01 X8.0504 Y15.1308
G01 X8.0294 Y15.1593
G01 X8.0155 Y15.1764
G01 X7.9876 Y15.2067
G01 X7.7115 Y15.4830
G01 X7.9871 Y15.7586
G01 X8.0158 Y15.7899
G01 X8.0308 Y15.8085
G01 X8.0546 Y15.8412
G01 X8.0756 Y15.8755
G01 X8.0862 Y15.8950
G01 X8.1025 Y15.9295
G01 X8.1104 Y15.9490
G01 X8.1203 Y15.9768
G01 X8.1243 Y15.9893
G01 X8.1348 Y16.0303
G01 X8.1393 Y16.0536
G01 X8.1434 Y16.0814
G01 X8.1451 Y16.0961
G01 X8.1475 Y16.1442
G01 X8.1476 Y16.8192
G01 X8.1459 Y16.8584
G01 X8.1445 Y16.8758
G01 X8.1390 Y16.9143
G01 X8.1346 Y16.9367
G01 X8.1259 Y16.9711
G01 X8.1192 Y16.9923
G01 X8.1056 Y17.0292
G01 X8.1008 Y17.0401
G01 X8.0886 Y17.0661
G01 X8.0777 Y17.0868
G01 X8.0577 Y17.1199
G01 X8.0474 Y17.1350
G01 X8.0260 Y17.1637
G01 X8.0143 Y17.1777
G01 X7.9864 Y17.2080
G01 X7.9766 Y17.2174
G01 X7.9565 Y17.2357
G01 X7.9430 Y17.2472
G01 X7.9125 Y17.2701
G01 X7.8968 Y17.2808
G01 X7.8609 Y17.3023
G01 X7.8401 Y17.3130
G01 X7.8544 Y17.3201
G01 X7.8678 Y17.3275
G01 X7.8953 Y17.3442
G01 X7.9136 Y17.3566
G01 X7.9378 Y17.3747
G01 X7.9510 Y17.3854
G01 X7.9795 Y17.4112
G01 X7.9945 Y17.4263
G01 X8.0154 Y17.4494
G01 X8.0252 Y17.4611
G01 X8.0473 Y17.4907
G01 X8.0577 Y17.5060
G01 X8.0764 Y17.5369
G01 X8.0840 Y17.5508
G01 X8.1010 Y17.5861
G01 X8.1084 Y17.6037
G01 X8.1197 Y17.6350
G01 X8.1244 Y17.6496
G01 X8.1339 Y17.6866
G01 X8.1374 Y17.7027
G01 X8.1431 Y17.7392
G01 X8.1449 Y17.7542
G01 X8.1460 Y17.7686
G01 X8.1476 Y17.8073
G01 X8.1472 Y17.8227
G01 X8.1450 Y17.8615
G01 X8.1432 Y17.8763
G01 X8.1375 Y17.9131
G01 X8.1340 Y17.9292
G01 X8.1244 Y17.9663
G01 X8.1197 Y17.9809
G01 X8.1084 Y18.0122
G01 X8.1006 Y18.0306
G01 X8.0824 Y18.0683
G01 X8.0764 Y18.0790
G01 X8.0612 Y18.1044
G01 X8.0496 Y18.1220
G01 X8.0274 Y18.1519
G01 X8.0131 Y18.1690
G01 X7.9860 Y18.1985
G01 X7.9567 Y18.2255
G01 X7.9385 Y18.2407
G01 X7.9067 Y18.2642
G01 X7.8911 Y18.2743
G01 X7.8572 Y18.2944
G01 X7.8455 Y18.3004
G01 X7.8200 Y18.3125
G01 X7.8043 Y18.3193
G01 X7.7671 Y18.3329
G01 X7.7467 Y18.3393
G01 X7.7159 Y18.3470
G01 X7.7033 Y18.3498
G01 X7.6909 Y18.3521
G01 X7.6637 Y18.3561
G01 X7.6409 Y18.3586
G01 X7.6016 Y18.3605
G01 X6.8176 Y18.3606
G01 X6.8176 Y18.5839
G01 X6.8287 Y18.5953
G01 X7.6032 Y18.5955
G01 X7.6357 Y18.5970
G01 X7.6483 Y18.5979
G01 X7.6617 Y18.5995
G01 X7.6897 Y18.6037
G01 X7.7138 Y18.6084
G01 X7.7431 Y18.6157
G01 X7.7566 Y18.6195
G01 X7.7954 Y18.6331
G01 X7.8173 Y18.6422
G01 X7.8550 Y18.6604
G01 X7.8665 Y18.6668
G01 X7.8906 Y18.6812
G01 X7.9095 Y18.6937
G01 X7.9433 Y18.7190
G01 X7.9537 Y18.7277
G01 X7.9750 Y18.7470
G01 X7.9881 Y18.7596
G01 X8.0158 Y18.7899
G01 X8.0304 Y18.8079
G01 X8.0473 Y18.8307
G01 X8.0548 Y18.8414
G01 X8.0769 Y18.8777
G01 X8.0874 Y18.8974
G01 X8.1007 Y18.9254
G01 X8.1057 Y18.9370
G01 X8.1204 Y18.9772
G01 X8.1267 Y18.9980
G01 X8.1355 Y19.0331
G01 X8.1395 Y19.0548
G01 X8.1449 Y19.0942
G01 X8.1473 Y19.1344
G01 X8.1474 Y19.1565
G01 X8.1454 Y19.1964
G01 X8.1434 Y19.2147
G01 X8.1377 Y19.2517
G01 X8.1338 Y19.2697
G01 X8.1268 Y19.2978
G01 X8.1236 Y19.3090
G01 X8.1102 Y19.3474
G01 X8.1025 Y19.3664
G01 X8.0866 Y19.4001
G01 X8.0769 Y19.4182
G01 X8.0561 Y19.4525
G01 X8.0491 Y19.4627
G01 X8.0378 Y19.4780
G01 X8.0491 Y19.4932
G01 X8.0565 Y19.5041
G01 X8.0796 Y19.5425
G01 X8.0871 Y19.5567
G01 X8.0997 Y19.5833
G01 X8.1085 Y19.6040
G01 X8.1195 Y19.6346
G01 X8.1236 Y19.6469
G01 X8.1273 Y19.6600
G01 X8.1346 Y19.6892
G01 X8.1372 Y19.7013
G01 X8.1394 Y19.7139
G01 X8.1438 Y19.7444
G01 X8.1455 Y19.7604
G01 X8.1473 Y19.7941
G01 X8.1476 Y19.8075
G01 X8.1475 Y20.4847
G01 X8.1456 Y20.5237
G01 X8.1432 Y20.5463
G01 X8.1369 Y20.5858
G01 X8.1343 Y20.5976
G01 X8.1266 Y20.6283
G01 X8.1211 Y20.6468
G01 X8.1108 Y20.6757
G01 X8.1061 Y20.6880
G01 X8.1008 Y20.7001
G01 X8.0877 Y20.7278
G01 X8.0811 Y20.7408
G01 X8.0620 Y20.7730
G01 X8.0543 Y20.7852
G01 X8.0460 Y20.7969
G01 X8.0236 Y20.8267
G01 X8.0146 Y20.8374
G01 X7.9926 Y20.8616
G01 X7.9795 Y20.8747
G01 X7.9560 Y20.8961
G01 X7.9461 Y20.9046
G01 X7.9345 Y20.9137
G01 X7.9107 Y20.9314
G01 X7.8997 Y20.9389
G01 X7.8678 Y20.9584
G01 X7.8544 Y20.9658
G01 X7.8199 Y20.9825
G01 X7.8066 Y20.9884
G01 X7.7937 Y20.9934
G01 X7.7641 Y21.0040
G01 X7.7467 Y21.0093
G01 X7.7159 Y21.0170
G01 X7.7024 Y21.0200
G01 X7.6885 Y21.0224
G01 X7.6587 Y21.0268
G01 X7.6435 Y21.0284
G01 X7.6073 Y21.0303
G01 X7.5888 Y21.0305
G01 X7.6078 Y21.0447
G01 X7.6188 Y21.0535
G01 X7.6451 Y21.0771
G01 X7.6544 Y21.0859
G01 X7.9867 Y21.4181
G01 X8.0124 Y21.4461
G01 X8.0213 Y21.4564
G01 X8.0292 Y21.4664
G01 X8.0460 Y21.4890
G01 X8.0561 Y21.5034
G01 X8.0769 Y21.5377
G01 X8.0877 Y21.5581
G01 X8.1007 Y21.5854
G01 X8.1056 Y21.5967
G01 X8.1192 Y21.6336
G01 X8.1260 Y21.6553
G01 X8.1348 Y21.6903
G01 X8.1390 Y21.7116
G01 X8.1445 Y21.7497
G01 X8.1459 Y21.7669
G01 X8.1475 Y21.8044
G01 X8.1476 Y22.8081
G01 X8.1473 Y22.8214
G01 X8.1456 Y22.8537
G01 X8.1439 Y22.8707
G01 X8.1395 Y22.9011
G01 X8.1375 Y22.9131
G01 X8.1348 Y22.9259
G01 X8.1273 Y22.9558
G01 X8.1236 Y22.9690
G01 X8.1195 Y22.9813
G01 X8.1084 Y23.0122
G01 X8.1020 Y23.0276
G01 X8.0890 Y23.0553
G01 X8.0782 Y23.0760
G01 X8.0555 Y23.1133
G01 X8.0489 Y23.1230
G01 X8.0341 Y23.1430
G01 X8.0496 Y23.1639
G01 X8.0590 Y23.1779
G01 X8.0775 Y23.2088
G01 X8.0872 Y23.2269
G01 X8.1014 Y23.2570
G01 X8.1085 Y23.2740
G01 X8.1218 Y23.3114
G01 X8.1256 Y23.3237
G01 X8.1289 Y23.3363
G01 X8.1454 Y23.3206
G01 X8.1547 Y23.3128
G01 X8.1659 Y23.3042
G01 X8.1749 Y23.2978
G01 X8.1871 Y23.2899
G01 X8.2073 Y23.2786
G01 X8.2181 Y23.2734
G01 X8.2311 Y23.2677
G01 X8.2416 Y23.2637
G01 X8.2545 Y23.2593
G01 X8.2673 Y23.2556
G01 X8.2805 Y23.2524
G01 X8.3035 Y23.2483
G01 X8.3218 Y23.2464
G01 X8.3440 Y23.2455
G01 X8.7812 Y23.2455
G01 X8.7621 Y23.2312
G01 X8.7511 Y23.2224
G01 X8.7249 Y23.1989
G01 X8.7149 Y23.1893
G01 X8.3724 Y22.8469
G01 X8.3444 Y22.8164
G01 X8.3309 Y22.8000
G01 X8.3129 Y22.7757
G01 X8.3053 Y22.7648
G01 X8.2831 Y22.7283
G01 X8.2720 Y22.7075
G01 X8.2588 Y22.6795
G01 X8.2527 Y22.6653
G01 X8.2407 Y22.6323
G01 X8.2365 Y22.6197
G01 X8.2327 Y22.6063
G01 X8.2254 Y22.5771
G01 X8.2228 Y22.5647
G01 X8.2206 Y22.5521
G01 X8.2161 Y22.5214
G01 X8.2144 Y22.5050
G01 X8.2127 Y22.4717
G01 X8.2124 Y22.4583
G01 X8.2125 Y21.7896
G01 X8.2141 Y21.7564
G01 X8.2151 Y21.7432
G01 X8.2166 Y21.7302
G01 X8.2212 Y21.7003
G01 X8.2233 Y21.6887
G01 X8.2261 Y21.6761
G01 X8.2340 Y21.6453
G01 X8.2381 Y21.6314
G01 X8.2507 Y21.5960
G01 X8.2562 Y21.5823
G01 X8.2731 Y21.5464
G01 X8.2803 Y21.5324
G01 X8.3007 Y21.4985
G01 X8.3093 Y21.4853
G01 X8.3330 Y21.4536
G01 X8.3423 Y21.4420
G01 X8.3524 Y21.4305
G01 X8.3791 Y21.4024
G01 X8.6567 Y21.1330
G01 X8.3756 Y20.8601
G01 X8.3520 Y20.8349
G01 X8.3430 Y20.8248
G01 X8.3340 Y20.8136
G01 X8.3144 Y20.7878
G01 X8.3015 Y20.7686
G01 X8.2866 Y20.7443
G01 X8.2798 Y20.7326
G01 X8.2612 Y20.6948
G01 X8.2521 Y20.6735
G01 X8.2373 Y20.6322
G01 X8.2339 Y20.6203
G01 X8.2267 Y20.5922
G01 X8.2220 Y20.5703
G01 X8.2161 Y20.5320
G01 X8.2141 Y20.5102
G01 X8.2124 Y20.4688
G01 X8.2125 Y19.7902
G01 X8.2141 Y19.7564
G01 X8.2151 Y19.7432
G01 X8.2166 Y19.7302
G01 X8.2211 Y19.7009
G01 X8.2232 Y19.6889
G01 X8.2260 Y19.6763
G01 X8.2339 Y19.6456
G01 X8.2377 Y19.6325
G01 X8.2506 Y19.5965
G01 X8.2561 Y19.5825
G01 X8.2731 Y19.5464
G01 X8.2801 Y19.5329
G01 X8.3007 Y19.4985
G01 X8.3093 Y19.4853
G01 X8.3178 Y19.4736
G01 X8.3419 Y19.4424
G01 X8.3524 Y19.4305
G01 X8.3794 Y19.4021
G01 X8.6567 Y19.1330
G01 X8.3794 Y18.8639
G01 X8.3523 Y18.8352
G01 X8.3417 Y18.8232
G01 X8.3177 Y18.7922
G01 X8.3083 Y18.7792
G01 X8.2875 Y18.7459
G01 X8.2798 Y18.7326
G01 X8.2623 Y18.6970
G01 X8.2561 Y18.6834
G01 X8.2507 Y18.6697
G01 X8.2378 Y18.6337
G01 X8.2339 Y18.6203
G01 X8.2260 Y18.5896
G01 X8.2232 Y18.5770
G01 X8.2211 Y18.5652
G01 X8.2166 Y18.5357
G01 X8.2151 Y18.5227
G01 X8.2141 Y18.5095
G01 X8.2125 Y18.4763
G01 X8.2124 Y17.7977
G01 X8.2127 Y17.7839
G01 X8.2146 Y17.7486
G01 X8.2164 Y17.7319
G01 X8.2209 Y17.7023
G01 X8.2254 Y17.6790
G01 X8.2333 Y17.6478
G01 X8.2370 Y17.6349
G01 X8.2409 Y17.6229
G01 X8.2505 Y17.5968
G01 X8.2594 Y17.5750
G01 X8.2782 Y17.5364
G01 X8.2858 Y17.5229
G01 X8.3008 Y17.4983
G01 X8.3125 Y17.4808
G01 X8.3335 Y17.4530
G01 X8.3423 Y17.4420
G01 X8.3522 Y17.4308
G01 X8.3754 Y17.4060
G01 X8.6567 Y17.1330
G01 X8.3794 Y16.8639
G01 X8.3524 Y16.8354
G01 X8.3427 Y16.8245
G01 X8.3330 Y16.8123
G01 X8.3090 Y16.7802
G01 X8.3007 Y16.7674
G01 X8.2808 Y16.7344
G01 X8.2735 Y16.7202
G01 X8.2571 Y16.6857
G01 X8.2513 Y16.6713
G01 X8.2389 Y16.6370
G01 X8.2341 Y16.6212
G01 X8.2265 Y16.5913
G01 X8.2215 Y16.5678
G01 X8.2167 Y16.5363
G01 X8.2152 Y16.5235
G01 X8.2141 Y16.5097
G01 X8.2125 Y16.4777
G01 X8.2124 Y15.7977
G01 X8.2124 Y15.7929
G01 X8.2124 Y15.7917
G01 X8.2125 Y15.7905
G01 X8.2125 Y15.7902
G01 X8.2127 Y15.7832
G01 X8.2149 Y15.7454
G01 X8.2165 Y15.7313
G01 X8.2207 Y15.7030
G01 X8.2231 Y15.6897
G01 X8.2259 Y15.6768
G01 X8.2336 Y15.6467
G01 X8.2381 Y15.6314
G01 X8.2505 Y15.5965
G01 X8.2553 Y15.5844
G01 X8.2613 Y15.5708
G01 X8.2757 Y15.5413
G01 X8.2846 Y15.5249
G01 X8.3009 Y15.4983
G01 X8.3082 Y15.4870
G01 X8.3161 Y15.4758
G01 X8.3345 Y15.4517
G01 X8.3447 Y15.4392
G01 X8.3698 Y15.4119
G01 X8.3801 Y15.4014
G01 X8.7236 Y15.0681
G01 X8.7593 Y15.0368
G01 X8.7704 Y15.0282
G01 X8.7952 Y15.0104
G01 X8.3437 Y15.0104
G01 X8.3257 Y15.0098
G01 X8.3054 Y15.0078
G01 X8.2830 Y15.0040
G01 X8.2593 Y14.9980
G01 X8.2386 Y14.9911
G01 X8.2273 Y14.9866
G01 X8.2144 Y14.9808
G01 X8.1933 Y14.9696
G01 X8.1742 Y14.9576
G01 X8.1547 Y14.9431
G01 X8.1367 Y14.9272
G01 X8.0552 Y15.5397
G01 X8.0636 Y15.5172
G01 X8.0718 Y15.4972
G01 X8.0791 Y15.4813
G01 X8.0960 Y15.4468
G01 X8.1041 Y15.4317
G01 X8.1128 Y15.4167
G01 X8.1310 Y15.3871
G01 X8.1439 Y15.3676
G01 X8.1548 Y15.3526
G01 X8.1766 Y15.3240
G01 X8.1875 Y15.3107
G01 X8.1988 Y15.2978
G01 X8.2315 Y15.2629
G01 X8.2859 Y15.2099
G01 X8.2657 Y15.2071
G01 X8.2445 Y15.2033
G01 X8.2292 Y15.2286
G01 X8.2140 Y15.2511
G01 X8.1871 Y15.2871
G01 X8.1679 Y15.3104
G01 X8.1443 Y15.3365
G01 X8.1325 Y15.3489
G01 X8.1293 Y15.3521
G01 X7.9985 Y15.4830
G01 X8.0552 Y15.5397
G01 X8.0892 Y15.6695
G01 X8.0946 Y15.6440
G01 X8.1066 Y15.5986
G01 X8.1142 Y15.5755
G01 X8.1248 Y15.5465
G01 X8.1304 Y15.5324
G01 X8.1403 Y15.5103
G01 X8.1532 Y15.4837
G01 X8.1612 Y15.4682
G01 X8.1698 Y15.4532
G01 X8.1854 Y15.4277
G01 X8.1979 Y15.4084
G01 X8.2100 Y15.3918
G01 X8.2274 Y15.3689
G01 X8.2370 Y15.3570
G01 X8.2503 Y15.3417
G01 X8.2744 Y15.3158
G01 X8.2857 Y15.3045
G01 X8.4492 Y15.1458
G01 X8.3392 Y15.1457
G01 X8.3234 Y15.1452
G01 X8.3056 Y15.1440
G01 X8.2822 Y15.1412
G01 X8.2566 Y15.1367
G01 X8.2343 Y15.1315
G01 X8.2106 Y15.1246
G01 X8.2034 Y15.1389
G01 X8.1953 Y15.1538
G01 X8.1773 Y15.1839
G01 X8.1688 Y15.1973
G01 X8.1581 Y15.2129
G01 X8.1391 Y15.2386
G01 X8.1300 Y15.2503
G01 X8.1202 Y15.2621
G01 X8.0954 Y15.2897
G01 X8.0894 Y15.2961
G01 X8.0880 Y15.2977
G01 X8.0876 Y15.2981
G01 X8.0867 Y15.2990
G01 X8.0864 Y15.2993
G01 X8.0839 Y15.3018
G01 X7.9028 Y15.4830
G01 X8.0892 Y15.6695
G01 X8.1447 Y15.8607
G01 X8.1448 Y15.7904
G01 X8.1469 Y15.7462
G01 X8.1482 Y15.7324
G01 X8.1500 Y15.7184
G01 X8.1549 Y15.6862
G01 X8.1587 Y15.6672
G01 X8.1677 Y15.6313
G01 X8.1723 Y15.6150
G01 X8.1772 Y15.6003
G01 X8.1893 Y15.5671
G01 X8.1976 Y15.5475
G01 X8.2126 Y15.5161
G01 X8.2202 Y15.5014
G01 X8.2285 Y15.4869
G01 X8.2445 Y15.4608
G01 X8.2527 Y15.4483
G01 X8.2619 Y15.4353
G01 X8.2791 Y15.4127
G01 X8.2952 Y15.3930
G01 X8.3226 Y15.3633
G01 X8.3330 Y15.3529
G01 X8.6161 Y15.0781
G01 X8.3433 Y15.0781
G01 X8.3272 Y15.0777
G01 X8.3104 Y15.0765
G01 X8.2933 Y15.0745
G01 X8.2750 Y15.0714
G01 X8.2575 Y15.0676
G01 X8.2404 Y15.0630
G01 X8.2233 Y15.0575
G01 X8.2069 Y15.0513
G01 X8.1900 Y15.0441
G01 X8.1751 Y15.0368
G01 X8.1690 Y15.0529
G01 X8.1621 Y15.0689
G01 X8.1470 Y15.1005
G01 X8.1365 Y15.1202
G01 X8.1190 Y15.1496
G01 X8.1094 Y15.1645
G01 X8.1060 Y15.1695
G01 X8.1042 Y15.1720
G01 X8.1039 Y15.1723
G01 X8.1037 Y15.1726
G01 X8.1032 Y15.1734
G01 X8.1024 Y15.1744
G01 X8.0854 Y15.1974
G01 X8.0742 Y15.2117
G01 X8.0629 Y15.2248
G01 X8.0357 Y15.2544
G01 X7.8071 Y15.4830
G01 X8.0347 Y15.7105
G01 X8.0647 Y15.7431
G01 X8.0813 Y15.7630
G01 X8.1010 Y15.7895
G01 X8.1095 Y15.8016
G01 X8.1185 Y15.8155
G01 X8.1335 Y15.8406
G01 X8.1447 Y15.8607
G01 X8.2878 Y15.7121
G01 X8.2915 Y15.6936
G01 X8.3017 Y15.6546
G01 X8.3151 Y15.6170
G01 X8.3225 Y15.5998
G01 X8.3395 Y15.5652
G01 X8.3596 Y15.5320
G01 X8.3708 Y15.5156
G01 X8.3878 Y15.4933
G01 X8.3960 Y15.4832
G01 X8.4269 Y15.4503
G01 X8.7689 Y15.1184
G01 X8.8026 Y15.0888
G01 X8.8368 Y15.0639
G01 X8.8488 Y15.0563
G01 X8.8727 Y15.0424
G01 X8.8891 Y15.0337
G01 X8.9259 Y15.0173
G01 X8.9606 Y15.0051
G01 X8.9801 Y14.9995
G01 X9.0168 Y14.9911
G01 X9.0563 Y14.9855
G01 X9.0751 Y14.9840
G01 X9.1133 Y14.9831
G01 X9.1512 Y14.9853
G01 X9.1701 Y14.9875
G01 X9.1982 Y14.9921
G01 X9.2090 Y14.9943
G01 X9.2505 Y15.0054
G01 X9.2615 Y15.0091
G01 X9.2867 Y15.0185
G01 X9.3043 Y15.0259
G01 X9.3392 Y15.0433
G01 X9.3731 Y15.0640
G01 X9.3891 Y15.0751
G01 X9.4190 Y15.0984
G01 X9.4514 Y15.1286
G01 X9.4597 Y15.1375
G01 X9.4786 Y15.1590
G01 X9.4897 Y15.1729
G01 X9.5116 Y15.2038
G01 X9.5318 Y15.2380
G01 X9.5409 Y15.2558
G01 X9.5525 Y15.2815
G01 X9.5580 Y15.2952
G01 X9.5709 Y15.3336
G01 X9.5796 Y15.3694
G01 X9.5834 Y15.3893
G01 X9.5882 Y15.4275
G01 X9.5898 Y15.4671
G01 X9.5894 Y15.4862
G01 X9.5867 Y15.5235
G01 X9.5808 Y15.5612
G01 X9.5769 Y15.5789
G01 X9.5697 Y15.6060
G01 X9.5664 Y15.6171
G01 X9.5533 Y15.6526
G01 X9.5455 Y15.6704
G01 X9.5288 Y15.7036
G01 X9.5073 Y15.7386
G01 X9.4985 Y15.7512
G01 X9.4769 Y15.7791
G01 X9.4685 Y15.7887
G01 X9.4476 Y15.8111
G01 X9.2499 Y16.0031
G01 X9.2499 Y16.2628
G01 X9.2673 Y16.2798
G01 X10.4252 Y15.1220
G01 X10.4573 Y15.0931
G01 X10.4896 Y15.0688
G01 X10.5015 Y15.0609
G01 X10.5263 Y15.0460
G01 X10.5447 Y15.0360
G01 X10.5736 Y15.0224
G01 X10.5901 Y15.0158
G01 X10.6240 Y15.0040
G01 X10.6591 Y14.9949
G01 X10.6768 Y14.9911
G01 X10.7124 Y14.9859
G01 X10.7256 Y14.9847
G01 X10.7567 Y14.9832
G01 X10.7741 Y14.9832
G01 X10.8111 Y14.9852
G01 X10.8235 Y14.9867
G01 X10.8578 Y14.9920
G01 X10.8706 Y14.9948
G01 X10.9059 Y15.0040
G01 X10.9400 Y15.0159
G01 X10.9530 Y15.0210
G01 X10.9849 Y15.0359
G01 X10.9962 Y15.0417
G01 X11.0270 Y15.0600
G01 X11.0426 Y15.0705
G01 X11.0677 Y15.0892
G01 X11.0813 Y15.1006
G01 X11.1085 Y15.1256
G01 X11.1328 Y15.1521
G01 X11.1445 Y15.1662
G01 X11.1662 Y15.1956
G01 X11.1738 Y15.2073
G01 X11.1917 Y15.2377
G01 X11.1977 Y15.2495
G01 X11.2129 Y15.2822
G01 X11.2254 Y15.3162
G01 X11.2297 Y15.3294
G01 X11.2402 Y15.3715
G01 X11.2423 Y15.3830
G01 X11.2462 Y15.4090
G01 X11.2482 Y15.4282
G01 X11.2499 Y15.4667
G01 X11.2499 Y16.7984
G01 X11.2496 Y16.8095
G01 X11.2477 Y16.8441
G01 X11.2463 Y16.8557
G01 X11.2422 Y16.8835
G01 X11.2387 Y16.9012
G01 X11.2290 Y16.9389
G01 X11.2164 Y16.9748
G01 X11.2084 Y16.9939
G01 X11.1920 Y17.0278
G01 X11.1718 Y17.0617
G01 X11.1640 Y17.0734
G01 X11.1468 Y17.0967
G01 X11.1348 Y17.1116
G01 X11.1079 Y17.1409
G01 X11.0796 Y17.1668
G01 X11.0663 Y17.1778
G01 X11.0347 Y17.2010
G01 X11.0014 Y17.2212
G01 X10.9849 Y17.2300
G01 X10.9503 Y17.2461
G01 X10.9127 Y17.2598
G01 X11.1094 Y17.4566
G01 X11.1338 Y17.4833
G01 X11.1426 Y17.4937
G01 X11.1618 Y17.5195
G01 X11.1692 Y17.5301
G01 X11.1874 Y17.5600
G01 X11.1940 Y17.5719
G01 X11.2092 Y17.6036
G01 X11.2142 Y17.6152
G01 X11.2260 Y17.6480
G01 X11.2311 Y17.6646
G01 X11.2404 Y17.7023
G01 X11.2462 Y17.7390
G01 X11.2481 Y17.7569
G01 X11.2499 Y17.7932
G01 X11.2499 Y18.4680
G01 X11.2479 Y18.5116
G01 X11.2462 Y18.5269
G01 X11.2403 Y18.5642
G01 X11.2311 Y18.6013
G01 X11.2254 Y18.6196
G01 X11.2131 Y18.6533
G01 X11.1966 Y18.6889
G01 X11.1880 Y18.7049
G01 X11.1737 Y18.7287
G01 X11.1674 Y18.7386
G01 X11.1410 Y18.7742
G01 X11.1338 Y18.7826
G01 X11.1119 Y18.8067
G01 X10.9126 Y19.0061
G01 X10.9503 Y19.0198
G01 X10.9849 Y19.0359
G01 X11.0014 Y19.0447
G01 X11.0347 Y19.0649
G01 X11.0663 Y19.0881
G01 X11.0796 Y19.0991
G01 X11.1085 Y19.1256
G01 X11.1342 Y19.1537
G01 X11.1460 Y19.1682
G01 X11.1688 Y19.1994
G01 X11.1883 Y19.2316
G01 X11.1970 Y19.2480
G01 X11.2134 Y19.2833
G01 X11.2260 Y19.3180
G01 X11.2318 Y19.3372
G01 X11.2387 Y19.3647
G01 X11.2412 Y19.3766
G01 X11.2462 Y19.4094
G01 X11.2476 Y19.4211
G01 X11.2496 Y19.4564
G01 X11.2499 Y19.4675
G01 X11.2499 Y20.7980
G01 X11.2484 Y20.8344
G01 X11.2475 Y20.8462
G01 X11.2462 Y20.8565
G01 X11.2416 Y20.8870
G01 X11.2389 Y20.9003
G01 X11.2290 Y20.9389
G01 X11.2143 Y20.9802
G01 X11.2093 Y20.9919
G01 X11.1970 Y21.0179
G01 X11.1880 Y21.0349
G01 X11.1678 Y21.0679
G01 X11.1426 Y21.1022
G01 X11.1342 Y21.1123
G01 X11.1150 Y21.1334
G01 X11.1004 Y21.1480
G01 X11.0796 Y21.1668
G01 X11.0714 Y21.1738
G01 X11.0369 Y21.1994
G01 X11.0267 Y21.2061
G01 X11.0025 Y21.2206
G01 X10.9853 Y21.2299
G01 X10.9503 Y21.2461
G01 X10.9127 Y21.2598
G01 X11.1094 Y21.4566
G01 X11.1338 Y21.4833
G01 X11.1426 Y21.4937
G01 X11.1618 Y21.5195
G01 X11.1688 Y21.5294
G01 X11.1873 Y21.5598
G01 X11.1937 Y21.5714
G01 X11.2087 Y21.6026
G01 X11.2142 Y21.6152
G01 X11.2260 Y21.6480
G01 X11.2309 Y21.6638
G01 X11.2404 Y21.7023
G01 X11.2462 Y21.7390
G01 X11.2481 Y21.7569
G01 X11.2499 Y21.7932
G01 X11.2499 Y22.4581
G01 X11.2480 Y22.5013
G01 X11.2465 Y22.5148
G01 X11.2415 Y22.5477
G01 X11.2393 Y22.5584
G01 X11.2326 Y22.5860
G01 X11.2265 Y22.6065
G01 X11.2166 Y22.6345
G01 X11.2113 Y22.6475
G01 X11.1948 Y22.6825
G01 X11.1893 Y22.6926
G01 X11.1713 Y22.7228
G01 X11.1647 Y22.7323
G01 X11.1454 Y22.7587
G01 X11.1383 Y22.7674
G01 X11.1205 Y22.7877
G01 X11.1129 Y22.7959
G01 X10.7827 Y23.1359
G01 X10.7745 Y23.1440
G01 X10.7492 Y23.1673
G01 X10.7386 Y23.1759
G01 X10.7087 Y23.1983
G01 X10.6777 Y23.2176
G01 X10.6669 Y23.2238
G01 X10.6345 Y23.2398
G01 X10.6218 Y23.2455
G01 X10.5872 Y23.2583
G01 X10.5737 Y23.2626
G01 X10.5377 Y23.2718
G01 X10.5198 Y23.2753
G01 X10.4825 Y23.2806
G01 X10.4425 Y23.2828
G01 X10.1037 Y23.2829
G01 X10.0652 Y23.2812
G01 X10.0472 Y23.2793
G01 X10.0097 Y23.2734
G01 X9.9708 Y23.2639
G01 X9.9574 Y23.2598
G01 X9.9296 Y23.2499
G01 X9.9196 Y23.2461
G01 X9.9089 Y23.2413
G01 X9.8847 Y23.2299
G01 X9.8744 Y23.2246
G01 X9.8449 Y23.2071
G01 X9.8353 Y23.2010
G01 X9.7991 Y23.1743
G01 X9.7904 Y23.1669
G01 X9.7699 Y23.1483
G01 X9.7538 Y23.1633
G01 X9.7452 Y23.1706
G01 X9.7184 Y23.1913
G01 X9.7078 Y23.1989
G01 X9.6686 Y23.2229
G01 X9.6341 Y23.2400
G01 X9.6145 Y23.2483
G01 X9.5858 Y23.2588
G01 X9.5728 Y23.2628
G01 X9.5318 Y23.2731
G01 X9.4933 Y23.2793
G01 X9.4752 Y23.2811
G01 X9.4362 Y23.2829
G01 X9.0975 Y23.2828
G01 X9.0580 Y23.2806
G01 X9.0215 Y23.2755
G01 X9.0026 Y23.2719
G01 X8.9664 Y23.2627
G01 X8.9549 Y23.2590
G01 X8.9302 Y23.2501
G01 X8.9162 Y23.2446
G01 X8.8827 Y23.2289
G01 X8.8669 Y23.2203
G01 X8.8353 Y23.2010
G01 X8.8053 Y23.1791
G01 X8.7907 Y23.1672
G01 X8.7621 Y23.1409
G01 X8.4216 Y22.8005
G01 X8.3927 Y22.7689
G01 X8.3836 Y22.7574
G01 X8.3623 Y22.7283
G01 X8.3556 Y22.7178
G01 X8.3380 Y22.6879
G01 X8.3321 Y22.6764
G01 X8.3169 Y22.6434
G01 X8.3128 Y22.6329
G01 X8.3010 Y22.5990
G01 X8.2912 Y22.5613
G01 X8.2875 Y22.5419
G01 X8.2823 Y22.5049
G01 X8.2801 Y22.4646
G01 X8.2800 Y21.7980
G01 X8.2803 Y21.7862
G01 X8.2823 Y21.7513
G01 X8.2836 Y21.7396
G01 X8.2876 Y21.7131
G01 X8.2917 Y21.6927
G01 X8.3017 Y21.6546
G01 X8.3054 Y21.6435
G01 X8.3182 Y21.6095
G01 X8.3232 Y21.5983
G01 X8.3395 Y21.5652
G01 X8.3584 Y21.5339
G01 X8.3652 Y21.5235
G01 X8.3868 Y21.4946
G01 X8.3961 Y21.4831
G01 X8.4267 Y21.4505
G01 X8.7538 Y21.1330
G01 X8.4269 Y20.8156
G01 X8.3971 Y20.7839
G01 X8.3875 Y20.7722
G01 X8.3651 Y20.7423
G01 X8.3584 Y20.7320
G01 X8.3403 Y20.7022
G01 X8.3343 Y20.6905
G01 X8.3192 Y20.6589
G01 X8.3146 Y20.6475
G01 X8.3036 Y20.6171
G01 X8.2994 Y20.6036
G01 X8.2921 Y20.5750
G01 X8.2880 Y20.5548
G01 X8.2824 Y20.5162
G01 X8.2801 Y20.4739
G01 X8.2800 Y19.7975
G01 X8.2816 Y19.7598
G01 X8.2832 Y19.7426
G01 X8.2896 Y19.7022
G01 X8.2987 Y19.6650
G01 X8.3044 Y19.6465
G01 X8.3177 Y19.6105
G01 X8.3225 Y19.5998
G01 X8.3347 Y19.5745
G01 X8.3440 Y19.5574
G01 X8.3642 Y19.5249
G01 X8.3871 Y19.4942
G01 X8.4004 Y19.4783
G01 X8.4262 Y19.4509
G01 X8.7538 Y19.1330
G01 X8.4269 Y18.8156
G01 X8.3971 Y18.7839
G01 X8.3875 Y18.7722
G01 X8.3651 Y18.7423
G01 X8.3584 Y18.7320
G01 X8.3403 Y18.7022
G01 X8.3343 Y18.6905
G01 X8.3193 Y18.6592
G01 X8.3148 Y18.6480
G01 X8.3040 Y18.6184
G01 X8.2994 Y18.6036
G01 X8.2923 Y18.5758
G01 X8.2883 Y18.5568
G01 X8.2824 Y18.5162
G01 X8.2801 Y18.4739
G01 X8.2800 Y17.7980
G01 X8.2820 Y17.7542
G01 X8.2835 Y17.7409
G01 X8.2878 Y17.7123
G01 X8.2917 Y17.6927
G01 X8.3017 Y17.6546
G01 X8.3146 Y17.6184
G01 X8.3222 Y17.6003
G01 X8.3395 Y17.5652
G01 X8.3605 Y17.5306
G01 X8.3717 Y17.5145
G01 X8.3947 Y17.4848
G01 X8.4240 Y17.4531
G01 X8.7538 Y17.1330
G01 X8.4269 Y16.8156
G01 X8.3971 Y16.7839
G01 X8.3875 Y16.7722
G01 X8.3651 Y16.7423
G01 X8.3584 Y16.7320
G01 X8.3403 Y16.7022
G01 X8.3343 Y16.6905
G01 X8.3193 Y16.6592
G01 X8.3148 Y16.6480
G01 X8.3040 Y16.6184
G01 X8.2994 Y16.6036
G01 X8.2923 Y16.5758
G01 X8.2883 Y16.5568
G01 X8.2824 Y16.5162
G01 X8.2801 Y16.4739
G01 X8.2800 Y15.7980
G01 X8.2819 Y15.7557
G01 X8.2835 Y15.7409
G01 X8.2878 Y15.7121
G01 X8.3547 Y15.7226
G01 X8.3579 Y15.7069
G01 X8.3649 Y15.6794
G01 X8.3684 Y15.6684
G01 X8.3806 Y15.6356
G01 X8.3975 Y15.6003
G01 X8.4023 Y15.5918
G01 X8.4161 Y15.5693
G01 X8.4249 Y15.5562
G01 X8.4457 Y15.5292
G01 X8.4685 Y15.5045
G01 X8.8164 Y15.1665
G01 X8.8460 Y15.1408
G01 X8.8721 Y15.1218
G01 X8.8832 Y15.1145
G01 X8.9133 Y15.0973
G01 X8.9447 Y15.0828
G01 X8.9578 Y15.0776
G01 X8.9904 Y15.0667
G01 X9.0237 Y15.0587
G01 X9.0378 Y15.0562
G01 X9.0711 Y15.0520
G01 X9.1096 Y15.0507
G01 X9.1463 Y15.0528
G01 X9.1602 Y15.0545
G01 X9.1945 Y15.0604
G01 X9.2301 Y15.0699
G01 X9.2631 Y15.0819
G01 X9.2755 Y15.0872
G01 X9.3075 Y15.1031
G01 X9.3356 Y15.1203
G01 X9.3473 Y15.1284
G01 X9.3749 Y15.1498
G01 X9.4002 Y15.1731
G01 X9.4094 Y15.1827
G01 X9.4313 Y15.2079
G01 X9.4511 Y15.2351
G01 X9.4584 Y15.2462
G01 X9.4756 Y15.2762
G01 X9.4901 Y15.3077
G01 X9.4953 Y15.3208
G01 X9.5062 Y15.3533
G01 X9.5141 Y15.3862
G01 X9.5166 Y15.4000
G01 X9.5208 Y15.4330
G01 X9.5222 Y15.4683
G01 X9.5219 Y15.4813
G01 X9.5196 Y15.5147
G01 X9.5141 Y15.5497
G01 X9.5113 Y15.5623
G01 X9.5021 Y15.5960
G01 X9.4885 Y15.6324
G01 X9.4738 Y15.6629
G01 X9.4668 Y15.6756
G01 X9.4486 Y15.7047
G01 X9.4240 Y15.7369
G01 X9.3983 Y15.7647
G01 X9.1822 Y15.9745
G01 X9.1822 Y16.2914
G01 X9.2681 Y16.3747
G01 X10.4705 Y15.1723
G01 X10.4954 Y15.1495
G01 X10.5067 Y15.1403
G01 X10.5344 Y15.1202
G01 X10.5672 Y15.1005
G01 X10.6049 Y15.0826
G01 X10.6360 Y15.0712
G01 X10.6451 Y15.0683
G01 X10.6760 Y15.0604
G01 X10.6861 Y15.0582
G01 X10.7191 Y15.0532
G01 X10.7322 Y15.0521
G01 X10.7658 Y15.0507
G01 X10.7977 Y15.0521
G01 X10.8109 Y15.0532
G01 X10.8392 Y15.0574
G01 X10.8526 Y15.0601
G01 X10.8849 Y15.0683
G01 X10.8939 Y15.0712
G01 X10.9250 Y15.0826
G01 X10.9628 Y15.1005
G01 X10.9913 Y15.1175
G01 X11.0026 Y15.1251
G01 X11.0254 Y15.1420
G01 X11.0359 Y15.1507
G01 X11.0606 Y15.1735
G01 X11.0825 Y15.1974
G01 X11.0909 Y15.2075
G01 X11.1105 Y15.2341
G01 X11.1158 Y15.2423
G01 X11.1324 Y15.2702
G01 X11.1472 Y15.3008
G01 X11.1510 Y15.3095
G01 X11.1617 Y15.3390
G01 X11.1653 Y15.3503
G01 X11.1742 Y15.3862
G01 X11.1792 Y15.4189
G01 X11.1807 Y15.4326
G01 X11.1822 Y15.4680
G01 X11.1822 Y16.7980
G01 X11.1802 Y16.8396
G01 X11.1741 Y16.8802
G01 X11.1646 Y16.9178
G01 X11.1531 Y16.9510
G01 X11.1486 Y16.9619
G01 X11.1367 Y16.9873
G01 X11.1289 Y17.0018
G01 X11.1115 Y17.0303
G01 X11.0921 Y17.0568
G01 X11.0864 Y17.0640
G01 X11.0600 Y17.0930
G01 X11.0313 Y17.1191
G01 X11.0238 Y17.1251
G01 X10.9988 Y17.1435
G01 X10.9684 Y17.1622
G01 X10.9543 Y17.1697
G01 X10.9300 Y17.1811
G01 X10.9182 Y17.1860
G01 X10.8849 Y17.1976
G01 X10.8467 Y17.2072
G01 X10.8069 Y17.2131
G01 X10.7722 Y17.2151
G01 X11.0603 Y17.5032
G01 X11.0855 Y17.5308
G01 X11.0921 Y17.5391
G01 X11.1115 Y17.5656
G01 X11.1324 Y17.6002
G01 X11.1367 Y17.6086
G01 X11.1507 Y17.6389
G01 X11.1634 Y17.6740
G01 X11.1663 Y17.6840
G01 X11.1729 Y17.7103
G01 X11.1756 Y17.7246
G01 X11.1803 Y17.7577
G01 X11.1822 Y17.7947
G01 X11.1822 Y18.4680
G01 X11.1802 Y18.5096
G01 X11.1754 Y18.5424
G01 X11.1724 Y18.5573
G01 X11.1642 Y18.5894
G01 X11.1513 Y18.6257
G01 X11.1360 Y18.6586
G01 X11.1297 Y18.6704
G01 X11.1115 Y18.7003
G01 X11.0921 Y18.7268
G01 X11.0834 Y18.7375
G01 X11.0606 Y18.7624
G01 X10.7722 Y19.0508
G01 X10.8069 Y19.0528
G01 X10.8467 Y19.0588
G01 X10.8849 Y19.0683
G01 X10.9182 Y19.0799
G01 X10.9300 Y19.0848
G01 X10.9543 Y19.0963
G01 X10.9684 Y19.1037
G01 X10.9988 Y19.1224
G01 X11.0304 Y19.1460
G01 X11.0594 Y19.1723
G01 X11.0834 Y19.1984
G01 X11.0914 Y19.2082
G01 X11.1072 Y19.2294
G01 X11.1163 Y19.2431
G01 X11.1338 Y19.2728
G01 X11.1473 Y19.3011
G01 X11.1513 Y19.3102
G01 X11.1642 Y19.3465
G01 X11.1734 Y19.3825
G01 X11.1756 Y19.3946
G01 X11.1802 Y19.4263
G01 X11.1822 Y19.4680
G01 X11.1822 Y20.7980
G01 X11.1806 Y20.8345
G01 X11.1793 Y20.8462
G01 X11.1746 Y20.8776
G01 X11.1726 Y20.8869
G01 X11.1646 Y20.9178
G01 X11.1513 Y20.9557
G01 X11.1367 Y20.9873
G01 X11.1289 Y21.0018
G01 X11.1146 Y21.0256
G01 X11.1072 Y21.0365
G01 X11.0921 Y21.0568
G01 X11.0855 Y21.0651
G01 X11.0651 Y21.0877
G01 X11.0565 Y21.0965
G01 X11.0285 Y21.1215
G01 X10.9960 Y21.1455
G01 X10.9612 Y21.1662
G01 X10.9240 Y21.1837
G01 X10.8864 Y21.1972
G01 X10.8479 Y21.2069
G01 X10.8385 Y21.2086
G01 X10.8069 Y21.2131
G01 X10.7722 Y21.2151
G01 X11.0603 Y21.5032
G01 X11.0855 Y21.5308
G01 X11.0921 Y21.5391
G01 X11.1115 Y21.5656
G01 X11.1324 Y21.6002
G01 X11.1367 Y21.6086
G01 X11.1507 Y21.6389
G01 X11.1634 Y21.6740
G01 X11.1663 Y21.6840
G01 X11.1729 Y21.7103
G01 X11.1756 Y21.7246
G01 X11.1803 Y21.7577
G01 X11.1822 Y21.7947
G01 X11.1822 Y22.4581
G01 X11.1805 Y22.4965
G01 X11.1757 Y22.5309
G01 X11.1728 Y22.5458
G01 X11.1643 Y22.5792
G01 X11.1519 Y22.6143
G01 X11.1378 Y22.6452
G01 X11.1311 Y22.6581
G01 X11.1140 Y22.6867
G01 X11.0930 Y22.7159
G01 X11.0864 Y22.7241
G01 X11.0646 Y22.7485
G01 X10.7344 Y23.0886
G01 X10.7047 Y23.1163
G01 X10.6774 Y23.1374
G01 X10.6636 Y23.1469
G01 X10.6387 Y23.1621
G01 X10.6285 Y23.1675
G01 X10.5956 Y23.1831
G01 X10.5586 Y23.1965
G01 X10.5183 Y23.2068
G01 X10.4830 Y23.2124
G01 X10.4690 Y23.2137
G01 X10.4358 Y23.2152
G01 X10.1017 Y23.2152
G01 X10.0630 Y23.2131
G01 X10.0314 Y23.2086
G01 X10.0195 Y23.2064
G01 X9.9835 Y23.1972
G01 X9.9460 Y23.1837
G01 X9.9098 Y23.1668
G01 X9.8786 Y23.1484
G01 X9.8665 Y23.1402
G01 X9.8445 Y23.1239
G01 X9.8361 Y23.1170
G01 X9.8123 Y23.0953
G01 X9.7694 Y23.0525
G01 X9.7322 Y23.0908
G01 X9.7047 Y23.1163
G01 X9.6975 Y23.1221
G01 X9.6716 Y23.1416
G01 X9.6423 Y23.1599
G01 X9.6276 Y23.1680
G01 X9.6013 Y23.1806
G01 X9.5908 Y23.1849
G01 X9.5567 Y23.1971
G01 X9.5252 Y23.2053
G01 X9.5143 Y23.2076
G01 X9.4757 Y23.2132
G01 X9.4383 Y23.2152
G01 X9.1017 Y23.2152
G01 X9.0647 Y23.2133
G01 X9.0314 Y23.2086
G01 X9.0182 Y23.2061
G01 X8.9851 Y23.1976
G01 X8.9460 Y23.1837
G01 X8.9156 Y23.1697
G01 X8.9072 Y23.1654
G01 X8.8727 Y23.1447
G01 X8.8462 Y23.1252
G01 X8.8372 Y23.1179
G01 X8.8099 Y23.0931
G01 X8.4699 Y22.7532
G01 X8.4466 Y22.7276
G01 X8.4378 Y22.7169
G01 X8.4179 Y22.6898
G01 X8.4008 Y22.6616
G01 X8.3939 Y22.6488
G01 X8.3792 Y22.6171
G01 X8.3682 Y22.5869
G01 X8.3647 Y22.5758
G01 X8.3569 Y22.5449
G01 X8.3543 Y22.5314
G01 X8.3496 Y22.4984
G01 X8.3477 Y22.4625
G01 X8.3477 Y21.7980
G01 X8.3497 Y21.7572
G01 X8.3546 Y21.7229
G01 X8.3577 Y21.7075
G01 X8.3647 Y21.6803
G01 X8.3676 Y21.6707
G01 X8.3814 Y21.6337
G01 X8.3950 Y21.6053
G01 X8.3997 Y21.5963
G01 X8.4165 Y21.5686
G01 X8.4223 Y21.5598
G01 X8.4413 Y21.5347
G01 X8.4504 Y21.5239
G01 X8.4743 Y21.4985
G01 X8.8147 Y21.1682
G01 X8.8421 Y21.1439
G01 X8.8566 Y21.1330
G01 X8.8415 Y21.1215
G01 X8.8155 Y21.0985
G01 X8.4685 Y20.7614
G01 X8.4453 Y20.7361
G01 X8.4255 Y20.7104
G01 X8.4191 Y20.7014
G01 X8.4026 Y20.6747
G01 X8.3975 Y20.6657
G01 X8.3836 Y20.6372
G01 X8.3776 Y20.6227
G01 X8.3658 Y20.5897
G01 X8.3559 Y20.5504
G01 X8.3499 Y20.5105
G01 X8.3478 Y20.4736
G01 X8.3477 Y19.7980
G01 X8.3493 Y19.7618
G01 X8.3506 Y19.7491
G01 X8.3559 Y19.7155
G01 X8.3647 Y19.6803
G01 X8.3687 Y19.6676
G01 X8.3814 Y19.6337
G01 X8.3967 Y19.6019
G01 X8.4030 Y19.5906
G01 X8.4210 Y19.5616
G01 X8.4446 Y19.5306
G01 X8.4514 Y19.5228
G01 X8.4743 Y19.4985
G01 X8.8143 Y19.1685
G01 X8.8421 Y19.1439
G01 X8.8566 Y19.1330
G01 X8.8415 Y19.1215
G01 X8.8155 Y19.0985
G01 X8.4685 Y18.7614
G01 X8.4453 Y18.7361
G01 X8.4255 Y18.7104
G01 X8.4191 Y18.7014
G01 X8.4026 Y18.6747
G01 X8.3975 Y18.6657
G01 X8.3836 Y18.6372
G01 X8.3777 Y18.6230
G01 X8.3658 Y18.5897
G01 X8.3559 Y18.5504
G01 X8.3499 Y18.5105
G01 X8.3478 Y18.4736
G01 X8.3477 Y17.7980
G01 X8.3497 Y17.7572
G01 X8.3547 Y17.7221
G01 X8.3578 Y17.7070
G01 X8.3668 Y17.6732
G01 X8.3806 Y17.6356
G01 X8.3954 Y17.6044
G01 X8.4030 Y17.5906
G01 X8.4210 Y17.5616
G01 X8.4446 Y17.5306
G01 X8.4514 Y17.5228
G01 X8.4743 Y17.4985
G01 X8.8143 Y17.1685
G01 X8.8386 Y17.1468
G01 X8.8479 Y17.1393
G01 X8.8566 Y17.1330
G01 X8.8415 Y17.1215
G01 X8.8155 Y17.0985
G01 X8.4685 Y16.7614
G01 X8.4453 Y16.7361
G01 X8.4255 Y16.7104
G01 X8.4191 Y16.7014
G01 X8.4026 Y16.6747
G01 X8.3975 Y16.6657
G01 X8.3836 Y16.6372
G01 X8.3777 Y16.6230
G01 X8.3658 Y16.5897
G01 X8.3559 Y16.5502
G01 X8.3499 Y16.5105
G01 X8.3478 Y16.4736
G01 X8.3477 Y15.7980
G01 X8.3494 Y15.7606
G01 X8.3505 Y15.7499
G01 X8.3547 Y15.7226
G01 X8.4214 Y15.7334
G01 X8.4231 Y15.7249
G01 X8.4311 Y15.6940
G01 X8.4414 Y15.6656
G01 X8.4450 Y15.6572
G01 X8.4584 Y15.6299
G01 X8.4737 Y15.6046
G01 X8.4794 Y15.5964
G01 X8.4979 Y15.5723
G01 X8.5215 Y15.5471
G01 X8.8624 Y15.2161
G01 X8.8873 Y15.1943
G01 X8.9110 Y15.1771
G01 X8.9177 Y15.1728
G01 X8.9451 Y15.1570
G01 X8.9719 Y15.1447
G01 X8.9806 Y15.1413
G01 X9.0088 Y15.1318
G01 X9.0408 Y15.1243
G01 X9.0710 Y15.1201
G01 X9.0808 Y15.1193
G01 X9.1115 Y15.1184
G01 X9.1445 Y15.1206
G01 X9.1735 Y15.1252
G01 X9.1822 Y15.1270
G01 X9.2126 Y15.1353
G01 X9.2426 Y15.1466
G01 X9.2700 Y15.1598
G01 X9.2786 Y15.1646
G01 X9.3008 Y15.1784
G01 X9.3067 Y15.1825
G01 X9.3302 Y15.2006
G01 X9.3524 Y15.2210
G01 X9.3592 Y15.2280
G01 X9.3786 Y15.2503
G01 X9.3985 Y15.2781
G01 X9.4134 Y15.3035
G01 X9.4179 Y15.3122
G01 X9.4301 Y15.3394
G01 X9.4411 Y15.3717
G01 X9.4479 Y15.4001
G01 X9.4495 Y15.4091
G01 X9.4534 Y15.4391
G01 X9.4546 Y15.4717
G01 X9.4528 Y15.5025
G01 X9.4517 Y15.5122
G01 X9.4474 Y15.5382
G01 X9.4459 Y15.5452
G01 X9.4392 Y15.5703
G01 X9.4364 Y15.5790
G01 X9.4264 Y15.6056
G01 X9.4131 Y15.6330
G01 X9.4088 Y15.6409
G01 X9.3930 Y15.6661
G01 X9.3724 Y15.6932
G01 X9.3485 Y15.7188
G01 X9.1146 Y15.9458
G01 X9.1146 Y16.3201
G01 X9.2467 Y16.4483
G01 X9.2901 Y16.4483
G01 X10.5177 Y15.2207
G01 X10.5405 Y15.2000
G01 X10.5470 Y15.1947
G01 X10.5708 Y15.1772
G01 X10.5959 Y15.1620
G01 X10.6035 Y15.1579
G01 X10.6306 Y15.1452
G01 X10.6638 Y15.1333
G01 X10.6981 Y15.1248
G01 X10.7258 Y15.1206
G01 X10.7356 Y15.1197
G01 X10.7613 Y15.1184
G01 X10.7698 Y15.1184
G01 X10.7994 Y15.1200
G01 X10.8284 Y15.1242
G01 X10.8366 Y15.1258
G01 X10.8662 Y15.1333
G01 X10.8977 Y15.1445
G01 X10.9307 Y15.1601
G01 X10.9557 Y15.1750
G01 X10.9631 Y15.1800
G01 X10.9846 Y15.1959
G01 X10.9905 Y15.2009
G01 X11.0122 Y15.2207
G01 X11.0320 Y15.2425
G01 X11.0370 Y15.2484
G01 X11.0546 Y15.2722
G01 X11.0728 Y15.3022
G01 X11.0878 Y15.3336
G01 X11.0980 Y15.3618
G01 X11.1003 Y15.3690
G01 X11.1078 Y15.3992
G01 X11.1123 Y15.4288
G01 X11.1133 Y15.4386
G01 X11.1146 Y15.4680
G01 X11.1145 Y16.8015
G01 X11.1129 Y16.8324
G01 X11.1078 Y16.8663
G01 X11.0996 Y16.8992
G01 X11.0897 Y16.9272
G01 X11.0860 Y16.9362
G01 X11.0750 Y16.9594
G01 X11.0709 Y16.9670
G01 X11.0557 Y16.9921
G01 X11.0379 Y17.0163
G01 X11.0330 Y17.0224
G01 X11.0104 Y17.0469
G01 X10.9894 Y17.0659
G01 X10.9829 Y17.0712
G01 X10.9591 Y17.0887
G01 X10.9340 Y17.1039
G01 X10.9264 Y17.1080
G01 X10.9032 Y17.1190
G01 X10.8942 Y17.1227
G01 X10.8662 Y17.1326
G01 X10.8338 Y17.1407
G01 X10.7994 Y17.1459
G01 X10.7650 Y17.1476
G01 X10.7305 Y17.1459
G01 X10.6962 Y17.1407
G01 X10.6638 Y17.1326
G01 X10.6357 Y17.1227
G01 X10.6267 Y17.1190
G01 X10.6035 Y17.1080
G01 X10.5959 Y17.1039
G01 X10.5708 Y17.0887
G01 X10.5470 Y17.0712
G01 X10.5405 Y17.0659
G01 X10.5195 Y17.0469
G01 X10.4970 Y17.0224
G01 X10.4920 Y17.0163
G01 X10.4771 Y16.9962
G01 X10.4716 Y16.9881
G01 X10.4563 Y16.9622
G01 X10.4430 Y16.9341
G01 X10.4319 Y16.9040
G01 X10.4291 Y16.8947
G01 X10.4221 Y16.8663
G01 X10.4172 Y16.8339
G01 X10.4153 Y16.7980
G01 X10.4153 Y16.3120
G01 X9.6813 Y17.0461
G01 X9.6557 Y17.0691
G01 X9.6291 Y17.0887
G01 X9.6007 Y17.1058
G01 X9.5746 Y17.1183
G01 X10.4350 Y17.1183
G01 X10.4694 Y17.1200
G01 X10.5038 Y17.1252
G01 X10.5362 Y17.1333
G01 X10.5677 Y17.1445
G01 X10.5954 Y17.1574
G01 X10.6040 Y17.1620
G01 X10.6257 Y17.1750
G01 X10.6332 Y17.1801
G01 X10.6576 Y17.1984
G01 X10.6822 Y17.2207
G01 X11.0122 Y17.5507
G01 X11.0330 Y17.5735
G01 X11.0379 Y17.5796
G01 X11.0557 Y17.6038
G01 X11.0728 Y17.6322
G01 X11.0884 Y17.6652
G01 X11.0996 Y17.6968
G01 X11.1071 Y17.7263
G01 X11.1087 Y17.7346
G01 X11.1129 Y17.7635
G01 X11.1146 Y17.7955
G01 X11.1146 Y18.4704
G01 X11.1129 Y18.5024
G01 X11.1078 Y18.5363
G01 X11.0996 Y18.5692
G01 X11.0870 Y18.6041
G01 X11.0728 Y18.6337
G01 X11.0557 Y18.6621
G01 X11.0361 Y18.6887
G01 X11.0156 Y18.7116
G01 X10.6813 Y19.0461
G01 X10.6594 Y19.0659
G01 X10.6529 Y19.0712
G01 X10.6291 Y19.0887
G01 X10.6037 Y19.1041
G01 X10.5964 Y19.1080
G01 X10.5711 Y19.1200
G01 X10.5362 Y19.1326
G01 X10.5038 Y19.1407
G01 X10.4741 Y19.1453
G01 X10.4644 Y19.1463
G01 X10.4350 Y19.1476
G01 X9.2449 Y19.1476
G01 X9.2745 Y19.1622
G01 X9.2994 Y19.1775
G01 X9.3067 Y19.1825
G01 X9.3270 Y19.1980
G01 X9.3344 Y19.2043
G01 X9.3562 Y19.2248
G01 X9.3786 Y19.2503
G01 X9.3985 Y19.2781
G01 X9.4142 Y19.3049
G01 X9.4179 Y19.3122
G01 X9.4282 Y19.3349
G01 X9.4316 Y19.3436
G01 X9.4411 Y19.3717
G01 X9.4487 Y19.4038
G01 X9.4534 Y19.4389
G01 X9.4545 Y19.4683
G01 X9.4544 Y19.4781
G01 X9.4527 Y19.5043
G01 X9.4517 Y19.5122
G01 X9.4471 Y19.5399
G01 X9.4394 Y19.5697
G01 X9.4364 Y19.5790
G01 X9.4255 Y19.6075
G01 X9.4128 Y19.6336
G01 X9.4083 Y19.6416
G01 X9.3930 Y19.6661
G01 X9.3749 Y19.6900
G01 X9.3686 Y19.6974
G01 X9.3485 Y19.7188
G01 X9.1146 Y19.9458
G01 X9.1146 Y20.3201
G01 X9.2467 Y20.4483
G01 X9.2901 Y20.4483
G01 X10.5177 Y19.2207
G01 X10.5442 Y19.1968
G01 X10.5728 Y19.1759
G01 X10.6007 Y19.1593
G01 X10.6278 Y19.1464
G01 X10.6357 Y19.1432
G01 X10.6638 Y19.1333
G01 X10.6920 Y19.1261
G01 X10.7014 Y19.1242
G01 X10.7258 Y19.1206
G01 X10.7356 Y19.1197
G01 X10.7650 Y19.1183
G01 X10.7994 Y19.1200
G01 X10.8338 Y19.1252
G01 X10.8662 Y19.1333
G01 X10.8977 Y19.1445
G01 X10.9307 Y19.1601
G01 X10.9607 Y19.1783
G01 X10.9846 Y19.1959
G01 X10.9905 Y19.2009
G01 X11.0122 Y19.2207
G01 X11.0320 Y19.2425
G01 X11.0379 Y19.2496
G01 X11.0529 Y19.2697
G01 X11.0583 Y19.2778
G01 X11.0728 Y19.3022
G01 X11.0870 Y19.3318
G01 X11.0996 Y19.3668
G01 X11.1078 Y19.3996
G01 X11.1129 Y19.4335
G01 X11.1146 Y19.4655
G01 X11.1146 Y20.8004
G01 X11.1129 Y20.8324
G01 X11.1087 Y20.8613
G01 X11.1068 Y20.8709
G01 X11.1003 Y20.8970
G01 X11.0980 Y20.9040
G01 X11.0884 Y20.9307
G01 X11.0736 Y20.9622
G01 X11.0557 Y20.9921
G01 X11.0379 Y21.0163
G01 X11.0330 Y21.0224
G01 X11.0122 Y21.0452
G01 X10.9876 Y21.0675
G01 X10.9591 Y21.0887
G01 X10.9337 Y21.1041
G01 X10.9264 Y21.1080
G01 X10.9022 Y21.1195
G01 X10.8942 Y21.1227
G01 X10.8662 Y21.1326
G01 X10.8379 Y21.1398
G01 X10.8285 Y21.1417
G01 X10.7994 Y21.1459
G01 X10.7650 Y21.1476
G01 X10.7305 Y21.1459
G01 X10.6962 Y21.1407
G01 X10.6638 Y21.1326
G01 X10.6357 Y21.1227
G01 X10.6267 Y21.1190
G01 X10.6035 Y21.1080
G01 X10.5959 Y21.1039
G01 X10.5708 Y21.0887
G01 X10.5470 Y21.0712
G01 X10.5405 Y21.0659
G01 X10.5195 Y21.0469
G01 X10.4970 Y21.0224
G01 X10.4920 Y21.0163
G01 X10.4771 Y20.9962
G01 X10.4716 Y20.9881
G01 X10.4563 Y20.9622
G01 X10.4430 Y20.9341
G01 X10.4319 Y20.9040
G01 X10.4291 Y20.8947
G01 X10.4221 Y20.8663
G01 X10.4172 Y20.8339
G01 X10.4153 Y20.7980
G01 X10.4153 Y20.3120
G01 X9.6822 Y21.0452
G01 X9.6576 Y21.0675
G01 X9.6312 Y21.0873
G01 X9.5992 Y21.1066
G01 X9.5677 Y21.1214
G01 X9.5362 Y21.1326
G01 X9.5066 Y21.1401
G01 X9.4985 Y21.1417
G01 X9.4694 Y21.1459
G01 X9.4374 Y21.1475
G01 X9.2449 Y21.1476
G01 X9.2745 Y21.1622
G01 X9.2994 Y21.1775
G01 X9.3067 Y21.1825
G01 X9.3270 Y21.1980
G01 X9.3344 Y21.2043
G01 X9.3562 Y21.2248
G01 X9.3786 Y21.2503
G01 X9.3985 Y21.2781
G01 X9.4142 Y21.3049
G01 X9.4179 Y21.3122
G01 X9.4282 Y21.3349
G01 X9.4316 Y21.3436
G01 X9.4411 Y21.3717
G01 X9.4487 Y21.4038
G01 X9.4534 Y21.4389
G01 X9.4545 Y21.4683
G01 X9.4544 Y21.4781
G01 X9.4527 Y21.5043
G01 X9.4517 Y21.5122
G01 X9.4471 Y21.5399
G01 X9.4394 Y21.5697
G01 X9.4364 Y21.5790
G01 X9.4255 Y21.6075
G01 X9.4128 Y21.6336
G01 X9.4083 Y21.6416
G01 X9.3930 Y21.6661
G01 X9.3749 Y21.6900
G01 X9.3686 Y21.6974
G01 X9.3485 Y21.7188
G01 X9.1146 Y21.9458
G01 X9.1146 Y22.3132
G01 X9.2498 Y22.4483
G01 X9.2871 Y22.4483
G01 X9.4153 Y22.3163
G01 X9.4154 Y22.1255
G01 X9.4170 Y22.0935
G01 X9.4212 Y22.0646
G01 X9.4228 Y22.0563
G01 X9.4303 Y22.0268
G01 X9.4402 Y21.9987
G01 X9.4434 Y21.9908
G01 X9.4563 Y21.9637
G01 X9.4716 Y21.9378
G01 X9.4771 Y21.9297
G01 X9.4952 Y21.9056
G01 X9.5160 Y21.8825
G01 X9.5395 Y21.8609
G01 X9.5470 Y21.8547
G01 X9.5708 Y21.8372
G01 X9.5992 Y21.8201
G01 X9.6278 Y21.8064
G01 X9.6357 Y21.8032
G01 X9.6638 Y21.7933
G01 X9.6962 Y21.7852
G01 X9.7258 Y21.7806
G01 X9.7356 Y21.7797
G01 X9.7650 Y21.7783
G01 X9.7994 Y21.7800
G01 X9.8319 Y21.7848
G01 X9.8617 Y21.7921
G01 X9.8711 Y21.7949
G01 X9.9011 Y21.8059
G01 X9.9307 Y21.8201
G01 X9.9591 Y21.8372
G01 X9.9876 Y21.8584
G01 X10.0122 Y21.8807
G01 X10.0347 Y21.9056
G01 X10.0557 Y21.9338
G01 X10.0736 Y21.9637
G01 X10.0884 Y21.9952
G01 X10.0996 Y22.0268
G01 X10.1068 Y22.0550
G01 X10.1087 Y22.0646
G01 X10.1131 Y22.0960
G01 X10.1146 Y22.1280
G01 X10.1146 Y22.3132
G01 X10.2498 Y22.4483
G01 X10.2871 Y22.4483
G01 X10.4153 Y22.3163
G01 X10.4153 Y21.9428
G01 X10.1855 Y21.7129
G01 X10.1652 Y21.6903
G01 X10.1471 Y21.6662
G01 X10.1416 Y21.6581
G01 X10.1271 Y21.6337
G01 X10.1115 Y21.6007
G01 X10.1003 Y21.5692
G01 X10.0921 Y21.5363
G01 X10.0870 Y21.5024
G01 X10.0853 Y21.4680
G01 X10.0870 Y21.4335
G01 X10.0921 Y21.3996
G01 X10.1003 Y21.3668
G01 X10.1130 Y21.3318
G01 X10.1249 Y21.3065
G01 X10.1290 Y21.2989
G01 X10.1442 Y21.2738
G01 X10.1620 Y21.2496
G01 X10.1670 Y21.2435
G01 X10.1877 Y21.2207
G01 X10.2105 Y21.2000
G01 X10.2170 Y21.1947
G01 X10.2408 Y21.1772
G01 X10.2659 Y21.1620
G01 X10.2735 Y21.1579
G01 X10.2988 Y21.1459
G01 X10.3338 Y21.1333
G01 X10.3633 Y21.1258
G01 X10.3714 Y21.1242
G01 X10.4005 Y21.1200
G01 X10.4301 Y21.1184
G01 X10.4398 Y21.1184
G01 X10.4694 Y21.1200
G01 X10.5038 Y21.1252
G01 X10.5317 Y21.1321
G01 X10.5411 Y21.1349
G01 X10.5677 Y21.1445
G01 X10.5964 Y21.1579
G01 X10.6037 Y21.1618
G01 X10.6291 Y21.1772
G01 X10.6529 Y21.1947
G01 X10.6594 Y21.2000
G01 X10.6822 Y21.2207
G01 X11.0122 Y21.5507
G01 X11.0330 Y21.5735
G01 X11.0379 Y21.5796
G01 X11.0557 Y21.6038
G01 X11.0728 Y21.6322
G01 X11.0870 Y21.6618
G01 X11.0980 Y21.6919
G01 X11.1003 Y21.6990
G01 X11.1068 Y21.7250
G01 X11.1087 Y21.7346
G01 X11.1129 Y21.7635
G01 X11.1146 Y21.7955
G01 X11.1146 Y22.4581
G01 X11.1130 Y22.4909
G01 X11.1089 Y22.5203
G01 X11.1071 Y22.5297
G01 X11.1003 Y22.5570
G01 X11.0890 Y22.5895
G01 X11.0766 Y22.6165
G01 X11.0725 Y22.6242
G01 X11.0576 Y22.6493
G01 X11.0389 Y22.6753
G01 X11.0158 Y22.7016
G01 X10.6858 Y23.0415
G01 X10.6602 Y23.0653
G01 X10.6364 Y23.0836
G01 X10.6282 Y23.0892
G01 X10.6069 Y23.1023
G01 X10.5982 Y23.1070
G01 X10.5693 Y23.1207
G01 X10.5389 Y23.1318
G01 X10.5048 Y23.1405
G01 X10.4740 Y23.1453
G01 X10.4649 Y23.1462
G01 X10.4350 Y23.1476
G01 X10.1025 Y23.1475
G01 X10.0736 Y23.1461
G01 X10.0659 Y23.1453
G01 X10.0362 Y23.1407
G01 X10.0060 Y23.1332
G01 X9.9723 Y23.1214
G01 X9.9407 Y23.1066
G01 X9.9108 Y23.0887
G01 X9.8870 Y23.0712
G01 X9.8805 Y23.0660
G01 X9.8595 Y23.0469
G01 X9.7687 Y22.9561
G01 X9.6834 Y23.0439
G01 X9.6602 Y23.0653
G01 X9.6333 Y23.0859
G01 X9.6026 Y23.1048
G01 X9.5725 Y23.1194
G01 X9.5389 Y23.1318
G01 X9.5067 Y23.1401
G01 X9.4698 Y23.1458
G01 X9.4375 Y23.1475
G01 X9.1025 Y23.1475
G01 X9.0706 Y23.1459
G01 X9.0414 Y23.1417
G01 X9.0333 Y23.1401
G01 X9.0038 Y23.1326
G01 X8.9723 Y23.1214
G01 X8.9392 Y23.1058
G01 X8.9108 Y23.0887
G01 X8.8870 Y23.0712
G01 X8.8805 Y23.0660
G01 X8.8578 Y23.0452
G01 X8.5178 Y22.7053
G01 X8.4970 Y22.6826
G01 X8.4920 Y22.6765
G01 X8.4742 Y22.6522
G01 X8.4590 Y22.6271
G01 X8.4549 Y22.6195
G01 X8.4415 Y22.5908
G01 X8.4297 Y22.5571
G01 X8.4221 Y22.5264
G01 X8.4176 Y22.4972
G01 X8.4168 Y22.4897
G01 X8.4154 Y22.4605
G01 X8.4154 Y21.7955
G01 X8.4171 Y21.7631
G01 X8.4223 Y21.7287
G01 X8.4311 Y21.6940
G01 X8.4422 Y21.6636
G01 X8.4584 Y21.6299
G01 X8.4765 Y21.6005
G01 X8.4979 Y21.5723
G01 X8.5180 Y21.5506
G01 X8.8624 Y21.2161
G01 X8.8887 Y21.1932
G01 X8.9115 Y21.1768
G01 X8.9190 Y21.1720
G01 X8.9451 Y21.1570
G01 X8.9715 Y21.1449
G01 X8.9806 Y21.1413
G01 X9.0050 Y21.1330
G01 X8.9736 Y21.1220
G01 X8.9473 Y21.1099
G01 X8.9388 Y21.1055
G01 X8.9128 Y21.0900
G01 X8.8905 Y21.0740
G01 X8.8841 Y21.0689
G01 X8.8623 Y21.0497
G01 X8.5180 Y20.7153
G01 X8.4976 Y20.6933
G01 X8.4760 Y20.6648
G01 X8.4582 Y20.6356
G01 X8.4428 Y20.6037
G01 X8.4311 Y20.5719
G01 X8.4223 Y20.5372
G01 X8.4171 Y20.5028
G01 X8.4154 Y20.4704
G01 X8.4153 Y19.7980
G01 X8.4171 Y19.7631
G01 X8.4218 Y19.7310
G01 X8.4296 Y19.6994
G01 X8.4326 Y19.6899
G01 X8.4436 Y19.6604
G01 X8.4584 Y19.6299
G01 X8.4737 Y19.6046
G01 X8.4794 Y19.5964
G01 X8.4979 Y19.5723
G01 X8.5196 Y19.5490
G01 X8.8615 Y19.2171
G01 X8.8835 Y19.1975
G01 X8.8903 Y19.1921
G01 X8.9151 Y19.1744
G01 X8.9432 Y19.1580
G01 X8.9764 Y19.1428
G01 X9.0050 Y19.1330
G01 X8.9736 Y19.1220
G01 X8.9473 Y19.1099
G01 X8.9388 Y19.1055
G01 X8.9128 Y19.0900
G01 X8.8905 Y19.0740
G01 X8.8841 Y19.0689
G01 X8.8623 Y19.0497
G01 X8.5180 Y18.7153
G01 X8.4976 Y18.6933
G01 X8.4761 Y18.6650
G01 X8.4582 Y18.6356
G01 X8.4436 Y18.6055
G01 X8.4311 Y18.5719
G01 X8.4223 Y18.5372
G01 X8.4172 Y18.5035
G01 X8.4154 Y18.4715
G01 X8.4153 Y17.7980
G01 X8.4172 Y17.7624
G01 X8.4223 Y17.7287
G01 X8.4296 Y17.6994
G01 X8.4321 Y17.6912
G01 X8.4411 Y17.6664
G01 X8.4450 Y17.6572
G01 X8.4584 Y17.6299
G01 X8.4765 Y17.6005
G01 X8.4979 Y17.5723
G01 X8.5180 Y17.5506
G01 X8.8615 Y17.2171
G01 X8.8815 Y17.1991
G01 X8.8895 Y17.1927
G01 X8.9108 Y17.1772
G01 X8.9190 Y17.1720
G01 X8.9407 Y17.1593
G01 X8.9472 Y17.1560
G01 X8.9723 Y17.1445
G01 X8.9806 Y17.1413
G01 X9.0050 Y17.1330
G01 X8.9736 Y17.1220
G01 X8.9473 Y17.1099
G01 X8.9388 Y17.1055
G01 X8.9128 Y17.0900
G01 X8.8905 Y17.0740
G01 X8.8841 Y17.0689
G01 X8.8623 Y17.0497
G01 X8.5180 Y16.7153
G01 X8.4976 Y16.6933
G01 X8.4760 Y16.6648
G01 X8.4582 Y16.6356
G01 X8.4428 Y16.6037
G01 X8.4311 Y16.5719
G01 X8.4223 Y16.5372
G01 X8.4171 Y16.5028
G01 X8.4154 Y16.4704
G01 X8.4153 Y15.7980
G01 X8.4171 Y15.7631
G01 X8.4214 Y15.7334
G00 Z0.5000
G00 X9.4148 Y15.0104
G01 F250.00
G01 Z-0.0400
G01 F2500.00
G01 X9.4279 Y15.0197
G01 X9.4509 Y15.0372
G01 X9.4692 Y15.0525
G01 X9.4921 Y15.0738
G01 X9.5013 Y15.0829
G01 X9.5285 Y15.1133
G01 X9.5433 Y15.1315
G01 X9.5685 Y15.1671
G01 X9.5758 Y15.1789
G01 X9.5907 Y15.2046
G01 X9.6008 Y15.2241
G01 X9.6137 Y15.2524
G01 X9.6185 Y15.2639
G01 X9.6231 Y15.2761
G01 X9.6323 Y15.3031
G01 X9.6361 Y15.3155
G01 X9.6391 Y15.3268
G01 X9.6484 Y15.3678
G01 X9.6506 Y15.3810
G01 X9.6546 Y15.4112
G01 X9.6565 Y15.4353
G01 X9.6575 Y15.4651
