(G-CODE GENERATED BY FLATCAM v8.991 - www.flatcam.org - Version Date: 2019/12/30)

(Name: Cncjob_drill_1.0mm)
(Type: G-code from Excellon)
(Units: MM)

(Created on Monday, 13 February 2023 at 22:53)

(Feedrate: 480 mm/min)
(Feedrate rapids 1500 mm/min)

(Z_Cut: -2 mm)
(Z_Move: 1 mm)
(Z Toolchange: 15 mm)
(X,Y Toolchange: None mm)
(Z Start: None mm)
(Z End: 0.5 mm)
(Steps per circle: 64)
(Preprocessor Excellon: default)

(X range:    2.4000 ...   73.3600  mm)
(Y range:    1.9100 ...   63.6000  mm)

(Spindle Speed: 0 RPM)
G21
G90
G94




G01 F480.00
G00 Z1.0000

M03
G4 P1.0
G00 X22.7251 Y18.3681
G01 Z-2.0000
G01 Z0
G00 Z1.0000
G00 X27.2751 Y18.3981
G01 Z-2.0000
G01 Z0
G00 Z1.0000
G00 X27.2751 Y20.9381
G01 Z-2.0000
G01 Z0
G00 Z1.0000
G00 X27.2751 Y23.4781
G01 Z-2.0000
G01 Z0
G00 Z1.0000
G00 X27.2751 Y26.0181
G01 Z-2.0000
G01 Z0
G00 Z1.0000
G00 X27.2751 Y28.5581
G01 Z-2.0000
G01 Z0
G00 Z1.0000
G00 X27.2751 Y31.0981
G01 Z-2.0000
G01 Z0
G00 Z1.0000
G00 X27.2751 Y33.6381
G01 Z-2.0000
G01 Z0
G00 Z1.0000
G00 X27.2751 Y36.1781
G01 Z-2.0000
G01 Z0
G00 Z1.0000
G00 X34.8951 Y36.1781
G01 Z-2.0000
G01 Z0
G00 Z1.0000
G00 X34.8951 Y38.7181
G01 Z-2.0000
G01 Z0
G00 Z1.0000
G00 X34.8951 Y41.2581
G01 Z-2.0000
G01 Z0
G00 Z1.0000
G00 X34.8951 Y43.7981
G01 Z-2.0000
G01 Z0
G00 Z1.0000
G00 X34.8951 Y46.3381
G01 Z-2.0000
G01 Z0
G00 Z1.0000
G00 X34.8951 Y48.8781
G01 Z-2.0000
G01 Z0
G00 Z1.0000
G00 X34.8951 Y51.4181
G01 Z-2.0000
G01 Z0
G00 Z1.0000
G00 X27.2751 Y51.4181
G01 Z-2.0000
G01 Z0
G00 Z1.0000
G00 X27.2751 Y48.8781
G01 Z-2.0000
G01 Z0
G00 Z1.0000
G00 X27.2751 Y46.3381
G01 Z-2.0000
G01 Z0
G00 Z1.0000
G00 X27.2751 Y43.7981
G01 Z-2.0000
G01 Z0
G00 Z1.0000
G00 X27.2751 Y41.2581
G01 Z-2.0000
G01 Z0
G00 Z1.0000
G00 X27.2751 Y38.7181
G01 Z-2.0000
G01 Z0
G00 Z1.0000
G00 X15.8451 Y46.7181
G01 Z-2.0000
G01 Z0
G00 Z1.0000
G00 X26.1451 Y54.1881
G01 Z-2.0000
G01 Z0
G00 Z1.0000
G00 X31.2851 Y63.1481
G01 Z-2.0000
G01 Z0
G00 Z1.0000
G00 X51.1151 Y48.4881
G01 Z-2.0000
G01 Z0
G00 Z1.0000
G00 X53.9451 Y39.2181
G01 Z-2.0000
G01 Z0
G00 Z1.0000
G00 X68.1651 Y43.6681
G01 Z-2.0000
G01 Z0
G00 Z1.0000
G00 X73.7651 Y31.7281
G01 Z-2.0000
G01 Z0
G00 Z1.0000
G00 X66.3851 Y31.7281
G01 Z-2.0000
G01 Z0
G00 Z1.0000
G00 X60.8251 Y25.8681
G01 Z-2.0000
G01 Z0
G00 Z1.0000
G00 X59.1451 Y19.6681
G01 Z-2.0000
G01 Z0
G00 Z1.0000
G00 X59.1451 Y17.1281
G01 Z-2.0000
G01 Z0
G00 Z1.0000
G00 X62.0651 Y4.5481
G01 Z-2.0000
G01 Z0
G00 Z1.0000
G00 X59.5251 Y4.5481
G01 Z-2.0000
G01 Z0
G00 Z1.0000
G00 X56.9851 Y4.5481
G01 Z-2.0000
G01 Z0
G00 Z1.0000
G00 X53.2051 Y25.5881
G01 Z-2.0000
G01 Z0
G00 Z1.0000
G00 X48.2451 Y24.4681
G01 Z-2.0000
G01 Z0
G00 Z1.0000
G00 X39.8451 Y26.8981
G01 Z-2.0000
G01 Z0
G00 Z1.0000
G00 X41.2651 Y29.3981
G01 Z-2.0000
G01 Z0
G00 Z1.0000
G00 X39.8451 Y31.9781
G01 Z-2.0000
G01 Z0
G00 Z1.0000
G00 X34.8951 Y33.6381
G01 Z-2.0000
G01 Z0
G00 Z1.0000
G00 X34.8951 Y31.0981
G01 Z-2.0000
G01 Z0
G00 Z1.0000
G00 X34.8951 Y28.5581
G01 Z-2.0000
G01 Z0
G00 Z1.0000
G00 X34.8951 Y26.0181
G01 Z-2.0000
G01 Z0
G00 Z1.0000
G00 X34.8951 Y23.4781
G01 Z-2.0000
G01 Z0
G00 Z1.0000
G00 X34.8951 Y20.9381
G01 Z-2.0000
G01 Z0
G00 Z1.0000
G00 X34.8951 Y18.3981
G01 Z-2.0000
G01 Z0
G00 Z1.0000
G00 X32.7351 Y9.6281
G01 Z-2.0000
G01 Z0
G00 Z1.0000
M05
G00 Z0.50

