(G-CODE GENERATED BY FLATCAM v8.991 - www.flatcam.org - Version Date: 2019/12/30)

(Name: Cncjob_Milled_Drills)
(Type: G-code from Geometry)
(Units: MM)

(Created on Monday, 13 February 2023 at 22:53)

(TOOL DIAMETER: 1.5 mm)
(Feedrate: 1250.0 mm/min)
(Feedrate_Z: 250.0 mm/min)
(Feedrate rapids 1500.0 mm/min)

(Z_Cut: -1.7 mm)
(Z_Move: 0.5 mm)
(Z Toolchange: 15.0 mm)
(X,Y Toolchange: 0.0000, 0.0000 mm)
(Z Start: 0.5 mm)
(Z End: 15.0 mm)
(Steps per circle: 64)
(Preprocessor Geometry: default)

(X range:    5.2751 ...   74.7351  mm)
(Y range:    5.2881 ...   64.9881  mm)

(Spindle Speed: None RPM)
G21
G90
G94




G01 F1250.00
G00 Z0.5000
G00 Z0.5000
M03
G4 P1.0
G00 X6.9751 Y6.1381
G01 F250.00
G01 Z-0.1000
G01 F1250.00
G01 X6.9710 Y6.0547
G01 X6.9587 Y5.9722
G01 X6.9385 Y5.8913
G01 X6.9104 Y5.8128
G01 X6.8747 Y5.7374
G01 X6.8318 Y5.6658
G01 X6.7821 Y5.5988
G01 X6.7261 Y5.5370
G01 X6.6643 Y5.4810
G01 X6.5973 Y5.4313
G01 X6.5257 Y5.3884
G01 X6.4503 Y5.3528
G01 X6.3718 Y5.3247
G01 X6.2909 Y5.3044
G01 X6.2084 Y5.2921
G01 X6.1251 Y5.2881
G01 X6.0417 Y5.2921
G01 X5.9592 Y5.3044
G01 X5.8783 Y5.3247
G01 X5.7998 Y5.3528
G01 X5.7244 Y5.3884
G01 X5.6528 Y5.4313
G01 X5.5858 Y5.4810
G01 X5.5240 Y5.5370
G01 X5.4680 Y5.5988
G01 X5.4183 Y5.6658
G01 X5.3754 Y5.7374
G01 X5.3398 Y5.8128
G01 X5.3117 Y5.8913
G01 X5.2914 Y5.9722
G01 X5.2792 Y6.0547
G01 X5.2751 Y6.1381
G01 X5.2792 Y6.2214
G01 X5.2914 Y6.3039
G01 X5.3117 Y6.3848
G01 X5.3398 Y6.4633
G01 X5.3754 Y6.5387
G01 X5.4183 Y6.6103
G01 X5.4680 Y6.6773
G01 X5.5240 Y6.7391
G01 X5.5858 Y6.7951
G01 X5.6528 Y6.8448
G01 X5.7244 Y6.8877
G01 X5.7998 Y6.9234
G01 X5.8783 Y6.9515
G01 X5.9592 Y6.9717
G01 X6.0417 Y6.9840
G01 X6.1251 Y6.9881
G01 X6.2084 Y6.9840
G01 X6.2909 Y6.9717
G01 X6.3718 Y6.9515
G01 X6.4503 Y6.9234
G01 X6.5257 Y6.8877
G01 X6.5973 Y6.8448
G01 X6.6643 Y6.7951
G01 X6.7261 Y6.7391
G01 X6.7821 Y6.6773
G01 X6.8318 Y6.6103
G01 X6.8747 Y6.5387
G01 X6.9104 Y6.4633
G01 X6.9385 Y6.3848
G01 X6.9587 Y6.3039
G01 X6.9710 Y6.2214
G01 X6.9751 Y6.1381
G00 X6.9751 Y6.1381
G01 F250.00
G01 Z-0.2000
G01 F1250.00
G01 X6.9710 Y6.0547
G01 X6.9587 Y5.9722
G01 X6.9385 Y5.8913
G01 X6.9104 Y5.8128
G01 X6.8747 Y5.7374
G01 X6.8318 Y5.6658
G01 X6.7821 Y5.5988
G01 X6.7261 Y5.5370
G01 X6.6643 Y5.4810
G01 X6.5973 Y5.4313
G01 X6.5257 Y5.3884
G01 X6.4503 Y5.3528
G01 X6.3718 Y5.3247
G01 X6.2909 Y5.3044
G01 X6.2084 Y5.2921
G01 X6.1251 Y5.2881
G01 X6.0417 Y5.2921
G01 X5.9592 Y5.3044
G01 X5.8783 Y5.3247
G01 X5.7998 Y5.3528
G01 X5.7244 Y5.3884
G01 X5.6528 Y5.4313
G01 X5.5858 Y5.4810
G01 X5.5240 Y5.5370
G01 X5.4680 Y5.5988
G01 X5.4183 Y5.6658
G01 X5.3754 Y5.7374
G01 X5.3398 Y5.8128
G01 X5.3117 Y5.8913
G01 X5.2914 Y5.9722
G01 X5.2792 Y6.0547
G01 X5.2751 Y6.1381
G01 X5.2792 Y6.2214
G01 X5.2914 Y6.3039
G01 X5.3117 Y6.3848
G01 X5.3398 Y6.4633
G01 X5.3754 Y6.5387
G01 X5.4183 Y6.6103
G01 X5.4680 Y6.6773
G01 X5.5240 Y6.7391
G01 X5.5858 Y6.7951
G01 X5.6528 Y6.8448
G01 X5.7244 Y6.8877
G01 X5.7998 Y6.9234
G01 X5.8783 Y6.9515
G01 X5.9592 Y6.9717
G01 X6.0417 Y6.9840
G01 X6.1251 Y6.9881
G01 X6.2084 Y6.9840
G01 X6.2909 Y6.9717
G01 X6.3718 Y6.9515
G01 X6.4503 Y6.9234
G01 X6.5257 Y6.8877
G01 X6.5973 Y6.8448
G01 X6.6643 Y6.7951
G01 X6.7261 Y6.7391
G01 X6.7821 Y6.6773
G01 X6.8318 Y6.6103
G01 X6.8747 Y6.5387
G01 X6.9104 Y6.4633
G01 X6.9385 Y6.3848
G01 X6.9587 Y6.3039
G01 X6.9710 Y6.2214
G01 X6.9751 Y6.1381
G00 X6.9751 Y6.1381
G01 F250.00
G01 Z-0.3000
G01 F1250.00
G01 X6.9710 Y6.0547
G01 X6.9587 Y5.9722
G01 X6.9385 Y5.8913
G01 X6.9104 Y5.8128
G01 X6.8747 Y5.7374
G01 X6.8318 Y5.6658
G01 X6.7821 Y5.5988
G01 X6.7261 Y5.5370
G01 X6.6643 Y5.4810
G01 X6.5973 Y5.4313
G01 X6.5257 Y5.3884
G01 X6.4503 Y5.3528
G01 X6.3718 Y5.3247
G01 X6.2909 Y5.3044
G01 X6.2084 Y5.2921
G01 X6.1251 Y5.2881
G01 X6.0417 Y5.2921
G01 X5.9592 Y5.3044
G01 X5.8783 Y5.3247
G01 X5.7998 Y5.3528
G01 X5.7244 Y5.3884
G01 X5.6528 Y5.4313
G01 X5.5858 Y5.4810
G01 X5.5240 Y5.5370
G01 X5.4680 Y5.5988
G01 X5.4183 Y5.6658
G01 X5.3754 Y5.7374
G01 X5.3398 Y5.8128
G01 X5.3117 Y5.8913
G01 X5.2914 Y5.9722
G01 X5.2792 Y6.0547
G01 X5.2751 Y6.1381
G01 X5.2792 Y6.2214
G01 X5.2914 Y6.3039
G01 X5.3117 Y6.3848
G01 X5.3398 Y6.4633
G01 X5.3754 Y6.5387
G01 X5.4183 Y6.6103
G01 X5.4680 Y6.6773
G01 X5.5240 Y6.7391
G01 X5.5858 Y6.7951
G01 X5.6528 Y6.8448
G01 X5.7244 Y6.8877
G01 X5.7998 Y6.9234
G01 X5.8783 Y6.9515
G01 X5.9592 Y6.9717
G01 X6.0417 Y6.9840
G01 X6.1251 Y6.9881
G01 X6.2084 Y6.9840
G01 X6.2909 Y6.9717
G01 X6.3718 Y6.9515
G01 X6.4503 Y6.9234
G01 X6.5257 Y6.8877
G01 X6.5973 Y6.8448
G01 X6.6643 Y6.7951
G01 X6.7261 Y6.7391
G01 X6.7821 Y6.6773
G01 X6.8318 Y6.6103
G01 X6.8747 Y6.5387
G01 X6.9104 Y6.4633
G01 X6.9385 Y6.3848
G01 X6.9587 Y6.3039
G01 X6.9710 Y6.2214
G01 X6.9751 Y6.1381
G00 X6.9751 Y6.1381
G01 F250.00
G01 Z-0.4000
G01 F1250.00
G01 X6.9710 Y6.0547
G01 X6.9587 Y5.9722
G01 X6.9385 Y5.8913
G01 X6.9104 Y5.8128
G01 X6.8747 Y5.7374
G01 X6.8318 Y5.6658
G01 X6.7821 Y5.5988
G01 X6.7261 Y5.5370
G01 X6.6643 Y5.4810
G01 X6.5973 Y5.4313
G01 X6.5257 Y5.3884
G01 X6.4503 Y5.3528
G01 X6.3718 Y5.3247
G01 X6.2909 Y5.3044
G01 X6.2084 Y5.2921
G01 X6.1251 Y5.2881
G01 X6.0417 Y5.2921
G01 X5.9592 Y5.3044
G01 X5.8783 Y5.3247
G01 X5.7998 Y5.3528
G01 X5.7244 Y5.3884
G01 X5.6528 Y5.4313
G01 X5.5858 Y5.4810
G01 X5.5240 Y5.5370
G01 X5.4680 Y5.5988
G01 X5.4183 Y5.6658
G01 X5.3754 Y5.7374
G01 X5.3398 Y5.8128
G01 X5.3117 Y5.8913
G01 X5.2914 Y5.9722
G01 X5.2792 Y6.0547
G01 X5.2751 Y6.1381
G01 X5.2792 Y6.2214
G01 X5.2914 Y6.3039
G01 X5.3117 Y6.3848
G01 X5.3398 Y6.4633
G01 X5.3754 Y6.5387
G01 X5.4183 Y6.6103
G01 X5.4680 Y6.6773
G01 X5.5240 Y6.7391
G01 X5.5858 Y6.7951
G01 X5.6528 Y6.8448
G01 X5.7244 Y6.8877
G01 X5.7998 Y6.9234
G01 X5.8783 Y6.9515
G01 X5.9592 Y6.9717
G01 X6.0417 Y6.9840
G01 X6.1251 Y6.9881
G01 X6.2084 Y6.9840
G01 X6.2909 Y6.9717
G01 X6.3718 Y6.9515
G01 X6.4503 Y6.9234
G01 X6.5257 Y6.8877
G01 X6.5973 Y6.8448
G01 X6.6643 Y6.7951
G01 X6.7261 Y6.7391
G01 X6.7821 Y6.6773
G01 X6.8318 Y6.6103
G01 X6.8747 Y6.5387
G01 X6.9104 Y6.4633
G01 X6.9385 Y6.3848
G01 X6.9587 Y6.3039
G01 X6.9710 Y6.2214
G01 X6.9751 Y6.1381
G00 X6.9751 Y6.1381
G01 F250.00
G01 Z-0.5000
G01 F1250.00
G01 X6.9710 Y6.0547
G01 X6.9587 Y5.9722
G01 X6.9385 Y5.8913
G01 X6.9104 Y5.8128
G01 X6.8747 Y5.7374
G01 X6.8318 Y5.6658
G01 X6.7821 Y5.5988
G01 X6.7261 Y5.5370
G01 X6.6643 Y5.4810
G01 X6.5973 Y5.4313
G01 X6.5257 Y5.3884
G01 X6.4503 Y5.3528
G01 X6.3718 Y5.3247
G01 X6.2909 Y5.3044
G01 X6.2084 Y5.2921
G01 X6.1251 Y5.2881
G01 X6.0417 Y5.2921
G01 X5.9592 Y5.3044
G01 X5.8783 Y5.3247
G01 X5.7998 Y5.3528
G01 X5.7244 Y5.3884
G01 X5.6528 Y5.4313
G01 X5.5858 Y5.4810
G01 X5.5240 Y5.5370
G01 X5.4680 Y5.5988
G01 X5.4183 Y5.6658
G01 X5.3754 Y5.7374
G01 X5.3398 Y5.8128
G01 X5.3117 Y5.8913
G01 X5.2914 Y5.9722
G01 X5.2792 Y6.0547
G01 X5.2751 Y6.1381
G01 X5.2792 Y6.2214
G01 X5.2914 Y6.3039
G01 X5.3117 Y6.3848
G01 X5.3398 Y6.4633
G01 X5.3754 Y6.5387
G01 X5.4183 Y6.6103
G01 X5.4680 Y6.6773
G01 X5.5240 Y6.7391
G01 X5.5858 Y6.7951
G01 X5.6528 Y6.8448
G01 X5.7244 Y6.8877
G01 X5.7998 Y6.9234
G01 X5.8783 Y6.9515
G01 X5.9592 Y6.9717
G01 X6.0417 Y6.9840
G01 X6.1251 Y6.9881
G01 X6.2084 Y6.9840
G01 X6.2909 Y6.9717
G01 X6.3718 Y6.9515
G01 X6.4503 Y6.9234
G01 X6.5257 Y6.8877
G01 X6.5973 Y6.8448
G01 X6.6643 Y6.7951
G01 X6.7261 Y6.7391
G01 X6.7821 Y6.6773
G01 X6.8318 Y6.6103
G01 X6.8747 Y6.5387
G01 X6.9104 Y6.4633
G01 X6.9385 Y6.3848
G01 X6.9587 Y6.3039
G01 X6.9710 Y6.2214
G01 X6.9751 Y6.1381
G00 X6.9751 Y6.1381
G01 F250.00
G01 Z-0.6000
G01 F1250.00
G01 X6.9710 Y6.0547
G01 X6.9587 Y5.9722
G01 X6.9385 Y5.8913
G01 X6.9104 Y5.8128
G01 X6.8747 Y5.7374
G01 X6.8318 Y5.6658
G01 X6.7821 Y5.5988
G01 X6.7261 Y5.5370
G01 X6.6643 Y5.4810
G01 X6.5973 Y5.4313
G01 X6.5257 Y5.3884
G01 X6.4503 Y5.3528
G01 X6.3718 Y5.3247
G01 X6.2909 Y5.3044
G01 X6.2084 Y5.2921
G01 X6.1251 Y5.2881
G01 X6.0417 Y5.2921
G01 X5.9592 Y5.3044
G01 X5.8783 Y5.3247
G01 X5.7998 Y5.3528
G01 X5.7244 Y5.3884
G01 X5.6528 Y5.4313
G01 X5.5858 Y5.4810
G01 X5.5240 Y5.5370
G01 X5.4680 Y5.5988
G01 X5.4183 Y5.6658
G01 X5.3754 Y5.7374
G01 X5.3398 Y5.8128
G01 X5.3117 Y5.8913
G01 X5.2914 Y5.9722
G01 X5.2792 Y6.0547
G01 X5.2751 Y6.1381
G01 X5.2792 Y6.2214
G01 X5.2914 Y6.3039
G01 X5.3117 Y6.3848
G01 X5.3398 Y6.4633
G01 X5.3754 Y6.5387
G01 X5.4183 Y6.6103
G01 X5.4680 Y6.6773
G01 X5.5240 Y6.7391
G01 X5.5858 Y6.7951
G01 X5.6528 Y6.8448
G01 X5.7244 Y6.8877
G01 X5.7998 Y6.9234
G01 X5.8783 Y6.9515
G01 X5.9592 Y6.9717
G01 X6.0417 Y6.9840
G01 X6.1251 Y6.9881
G01 X6.2084 Y6.9840
G01 X6.2909 Y6.9717
G01 X6.3718 Y6.9515
G01 X6.4503 Y6.9234
G01 X6.5257 Y6.8877
G01 X6.5973 Y6.8448
G01 X6.6643 Y6.7951
G01 X6.7261 Y6.7391
G01 X6.7821 Y6.6773
G01 X6.8318 Y6.6103
G01 X6.8747 Y6.5387
G01 X6.9104 Y6.4633
G01 X6.9385 Y6.3848
G01 X6.9587 Y6.3039
G01 X6.9710 Y6.2214
G01 X6.9751 Y6.1381
G00 X6.9751 Y6.1381
G01 F250.00
G01 Z-0.7000
G01 F1250.00
G01 X6.9710 Y6.0547
G01 X6.9587 Y5.9722
G01 X6.9385 Y5.8913
G01 X6.9104 Y5.8128
G01 X6.8747 Y5.7374
G01 X6.8318 Y5.6658
G01 X6.7821 Y5.5988
G01 X6.7261 Y5.5370
G01 X6.6643 Y5.4810
G01 X6.5973 Y5.4313
G01 X6.5257 Y5.3884
G01 X6.4503 Y5.3528
G01 X6.3718 Y5.3247
G01 X6.2909 Y5.3044
G01 X6.2084 Y5.2921
G01 X6.1251 Y5.2881
G01 X6.0417 Y5.2921
G01 X5.9592 Y5.3044
G01 X5.8783 Y5.3247
G01 X5.7998 Y5.3528
G01 X5.7244 Y5.3884
G01 X5.6528 Y5.4313
G01 X5.5858 Y5.4810
G01 X5.5240 Y5.5370
G01 X5.4680 Y5.5988
G01 X5.4183 Y5.6658
G01 X5.3754 Y5.7374
G01 X5.3398 Y5.8128
G01 X5.3117 Y5.8913
G01 X5.2914 Y5.9722
G01 X5.2792 Y6.0547
G01 X5.2751 Y6.1381
G01 X5.2792 Y6.2214
G01 X5.2914 Y6.3039
G01 X5.3117 Y6.3848
G01 X5.3398 Y6.4633
G01 X5.3754 Y6.5387
G01 X5.4183 Y6.6103
G01 X5.4680 Y6.6773
G01 X5.5240 Y6.7391
G01 X5.5858 Y6.7951
G01 X5.6528 Y6.8448
G01 X5.7244 Y6.8877
G01 X5.7998 Y6.9234
G01 X5.8783 Y6.9515
G01 X5.9592 Y6.9717
G01 X6.0417 Y6.9840
G01 X6.1251 Y6.9881
G01 X6.2084 Y6.9840
G01 X6.2909 Y6.9717
G01 X6.3718 Y6.9515
G01 X6.4503 Y6.9234
G01 X6.5257 Y6.8877
G01 X6.5973 Y6.8448
G01 X6.6643 Y6.7951
G01 X6.7261 Y6.7391
G01 X6.7821 Y6.6773
G01 X6.8318 Y6.6103
G01 X6.8747 Y6.5387
G01 X6.9104 Y6.4633
G01 X6.9385 Y6.3848
G01 X6.9587 Y6.3039
G01 X6.9710 Y6.2214
G01 X6.9751 Y6.1381
G00 X6.9751 Y6.1381
G01 F250.00
G01 Z-0.8000
G01 F1250.00
G01 X6.9710 Y6.0547
G01 X6.9587 Y5.9722
G01 X6.9385 Y5.8913
G01 X6.9104 Y5.8128
G01 X6.8747 Y5.7374
G01 X6.8318 Y5.6658
G01 X6.7821 Y5.5988
G01 X6.7261 Y5.5370
G01 X6.6643 Y5.4810
G01 X6.5973 Y5.4313
G01 X6.5257 Y5.3884
G01 X6.4503 Y5.3528
G01 X6.3718 Y5.3247
G01 X6.2909 Y5.3044
G01 X6.2084 Y5.2921
G01 X6.1251 Y5.2881
G01 X6.0417 Y5.2921
G01 X5.9592 Y5.3044
G01 X5.8783 Y5.3247
G01 X5.7998 Y5.3528
G01 X5.7244 Y5.3884
G01 X5.6528 Y5.4313
G01 X5.5858 Y5.4810
G01 X5.5240 Y5.5370
G01 X5.4680 Y5.5988
G01 X5.4183 Y5.6658
G01 X5.3754 Y5.7374
G01 X5.3398 Y5.8128
G01 X5.3117 Y5.8913
G01 X5.2914 Y5.9722
G01 X5.2792 Y6.0547
G01 X5.2751 Y6.1381
G01 X5.2792 Y6.2214
G01 X5.2914 Y6.3039
G01 X5.3117 Y6.3848
G01 X5.3398 Y6.4633
G01 X5.3754 Y6.5387
G01 X5.4183 Y6.6103
G01 X5.4680 Y6.6773
G01 X5.5240 Y6.7391
G01 X5.5858 Y6.7951
G01 X5.6528 Y6.8448
G01 X5.7244 Y6.8877
G01 X5.7998 Y6.9234
G01 X5.8783 Y6.9515
G01 X5.9592 Y6.9717
G01 X6.0417 Y6.9840
G01 X6.1251 Y6.9881
G01 X6.2084 Y6.9840
G01 X6.2909 Y6.9717
G01 X6.3718 Y6.9515
G01 X6.4503 Y6.9234
G01 X6.5257 Y6.8877
G01 X6.5973 Y6.8448
G01 X6.6643 Y6.7951
G01 X6.7261 Y6.7391
G01 X6.7821 Y6.6773
G01 X6.8318 Y6.6103
G01 X6.8747 Y6.5387
G01 X6.9104 Y6.4633
G01 X6.9385 Y6.3848
G01 X6.9587 Y6.3039
G01 X6.9710 Y6.2214
G01 X6.9751 Y6.1381
G00 X6.9751 Y6.1381
G01 F250.00
G01 Z-0.9000
G01 F1250.00
G01 X6.9710 Y6.0547
G01 X6.9587 Y5.9722
G01 X6.9385 Y5.8913
G01 X6.9104 Y5.8128
G01 X6.8747 Y5.7374
G01 X6.8318 Y5.6658
G01 X6.7821 Y5.5988
G01 X6.7261 Y5.5370
G01 X6.6643 Y5.4810
G01 X6.5973 Y5.4313
G01 X6.5257 Y5.3884
G01 X6.4503 Y5.3528
G01 X6.3718 Y5.3247
G01 X6.2909 Y5.3044
G01 X6.2084 Y5.2921
G01 X6.1251 Y5.2881
G01 X6.0417 Y5.2921
G01 X5.9592 Y5.3044
G01 X5.8783 Y5.3247
G01 X5.7998 Y5.3528
G01 X5.7244 Y5.3884
G01 X5.6528 Y5.4313
G01 X5.5858 Y5.4810
G01 X5.5240 Y5.5370
G01 X5.4680 Y5.5988
G01 X5.4183 Y5.6658
G01 X5.3754 Y5.7374
G01 X5.3398 Y5.8128
G01 X5.3117 Y5.8913
G01 X5.2914 Y5.9722
G01 X5.2792 Y6.0547
G01 X5.2751 Y6.1381
G01 X5.2792 Y6.2214
G01 X5.2914 Y6.3039
G01 X5.3117 Y6.3848
G01 X5.3398 Y6.4633
G01 X5.3754 Y6.5387
G01 X5.4183 Y6.6103
G01 X5.4680 Y6.6773
G01 X5.5240 Y6.7391
G01 X5.5858 Y6.7951
G01 X5.6528 Y6.8448
G01 X5.7244 Y6.8877
G01 X5.7998 Y6.9234
G01 X5.8783 Y6.9515
G01 X5.9592 Y6.9717
G01 X6.0417 Y6.9840
G01 X6.1251 Y6.9881
G01 X6.2084 Y6.9840
G01 X6.2909 Y6.9717
G01 X6.3718 Y6.9515
G01 X6.4503 Y6.9234
G01 X6.5257 Y6.8877
G01 X6.5973 Y6.8448
G01 X6.6643 Y6.7951
G01 X6.7261 Y6.7391
G01 X6.7821 Y6.6773
G01 X6.8318 Y6.6103
G01 X6.8747 Y6.5387
G01 X6.9104 Y6.4633
G01 X6.9385 Y6.3848
G01 X6.9587 Y6.3039
G01 X6.9710 Y6.2214
G01 X6.9751 Y6.1381
G00 X6.9751 Y6.1381
G01 F250.00
G01 Z-1.0000
G01 F1250.00
G01 X6.9710 Y6.0547
G01 X6.9587 Y5.9722
G01 X6.9385 Y5.8913
G01 X6.9104 Y5.8128
G01 X6.8747 Y5.7374
G01 X6.8318 Y5.6658
G01 X6.7821 Y5.5988
G01 X6.7261 Y5.5370
G01 X6.6643 Y5.4810
G01 X6.5973 Y5.4313
G01 X6.5257 Y5.3884
G01 X6.4503 Y5.3528
G01 X6.3718 Y5.3247
G01 X6.2909 Y5.3044
G01 X6.2084 Y5.2921
G01 X6.1251 Y5.2881
G01 X6.0417 Y5.2921
G01 X5.9592 Y5.3044
G01 X5.8783 Y5.3247
G01 X5.7998 Y5.3528
G01 X5.7244 Y5.3884
G01 X5.6528 Y5.4313
G01 X5.5858 Y5.4810
G01 X5.5240 Y5.5370
G01 X5.4680 Y5.5988
G01 X5.4183 Y5.6658
G01 X5.3754 Y5.7374
G01 X5.3398 Y5.8128
G01 X5.3117 Y5.8913
G01 X5.2914 Y5.9722
G01 X5.2792 Y6.0547
G01 X5.2751 Y6.1381
G01 X5.2792 Y6.2214
G01 X5.2914 Y6.3039
G01 X5.3117 Y6.3848
G01 X5.3398 Y6.4633
G01 X5.3754 Y6.5387
G01 X5.4183 Y6.6103
G01 X5.4680 Y6.6773
G01 X5.5240 Y6.7391
G01 X5.5858 Y6.7951
G01 X5.6528 Y6.8448
G01 X5.7244 Y6.8877
G01 X5.7998 Y6.9234
G01 X5.8783 Y6.9515
G01 X5.9592 Y6.9717
G01 X6.0417 Y6.9840
G01 X6.1251 Y6.9881
G01 X6.2084 Y6.9840
G01 X6.2909 Y6.9717
G01 X6.3718 Y6.9515
G01 X6.4503 Y6.9234
G01 X6.5257 Y6.8877
G01 X6.5973 Y6.8448
G01 X6.6643 Y6.7951
G01 X6.7261 Y6.7391
G01 X6.7821 Y6.6773
G01 X6.8318 Y6.6103
G01 X6.8747 Y6.5387
G01 X6.9104 Y6.4633
G01 X6.9385 Y6.3848
G01 X6.9587 Y6.3039
G01 X6.9710 Y6.2214
G01 X6.9751 Y6.1381
G00 X6.9751 Y6.1381
G01 F250.00
G01 Z-1.1000
G01 F1250.00
G01 X6.9710 Y6.0547
G01 X6.9587 Y5.9722
G01 X6.9385 Y5.8913
G01 X6.9104 Y5.8128
G01 X6.8747 Y5.7374
G01 X6.8318 Y5.6658
G01 X6.7821 Y5.5988
G01 X6.7261 Y5.5370
G01 X6.6643 Y5.4810
G01 X6.5973 Y5.4313
G01 X6.5257 Y5.3884
G01 X6.4503 Y5.3528
G01 X6.3718 Y5.3247
G01 X6.2909 Y5.3044
G01 X6.2084 Y5.2921
G01 X6.1251 Y5.2881
G01 X6.0417 Y5.2921
G01 X5.9592 Y5.3044
G01 X5.8783 Y5.3247
G01 X5.7998 Y5.3528
G01 X5.7244 Y5.3884
G01 X5.6528 Y5.4313
G01 X5.5858 Y5.4810
G01 X5.5240 Y5.5370
G01 X5.4680 Y5.5988
G01 X5.4183 Y5.6658
G01 X5.3754 Y5.7374
G01 X5.3398 Y5.8128
G01 X5.3117 Y5.8913
G01 X5.2914 Y5.9722
G01 X5.2792 Y6.0547
G01 X5.2751 Y6.1381
G01 X5.2792 Y6.2214
G01 X5.2914 Y6.3039
G01 X5.3117 Y6.3848
G01 X5.3398 Y6.4633
G01 X5.3754 Y6.5387
G01 X5.4183 Y6.6103
G01 X5.4680 Y6.6773
G01 X5.5240 Y6.7391
G01 X5.5858 Y6.7951
G01 X5.6528 Y6.8448
G01 X5.7244 Y6.8877
G01 X5.7998 Y6.9234
G01 X5.8783 Y6.9515
G01 X5.9592 Y6.9717
G01 X6.0417 Y6.9840
G01 X6.1251 Y6.9881
G01 X6.2084 Y6.9840
G01 X6.2909 Y6.9717
G01 X6.3718 Y6.9515
G01 X6.4503 Y6.9234
G01 X6.5257 Y6.8877
G01 X6.5973 Y6.8448
G01 X6.6643 Y6.7951
G01 X6.7261 Y6.7391
G01 X6.7821 Y6.6773
G01 X6.8318 Y6.6103
G01 X6.8747 Y6.5387
G01 X6.9104 Y6.4633
G01 X6.9385 Y6.3848
G01 X6.9587 Y6.3039
G01 X6.9710 Y6.2214
G01 X6.9751 Y6.1381
G00 X6.9751 Y6.1381
G01 F250.00
G01 Z-1.2000
G01 F1250.00
G01 X6.9710 Y6.0547
G01 X6.9587 Y5.9722
G01 X6.9385 Y5.8913
G01 X6.9104 Y5.8128
G01 X6.8747 Y5.7374
G01 X6.8318 Y5.6658
G01 X6.7821 Y5.5988
G01 X6.7261 Y5.5370
G01 X6.6643 Y5.4810
G01 X6.5973 Y5.4313
G01 X6.5257 Y5.3884
G01 X6.4503 Y5.3528
G01 X6.3718 Y5.3247
G01 X6.2909 Y5.3044
G01 X6.2084 Y5.2921
G01 X6.1251 Y5.2881
G01 X6.0417 Y5.2921
G01 X5.9592 Y5.3044
G01 X5.8783 Y5.3247
G01 X5.7998 Y5.3528
G01 X5.7244 Y5.3884
G01 X5.6528 Y5.4313
G01 X5.5858 Y5.4810
G01 X5.5240 Y5.5370
G01 X5.4680 Y5.5988
G01 X5.4183 Y5.6658
G01 X5.3754 Y5.7374
G01 X5.3398 Y5.8128
G01 X5.3117 Y5.8913
G01 X5.2914 Y5.9722
G01 X5.2792 Y6.0547
G01 X5.2751 Y6.1381
G01 X5.2792 Y6.2214
G01 X5.2914 Y6.3039
G01 X5.3117 Y6.3848
G01 X5.3398 Y6.4633
G01 X5.3754 Y6.5387
G01 X5.4183 Y6.6103
G01 X5.4680 Y6.6773
G01 X5.5240 Y6.7391
G01 X5.5858 Y6.7951
G01 X5.6528 Y6.8448
G01 X5.7244 Y6.8877
G01 X5.7998 Y6.9234
G01 X5.8783 Y6.9515
G01 X5.9592 Y6.9717
G01 X6.0417 Y6.9840
G01 X6.1251 Y6.9881
G01 X6.2084 Y6.9840
G01 X6.2909 Y6.9717
G01 X6.3718 Y6.9515
G01 X6.4503 Y6.9234
G01 X6.5257 Y6.8877
G01 X6.5973 Y6.8448
G01 X6.6643 Y6.7951
G01 X6.7261 Y6.7391
G01 X6.7821 Y6.6773
G01 X6.8318 Y6.6103
G01 X6.8747 Y6.5387
G01 X6.9104 Y6.4633
G01 X6.9385 Y6.3848
G01 X6.9587 Y6.3039
G01 X6.9710 Y6.2214
G01 X6.9751 Y6.1381
G00 X6.9751 Y6.1381
G01 F250.00
G01 Z-1.3000
G01 F1250.00
G01 X6.9710 Y6.0547
G01 X6.9587 Y5.9722
G01 X6.9385 Y5.8913
G01 X6.9104 Y5.8128
G01 X6.8747 Y5.7374
G01 X6.8318 Y5.6658
G01 X6.7821 Y5.5988
G01 X6.7261 Y5.5370
G01 X6.6643 Y5.4810
G01 X6.5973 Y5.4313
G01 X6.5257 Y5.3884
G01 X6.4503 Y5.3528
G01 X6.3718 Y5.3247
G01 X6.2909 Y5.3044
G01 X6.2084 Y5.2921
G01 X6.1251 Y5.2881
G01 X6.0417 Y5.2921
G01 X5.9592 Y5.3044
G01 X5.8783 Y5.3247
G01 X5.7998 Y5.3528
G01 X5.7244 Y5.3884
G01 X5.6528 Y5.4313
G01 X5.5858 Y5.4810
G01 X5.5240 Y5.5370
G01 X5.4680 Y5.5988
G01 X5.4183 Y5.6658
G01 X5.3754 Y5.7374
G01 X5.3398 Y5.8128
G01 X5.3117 Y5.8913
G01 X5.2914 Y5.9722
G01 X5.2792 Y6.0547
G01 X5.2751 Y6.1381
G01 X5.2792 Y6.2214
G01 X5.2914 Y6.3039
G01 X5.3117 Y6.3848
G01 X5.3398 Y6.4633
G01 X5.3754 Y6.5387
G01 X5.4183 Y6.6103
G01 X5.4680 Y6.6773
G01 X5.5240 Y6.7391
G01 X5.5858 Y6.7951
G01 X5.6528 Y6.8448
G01 X5.7244 Y6.8877
G01 X5.7998 Y6.9234
G01 X5.8783 Y6.9515
G01 X5.9592 Y6.9717
G01 X6.0417 Y6.9840
G01 X6.1251 Y6.9881
G01 X6.2084 Y6.9840
G01 X6.2909 Y6.9717
G01 X6.3718 Y6.9515
G01 X6.4503 Y6.9234
G01 X6.5257 Y6.8877
G01 X6.5973 Y6.8448
G01 X6.6643 Y6.7951
G01 X6.7261 Y6.7391
G01 X6.7821 Y6.6773
G01 X6.8318 Y6.6103
G01 X6.8747 Y6.5387
G01 X6.9104 Y6.4633
G01 X6.9385 Y6.3848
G01 X6.9587 Y6.3039
G01 X6.9710 Y6.2214
G01 X6.9751 Y6.1381
G00 X6.9751 Y6.1381
G01 F250.00
G01 Z-1.4000
G01 F1250.00
G01 X6.9710 Y6.0547
G01 X6.9587 Y5.9722
G01 X6.9385 Y5.8913
G01 X6.9104 Y5.8128
G01 X6.8747 Y5.7374
G01 X6.8318 Y5.6658
G01 X6.7821 Y5.5988
G01 X6.7261 Y5.5370
G01 X6.6643 Y5.4810
G01 X6.5973 Y5.4313
G01 X6.5257 Y5.3884
G01 X6.4503 Y5.3528
G01 X6.3718 Y5.3247
G01 X6.2909 Y5.3044
G01 X6.2084 Y5.2921
G01 X6.1251 Y5.2881
G01 X6.0417 Y5.2921
G01 X5.9592 Y5.3044
G01 X5.8783 Y5.3247
G01 X5.7998 Y5.3528
G01 X5.7244 Y5.3884
G01 X5.6528 Y5.4313
G01 X5.5858 Y5.4810
G01 X5.5240 Y5.5370
G01 X5.4680 Y5.5988
G01 X5.4183 Y5.6658
G01 X5.3754 Y5.7374
G01 X5.3398 Y5.8128
G01 X5.3117 Y5.8913
G01 X5.2914 Y5.9722
G01 X5.2792 Y6.0547
G01 X5.2751 Y6.1381
G01 X5.2792 Y6.2214
G01 X5.2914 Y6.3039
G01 X5.3117 Y6.3848
G01 X5.3398 Y6.4633
G01 X5.3754 Y6.5387
G01 X5.4183 Y6.6103
G01 X5.4680 Y6.6773
G01 X5.5240 Y6.7391
G01 X5.5858 Y6.7951
G01 X5.6528 Y6.8448
G01 X5.7244 Y6.8877
G01 X5.7998 Y6.9234
G01 X5.8783 Y6.9515
G01 X5.9592 Y6.9717
G01 X6.0417 Y6.9840
G01 X6.1251 Y6.9881
G01 X6.2084 Y6.9840
G01 X6.2909 Y6.9717
G01 X6.3718 Y6.9515
G01 X6.4503 Y6.9234
G01 X6.5257 Y6.8877
G01 X6.5973 Y6.8448
G01 X6.6643 Y6.7951
G01 X6.7261 Y6.7391
G01 X6.7821 Y6.6773
G01 X6.8318 Y6.6103
G01 X6.8747 Y6.5387
G01 X6.9104 Y6.4633
G01 X6.9385 Y6.3848
G01 X6.9587 Y6.3039
G01 X6.9710 Y6.2214
G01 X6.9751 Y6.1381
G00 X6.9751 Y6.1381
G01 F250.00
G01 Z-1.5000
G01 F1250.00
G01 X6.9710 Y6.0547
G01 X6.9587 Y5.9722
G01 X6.9385 Y5.8913
G01 X6.9104 Y5.8128
G01 X6.8747 Y5.7374
G01 X6.8318 Y5.6658
G01 X6.7821 Y5.5988
G01 X6.7261 Y5.5370
G01 X6.6643 Y5.4810
G01 X6.5973 Y5.4313
G01 X6.5257 Y5.3884
G01 X6.4503 Y5.3528
G01 X6.3718 Y5.3247
G01 X6.2909 Y5.3044
G01 X6.2084 Y5.2921
G01 X6.1251 Y5.2881
G01 X6.0417 Y5.2921
G01 X5.9592 Y5.3044
G01 X5.8783 Y5.3247
G01 X5.7998 Y5.3528
G01 X5.7244 Y5.3884
G01 X5.6528 Y5.4313
G01 X5.5858 Y5.4810
G01 X5.5240 Y5.5370
G01 X5.4680 Y5.5988
G01 X5.4183 Y5.6658
G01 X5.3754 Y5.7374
G01 X5.3398 Y5.8128
G01 X5.3117 Y5.8913
G01 X5.2914 Y5.9722
G01 X5.2792 Y6.0547
G01 X5.2751 Y6.1381
G01 X5.2792 Y6.2214
G01 X5.2914 Y6.3039
G01 X5.3117 Y6.3848
G01 X5.3398 Y6.4633
G01 X5.3754 Y6.5387
G01 X5.4183 Y6.6103
G01 X5.4680 Y6.6773
G01 X5.5240 Y6.7391
G01 X5.5858 Y6.7951
G01 X5.6528 Y6.8448
G01 X5.7244 Y6.8877
G01 X5.7998 Y6.9234
G01 X5.8783 Y6.9515
G01 X5.9592 Y6.9717
G01 X6.0417 Y6.9840
G01 X6.1251 Y6.9881
G01 X6.2084 Y6.9840
G01 X6.2909 Y6.9717
G01 X6.3718 Y6.9515
G01 X6.4503 Y6.9234
G01 X6.5257 Y6.8877
G01 X6.5973 Y6.8448
G01 X6.6643 Y6.7951
G01 X6.7261 Y6.7391
G01 X6.7821 Y6.6773
G01 X6.8318 Y6.6103
G01 X6.8747 Y6.5387
G01 X6.9104 Y6.4633
G01 X6.9385 Y6.3848
G01 X6.9587 Y6.3039
G01 X6.9710 Y6.2214
G01 X6.9751 Y6.1381
G00 X6.9751 Y6.1381
G01 F250.00
G01 Z-1.6000
G01 F1250.00
G01 X6.9710 Y6.0547
G01 X6.9587 Y5.9722
G01 X6.9385 Y5.8913
G01 X6.9104 Y5.8128
G01 X6.8747 Y5.7374
G01 X6.8318 Y5.6658
G01 X6.7821 Y5.5988
G01 X6.7261 Y5.5370
G01 X6.6643 Y5.4810
G01 X6.5973 Y5.4313
G01 X6.5257 Y5.3884
G01 X6.4503 Y5.3528
G01 X6.3718 Y5.3247
G01 X6.2909 Y5.3044
G01 X6.2084 Y5.2921
G01 X6.1251 Y5.2881
G01 X6.0417 Y5.2921
G01 X5.9592 Y5.3044
G01 X5.8783 Y5.3247
G01 X5.7998 Y5.3528
G01 X5.7244 Y5.3884
G01 X5.6528 Y5.4313
G01 X5.5858 Y5.4810
G01 X5.5240 Y5.5370
G01 X5.4680 Y5.5988
G01 X5.4183 Y5.6658
G01 X5.3754 Y5.7374
G01 X5.3398 Y5.8128
G01 X5.3117 Y5.8913
G01 X5.2914 Y5.9722
G01 X5.2792 Y6.0547
G01 X5.2751 Y6.1381
G01 X5.2792 Y6.2214
G01 X5.2914 Y6.3039
G01 X5.3117 Y6.3848
G01 X5.3398 Y6.4633
G01 X5.3754 Y6.5387
G01 X5.4183 Y6.6103
G01 X5.4680 Y6.6773
G01 X5.5240 Y6.7391
G01 X5.5858 Y6.7951
G01 X5.6528 Y6.8448
G01 X5.7244 Y6.8877
G01 X5.7998 Y6.9234
G01 X5.8783 Y6.9515
G01 X5.9592 Y6.9717
G01 X6.0417 Y6.9840
G01 X6.1251 Y6.9881
G01 X6.2084 Y6.9840
G01 X6.2909 Y6.9717
G01 X6.3718 Y6.9515
G01 X6.4503 Y6.9234
G01 X6.5257 Y6.8877
G01 X6.5973 Y6.8448
G01 X6.6643 Y6.7951
G01 X6.7261 Y6.7391
G01 X6.7821 Y6.6773
G01 X6.8318 Y6.6103
G01 X6.8747 Y6.5387
G01 X6.9104 Y6.4633
G01 X6.9385 Y6.3848
G01 X6.9587 Y6.3039
G01 X6.9710 Y6.2214
G01 X6.9751 Y6.1381
G00 X6.9751 Y6.1381
G01 F250.00
G01 Z-1.7000
G01 F1250.00
G01 X6.9710 Y6.0547
G01 X6.9587 Y5.9722
G01 X6.9385 Y5.8913
G01 X6.9104 Y5.8128
G01 X6.8747 Y5.7374
G01 X6.8318 Y5.6658
G01 X6.7821 Y5.5988
G01 X6.7261 Y5.5370
G01 X6.6643 Y5.4810
G01 X6.5973 Y5.4313
G01 X6.5257 Y5.3884
G01 X6.4503 Y5.3528
G01 X6.3718 Y5.3247
G01 X6.2909 Y5.3044
G01 X6.2084 Y5.2921
G01 X6.1251 Y5.2881
G01 X6.0417 Y5.2921
G01 X5.9592 Y5.3044
G01 X5.8783 Y5.3247
G01 X5.7998 Y5.3528
G01 X5.7244 Y5.3884
G01 X5.6528 Y5.4313
G01 X5.5858 Y5.4810
G01 X5.5240 Y5.5370
G01 X5.4680 Y5.5988
G01 X5.4183 Y5.6658
G01 X5.3754 Y5.7374
G01 X5.3398 Y5.8128
G01 X5.3117 Y5.8913
G01 X5.2914 Y5.9722
G01 X5.2792 Y6.0547
G01 X5.2751 Y6.1381
G01 X5.2792 Y6.2214
G01 X5.2914 Y6.3039
G01 X5.3117 Y6.3848
G01 X5.3398 Y6.4633
G01 X5.3754 Y6.5387
G01 X5.4183 Y6.6103
G01 X5.4680 Y6.6773
G01 X5.5240 Y6.7391
G01 X5.5858 Y6.7951
G01 X5.6528 Y6.8448
G01 X5.7244 Y6.8877
G01 X5.7998 Y6.9234
G01 X5.8783 Y6.9515
G01 X5.9592 Y6.9717
G01 X6.0417 Y6.9840
G01 X6.1251 Y6.9881
G01 X6.2084 Y6.9840
G01 X6.2909 Y6.9717
G01 X6.3718 Y6.9515
G01 X6.4503 Y6.9234
G01 X6.5257 Y6.8877
G01 X6.5973 Y6.8448
G01 X6.6643 Y6.7951
G01 X6.7261 Y6.7391
G01 X6.7821 Y6.6773
G01 X6.8318 Y6.6103
G01 X6.8747 Y6.5387
G01 X6.9104 Y6.4633
G01 X6.9385 Y6.3848
G01 X6.9587 Y6.3039
G01 X6.9710 Y6.2214
G01 X6.9751 Y6.1381
G00 Z0.5000
G00 X25.0151 Y6.7181
G01 F250.00
G01 Z-0.1000
G01 F1250.00
G01 X25.0151 Y6.7181
G01 X25.0151 Y6.7181
G01 X25.0151 Y6.7181
G01 X25.0151 Y6.7181
G00 X25.0151 Y6.7181
G01 F250.00
G01 Z-0.2000
G01 F1250.00
G01 X25.0151 Y6.7181
G01 X25.0151 Y6.7181
G01 X25.0151 Y6.7181
G01 X25.0151 Y6.7181
G00 X25.0151 Y6.7181
G01 F250.00
G01 Z-0.3000
G01 F1250.00
G01 X25.0151 Y6.7181
G01 X25.0151 Y6.7181
G01 X25.0151 Y6.7181
G01 X25.0151 Y6.7181
G00 X25.0151 Y6.7181
G01 F250.00
G01 Z-0.4000
G01 F1250.00
G01 X25.0151 Y6.7181
G01 X25.0151 Y6.7181
G01 X25.0151 Y6.7181
G01 X25.0151 Y6.7181
G00 X25.0151 Y6.7181
G01 F250.00
G01 Z-0.5000
G01 F1250.00
G01 X25.0151 Y6.7181
G01 X25.0151 Y6.7181
G01 X25.0151 Y6.7181
G01 X25.0151 Y6.7181
G00 X25.0151 Y6.7181
G01 F250.00
G01 Z-0.6000
G01 F1250.00
G01 X25.0151 Y6.7181
G01 X25.0151 Y6.7181
G01 X25.0151 Y6.7181
G01 X25.0151 Y6.7181
G00 X25.0151 Y6.7181
G01 F250.00
G01 Z-0.7000
G01 F1250.00
G01 X25.0151 Y6.7181
G01 X25.0151 Y6.7181
G01 X25.0151 Y6.7181
G01 X25.0151 Y6.7181
G00 X25.0151 Y6.7181
G01 F250.00
G01 Z-0.8000
G01 F1250.00
G01 X25.0151 Y6.7181
G01 X25.0151 Y6.7181
G01 X25.0151 Y6.7181
G01 X25.0151 Y6.7181
G00 X25.0151 Y6.7181
G01 F250.00
G01 Z-0.9000
G01 F1250.00
G01 X25.0151 Y6.7181
G01 X25.0151 Y6.7181
G01 X25.0151 Y6.7181
G01 X25.0151 Y6.7181
G00 X25.0151 Y6.7181
G01 F250.00
G01 Z-1.0000
G01 F1250.00
G01 X25.0151 Y6.7181
G01 X25.0151 Y6.7181
G01 X25.0151 Y6.7181
G01 X25.0151 Y6.7181
G00 X25.0151 Y6.7181
G01 F250.00
G01 Z-1.1000
G01 F1250.00
G01 X25.0151 Y6.7181
G01 X25.0151 Y6.7181
G01 X25.0151 Y6.7181
G01 X25.0151 Y6.7181
G00 X25.0151 Y6.7181
G01 F250.00
G01 Z-1.2000
G01 F1250.00
G01 X25.0151 Y6.7181
G01 X25.0151 Y6.7181
G01 X25.0151 Y6.7181
G01 X25.0151 Y6.7181
G00 X25.0151 Y6.7181
G01 F250.00
G01 Z-1.3000
G01 F1250.00
G01 X25.0151 Y6.7181
G01 X25.0151 Y6.7181
G01 X25.0151 Y6.7181
G01 X25.0151 Y6.7181
G00 X25.0151 Y6.7181
G01 F250.00
G01 Z-1.4000
G01 F1250.00
G01 X25.0151 Y6.7181
G01 X25.0151 Y6.7181
G01 X25.0151 Y6.7181
G01 X25.0151 Y6.7181
G00 X25.0151 Y6.7181
G01 F250.00
G01 Z-1.5000
G01 F1250.00
G01 X25.0151 Y6.7181
G01 X25.0151 Y6.7181
G01 X25.0151 Y6.7181
G01 X25.0151 Y6.7181
G00 X25.0151 Y6.7181
G01 F250.00
G01 Z-1.6000
G01 F1250.00
G01 X25.0151 Y6.7181
G01 X25.0151 Y6.7181
G01 X25.0151 Y6.7181
G01 X25.0151 Y6.7181
G00 X25.0151 Y6.7181
G01 F250.00
G01 Z-1.7000
G01 F1250.00
G01 X25.0151 Y6.7181
G01 X25.0151 Y6.7181
G01 X25.0151 Y6.7181
G01 X25.0151 Y6.7181
G00 Z0.5000
G00 X25.0151 Y11.7981
G01 F250.00
G01 Z-0.1000
G01 F1250.00
G01 X25.0151 Y11.7981
G01 X25.0151 Y11.7981
G01 X25.0151 Y11.7981
G01 X25.0151 Y11.7981
G00 X25.0151 Y11.7981
G01 F250.00
G01 Z-0.2000
G01 F1250.00
G01 X25.0151 Y11.7981
G01 X25.0151 Y11.7981
G01 X25.0151 Y11.7981
G01 X25.0151 Y11.7981
G00 X25.0151 Y11.7981
G01 F250.00
G01 Z-0.3000
G01 F1250.00
G01 X25.0151 Y11.7981
G01 X25.0151 Y11.7981
G01 X25.0151 Y11.7981
G01 X25.0151 Y11.7981
G00 X25.0151 Y11.7981
G01 F250.00
G01 Z-0.4000
G01 F1250.00
G01 X25.0151 Y11.7981
G01 X25.0151 Y11.7981
G01 X25.0151 Y11.7981
G01 X25.0151 Y11.7981
G00 X25.0151 Y11.7981
G01 F250.00
G01 Z-0.5000
G01 F1250.00
G01 X25.0151 Y11.7981
G01 X25.0151 Y11.7981
G01 X25.0151 Y11.7981
G01 X25.0151 Y11.7981
G00 X25.0151 Y11.7981
G01 F250.00
G01 Z-0.6000
G01 F1250.00
G01 X25.0151 Y11.7981
G01 X25.0151 Y11.7981
G01 X25.0151 Y11.7981
G01 X25.0151 Y11.7981
G00 X25.0151 Y11.7981
G01 F250.00
G01 Z-0.7000
G01 F1250.00
G01 X25.0151 Y11.7981
G01 X25.0151 Y11.7981
G01 X25.0151 Y11.7981
G01 X25.0151 Y11.7981
G00 X25.0151 Y11.7981
G01 F250.00
G01 Z-0.8000
G01 F1250.00
G01 X25.0151 Y11.7981
G01 X25.0151 Y11.7981
G01 X25.0151 Y11.7981
G01 X25.0151 Y11.7981
G00 X25.0151 Y11.7981
G01 F250.00
G01 Z-0.9000
G01 F1250.00
G01 X25.0151 Y11.7981
G01 X25.0151 Y11.7981
G01 X25.0151 Y11.7981
G01 X25.0151 Y11.7981
G00 X25.0151 Y11.7981
G01 F250.00
G01 Z-1.0000
G01 F1250.00
G01 X25.0151 Y11.7981
G01 X25.0151 Y11.7981
G01 X25.0151 Y11.7981
G01 X25.0151 Y11.7981
G00 X25.0151 Y11.7981
G01 F250.00
G01 Z-1.1000
G01 F1250.00
G01 X25.0151 Y11.7981
G01 X25.0151 Y11.7981
G01 X25.0151 Y11.7981
G01 X25.0151 Y11.7981
G00 X25.0151 Y11.7981
G01 F250.00
G01 Z-1.2000
G01 F1250.00
G01 X25.0151 Y11.7981
G01 X25.0151 Y11.7981
G01 X25.0151 Y11.7981
G01 X25.0151 Y11.7981
G00 X25.0151 Y11.7981
G01 F250.00
G01 Z-1.3000
G01 F1250.00
G01 X25.0151 Y11.7981
G01 X25.0151 Y11.7981
G01 X25.0151 Y11.7981
G01 X25.0151 Y11.7981
G00 X25.0151 Y11.7981
G01 F250.00
G01 Z-1.4000
G01 F1250.00
G01 X25.0151 Y11.7981
G01 X25.0151 Y11.7981
G01 X25.0151 Y11.7981
G01 X25.0151 Y11.7981
G00 X25.0151 Y11.7981
G01 F250.00
G01 Z-1.5000
G01 F1250.00
G01 X25.0151 Y11.7981
G01 X25.0151 Y11.7981
G01 X25.0151 Y11.7981
G01 X25.0151 Y11.7981
G00 X25.0151 Y11.7981
G01 F250.00
G01 Z-1.6000
G01 F1250.00
G01 X25.0151 Y11.7981
G01 X25.0151 Y11.7981
G01 X25.0151 Y11.7981
G01 X25.0151 Y11.7981
G00 X25.0151 Y11.7981
G01 F250.00
G01 Z-1.7000
G01 F1250.00
G01 X25.0151 Y11.7981
G01 X25.0151 Y11.7981
G01 X25.0151 Y11.7981
G01 X25.0151 Y11.7981
G00 Z0.5000
G00 X37.5151 Y11.7981
G01 F250.00
G01 Z-0.1000
G01 F1250.00
G01 X37.5151 Y11.7981
G01 X37.5151 Y11.7981
G01 X37.5151 Y11.7981
G01 X37.5151 Y11.7981
G00 X37.5151 Y11.7981
G01 F250.00
G01 Z-0.2000
G01 F1250.00
G01 X37.5151 Y11.7981
G01 X37.5151 Y11.7981
G01 X37.5151 Y11.7981
G01 X37.5151 Y11.7981
G00 X37.5151 Y11.7981
G01 F250.00
G01 Z-0.3000
G01 F1250.00
G01 X37.5151 Y11.7981
G01 X37.5151 Y11.7981
G01 X37.5151 Y11.7981
G01 X37.5151 Y11.7981
G00 X37.5151 Y11.7981
G01 F250.00
G01 Z-0.4000
G01 F1250.00
G01 X37.5151 Y11.7981
G01 X37.5151 Y11.7981
G01 X37.5151 Y11.7981
G01 X37.5151 Y11.7981
G00 X37.5151 Y11.7981
G01 F250.00
G01 Z-0.5000
G01 F1250.00
G01 X37.5151 Y11.7981
G01 X37.5151 Y11.7981
G01 X37.5151 Y11.7981
G01 X37.5151 Y11.7981
G00 X37.5151 Y11.7981
G01 F250.00
G01 Z-0.6000
G01 F1250.00
G01 X37.5151 Y11.7981
G01 X37.5151 Y11.7981
G01 X37.5151 Y11.7981
G01 X37.5151 Y11.7981
G00 X37.5151 Y11.7981
G01 F250.00
G01 Z-0.7000
G01 F1250.00
G01 X37.5151 Y11.7981
G01 X37.5151 Y11.7981
G01 X37.5151 Y11.7981
G01 X37.5151 Y11.7981
G00 X37.5151 Y11.7981
G01 F250.00
G01 Z-0.8000
G01 F1250.00
G01 X37.5151 Y11.7981
G01 X37.5151 Y11.7981
G01 X37.5151 Y11.7981
G01 X37.5151 Y11.7981
G00 X37.5151 Y11.7981
G01 F250.00
G01 Z-0.9000
G01 F1250.00
G01 X37.5151 Y11.7981
G01 X37.5151 Y11.7981
G01 X37.5151 Y11.7981
G01 X37.5151 Y11.7981
G00 X37.5151 Y11.7981
G01 F250.00
G01 Z-1.0000
G01 F1250.00
G01 X37.5151 Y11.7981
G01 X37.5151 Y11.7981
G01 X37.5151 Y11.7981
G01 X37.5151 Y11.7981
G00 X37.5151 Y11.7981
G01 F250.00
G01 Z-1.1000
G01 F1250.00
G01 X37.5151 Y11.7981
G01 X37.5151 Y11.7981
G01 X37.5151 Y11.7981
G01 X37.5151 Y11.7981
G00 X37.5151 Y11.7981
G01 F250.00
G01 Z-1.2000
G01 F1250.00
G01 X37.5151 Y11.7981
G01 X37.5151 Y11.7981
G01 X37.5151 Y11.7981
G01 X37.5151 Y11.7981
G00 X37.5151 Y11.7981
G01 F250.00
G01 Z-1.3000
G01 F1250.00
G01 X37.5151 Y11.7981
G01 X37.5151 Y11.7981
G01 X37.5151 Y11.7981
G01 X37.5151 Y11.7981
G00 X37.5151 Y11.7981
G01 F250.00
G01 Z-1.4000
G01 F1250.00
G01 X37.5151 Y11.7981
G01 X37.5151 Y11.7981
G01 X37.5151 Y11.7981
G01 X37.5151 Y11.7981
G00 X37.5151 Y11.7981
G01 F250.00
G01 Z-1.5000
G01 F1250.00
G01 X37.5151 Y11.7981
G01 X37.5151 Y11.7981
G01 X37.5151 Y11.7981
G01 X37.5151 Y11.7981
G00 X37.5151 Y11.7981
G01 F250.00
G01 Z-1.6000
G01 F1250.00
G01 X37.5151 Y11.7981
G01 X37.5151 Y11.7981
G01 X37.5151 Y11.7981
G01 X37.5151 Y11.7981
G00 X37.5151 Y11.7981
G01 F250.00
G01 Z-1.7000
G01 F1250.00
G01 X37.5151 Y11.7981
G01 X37.5151 Y11.7981
G01 X37.5151 Y11.7981
G01 X37.5151 Y11.7981
G00 Z0.5000
G00 X37.5151 Y6.7181
G01 F250.00
G01 Z-0.1000
G01 F1250.00
G01 X37.5151 Y6.7181
G01 X37.5151 Y6.7181
G01 X37.5151 Y6.7181
G01 X37.5151 Y6.7181
G00 X37.5151 Y6.7181
G01 F250.00
G01 Z-0.2000
G01 F1250.00
G01 X37.5151 Y6.7181
G01 X37.5151 Y6.7181
G01 X37.5151 Y6.7181
G01 X37.5151 Y6.7181
G00 X37.5151 Y6.7181
G01 F250.00
G01 Z-0.3000
G01 F1250.00
G01 X37.5151 Y6.7181
G01 X37.5151 Y6.7181
G01 X37.5151 Y6.7181
G01 X37.5151 Y6.7181
G00 X37.5151 Y6.7181
G01 F250.00
G01 Z-0.4000
G01 F1250.00
G01 X37.5151 Y6.7181
G01 X37.5151 Y6.7181
G01 X37.5151 Y6.7181
G01 X37.5151 Y6.7181
G00 X37.5151 Y6.7181
G01 F250.00
G01 Z-0.5000
G01 F1250.00
G01 X37.5151 Y6.7181
G01 X37.5151 Y6.7181
G01 X37.5151 Y6.7181
G01 X37.5151 Y6.7181
G00 X37.5151 Y6.7181
G01 F250.00
G01 Z-0.6000
G01 F1250.00
G01 X37.5151 Y6.7181
G01 X37.5151 Y6.7181
G01 X37.5151 Y6.7181
G01 X37.5151 Y6.7181
G00 X37.5151 Y6.7181
G01 F250.00
G01 Z-0.7000
G01 F1250.00
G01 X37.5151 Y6.7181
G01 X37.5151 Y6.7181
G01 X37.5151 Y6.7181
G01 X37.5151 Y6.7181
G00 X37.5151 Y6.7181
G01 F250.00
G01 Z-0.8000
G01 F1250.00
G01 X37.5151 Y6.7181
G01 X37.5151 Y6.7181
G01 X37.5151 Y6.7181
G01 X37.5151 Y6.7181
G00 X37.5151 Y6.7181
G01 F250.00
G01 Z-0.9000
G01 F1250.00
G01 X37.5151 Y6.7181
G01 X37.5151 Y6.7181
G01 X37.5151 Y6.7181
G01 X37.5151 Y6.7181
G00 X37.5151 Y6.7181
G01 F250.00
G01 Z-1.0000
G01 F1250.00
G01 X37.5151 Y6.7181
G01 X37.5151 Y6.7181
G01 X37.5151 Y6.7181
G01 X37.5151 Y6.7181
G00 X37.5151 Y6.7181
G01 F250.00
G01 Z-1.1000
G01 F1250.00
G01 X37.5151 Y6.7181
G01 X37.5151 Y6.7181
G01 X37.5151 Y6.7181
G01 X37.5151 Y6.7181
G00 X37.5151 Y6.7181
G01 F250.00
G01 Z-1.2000
G01 F1250.00
G01 X37.5151 Y6.7181
G01 X37.5151 Y6.7181
G01 X37.5151 Y6.7181
G01 X37.5151 Y6.7181
G00 X37.5151 Y6.7181
G01 F250.00
G01 Z-1.3000
G01 F1250.00
G01 X37.5151 Y6.7181
G01 X37.5151 Y6.7181
G01 X37.5151 Y6.7181
G01 X37.5151 Y6.7181
G00 X37.5151 Y6.7181
G01 F250.00
G01 Z-1.4000
G01 F1250.00
G01 X37.5151 Y6.7181
G01 X37.5151 Y6.7181
G01 X37.5151 Y6.7181
G01 X37.5151 Y6.7181
G00 X37.5151 Y6.7181
G01 F250.00
G01 Z-1.5000
G01 F1250.00
G01 X37.5151 Y6.7181
G01 X37.5151 Y6.7181
G01 X37.5151 Y6.7181
G01 X37.5151 Y6.7181
G00 X37.5151 Y6.7181
G01 F250.00
G01 Z-1.6000
G01 F1250.00
G01 X37.5151 Y6.7181
G01 X37.5151 Y6.7181
G01 X37.5151 Y6.7181
G01 X37.5151 Y6.7181
G00 X37.5151 Y6.7181
G01 F250.00
G01 Z-1.7000
G01 F1250.00
G01 X37.5151 Y6.7181
G01 X37.5151 Y6.7181
G01 X37.5151 Y6.7181
G01 X37.5151 Y6.7181
G00 Z0.5000
G00 X51.1851 Y30.5181
G01 F250.00
G01 Z-0.1000
G01 F1250.00
G01 X51.1851 Y30.5181
G01 X51.1851 Y30.5181
G01 X51.1851 Y30.5181
G01 X51.1851 Y30.5181
G00 X51.1851 Y30.5181
G01 F250.00
G01 Z-0.2000
G01 F1250.00
G01 X51.1851 Y30.5181
G01 X51.1851 Y30.5181
G01 X51.1851 Y30.5181
G01 X51.1851 Y30.5181
G00 X51.1851 Y30.5181
G01 F250.00
G01 Z-0.3000
G01 F1250.00
G01 X51.1851 Y30.5181
G01 X51.1851 Y30.5181
G01 X51.1851 Y30.5181
G01 X51.1851 Y30.5181
G00 X51.1851 Y30.5181
G01 F250.00
G01 Z-0.4000
G01 F1250.00
G01 X51.1851 Y30.5181
G01 X51.1851 Y30.5181
G01 X51.1851 Y30.5181
G01 X51.1851 Y30.5181
G00 X51.1851 Y30.5181
G01 F250.00
G01 Z-0.5000
G01 F1250.00
G01 X51.1851 Y30.5181
G01 X51.1851 Y30.5181
G01 X51.1851 Y30.5181
G01 X51.1851 Y30.5181
G00 X51.1851 Y30.5181
G01 F250.00
G01 Z-0.6000
G01 F1250.00
G01 X51.1851 Y30.5181
G01 X51.1851 Y30.5181
G01 X51.1851 Y30.5181
G01 X51.1851 Y30.5181
G00 X51.1851 Y30.5181
G01 F250.00
G01 Z-0.7000
G01 F1250.00
G01 X51.1851 Y30.5181
G01 X51.1851 Y30.5181
G01 X51.1851 Y30.5181
G01 X51.1851 Y30.5181
G00 X51.1851 Y30.5181
G01 F250.00
G01 Z-0.8000
G01 F1250.00
G01 X51.1851 Y30.5181
G01 X51.1851 Y30.5181
G01 X51.1851 Y30.5181
G01 X51.1851 Y30.5181
G00 X51.1851 Y30.5181
G01 F250.00
G01 Z-0.9000
G01 F1250.00
G01 X51.1851 Y30.5181
G01 X51.1851 Y30.5181
G01 X51.1851 Y30.5181
G01 X51.1851 Y30.5181
G00 X51.1851 Y30.5181
G01 F250.00
G01 Z-1.0000
G01 F1250.00
G01 X51.1851 Y30.5181
G01 X51.1851 Y30.5181
G01 X51.1851 Y30.5181
G01 X51.1851 Y30.5181
G00 X51.1851 Y30.5181
G01 F250.00
G01 Z-1.1000
G01 F1250.00
G01 X51.1851 Y30.5181
G01 X51.1851 Y30.5181
G01 X51.1851 Y30.5181
G01 X51.1851 Y30.5181
G00 X51.1851 Y30.5181
G01 F250.00
G01 Z-1.2000
G01 F1250.00
G01 X51.1851 Y30.5181
G01 X51.1851 Y30.5181
G01 X51.1851 Y30.5181
G01 X51.1851 Y30.5181
G00 X51.1851 Y30.5181
G01 F250.00
G01 Z-1.3000
G01 F1250.00
G01 X51.1851 Y30.5181
G01 X51.1851 Y30.5181
G01 X51.1851 Y30.5181
G01 X51.1851 Y30.5181
G00 X51.1851 Y30.5181
G01 F250.00
G01 Z-1.4000
G01 F1250.00
G01 X51.1851 Y30.5181
G01 X51.1851 Y30.5181
G01 X51.1851 Y30.5181
G01 X51.1851 Y30.5181
G00 X51.1851 Y30.5181
G01 F250.00
G01 Z-1.5000
G01 F1250.00
G01 X51.1851 Y30.5181
G01 X51.1851 Y30.5181
G01 X51.1851 Y30.5181
G01 X51.1851 Y30.5181
G00 X51.1851 Y30.5181
G01 F250.00
G01 Z-1.6000
G01 F1250.00
G01 X51.1851 Y30.5181
G01 X51.1851 Y30.5181
G01 X51.1851 Y30.5181
G01 X51.1851 Y30.5181
G00 X51.1851 Y30.5181
G01 F250.00
G01 Z-1.7000
G01 F1250.00
G01 X51.1851 Y30.5181
G01 X51.1851 Y30.5181
G01 X51.1851 Y30.5181
G01 X51.1851 Y30.5181
G00 Z0.5000
G00 X56.2651 Y30.5181
G01 F250.00
G01 Z-0.1000
G01 F1250.00
G01 X56.2651 Y30.5181
G01 X56.2651 Y30.5181
G01 X56.2651 Y30.5181
G01 X56.2651 Y30.5181
G00 X56.2651 Y30.5181
G01 F250.00
G01 Z-0.2000
G01 F1250.00
G01 X56.2651 Y30.5181
G01 X56.2651 Y30.5181
G01 X56.2651 Y30.5181
G01 X56.2651 Y30.5181
G00 X56.2651 Y30.5181
G01 F250.00
G01 Z-0.3000
G01 F1250.00
G01 X56.2651 Y30.5181
G01 X56.2651 Y30.5181
G01 X56.2651 Y30.5181
G01 X56.2651 Y30.5181
G00 X56.2651 Y30.5181
G01 F250.00
G01 Z-0.4000
G01 F1250.00
G01 X56.2651 Y30.5181
G01 X56.2651 Y30.5181
G01 X56.2651 Y30.5181
G01 X56.2651 Y30.5181
G00 X56.2651 Y30.5181
G01 F250.00
G01 Z-0.5000
G01 F1250.00
G01 X56.2651 Y30.5181
G01 X56.2651 Y30.5181
G01 X56.2651 Y30.5181
G01 X56.2651 Y30.5181
G00 X56.2651 Y30.5181
G01 F250.00
G01 Z-0.6000
G01 F1250.00
G01 X56.2651 Y30.5181
G01 X56.2651 Y30.5181
G01 X56.2651 Y30.5181
G01 X56.2651 Y30.5181
G00 X56.2651 Y30.5181
G01 F250.00
G01 Z-0.7000
G01 F1250.00
G01 X56.2651 Y30.5181
G01 X56.2651 Y30.5181
G01 X56.2651 Y30.5181
G01 X56.2651 Y30.5181
G00 X56.2651 Y30.5181
G01 F250.00
G01 Z-0.8000
G01 F1250.00
G01 X56.2651 Y30.5181
G01 X56.2651 Y30.5181
G01 X56.2651 Y30.5181
G01 X56.2651 Y30.5181
G00 X56.2651 Y30.5181
G01 F250.00
G01 Z-0.9000
G01 F1250.00
G01 X56.2651 Y30.5181
G01 X56.2651 Y30.5181
G01 X56.2651 Y30.5181
G01 X56.2651 Y30.5181
G00 X56.2651 Y30.5181
G01 F250.00
G01 Z-1.0000
G01 F1250.00
G01 X56.2651 Y30.5181
G01 X56.2651 Y30.5181
G01 X56.2651 Y30.5181
G01 X56.2651 Y30.5181
G00 X56.2651 Y30.5181
G01 F250.00
G01 Z-1.1000
G01 F1250.00
G01 X56.2651 Y30.5181
G01 X56.2651 Y30.5181
G01 X56.2651 Y30.5181
G01 X56.2651 Y30.5181
G00 X56.2651 Y30.5181
G01 F250.00
G01 Z-1.2000
G01 F1250.00
G01 X56.2651 Y30.5181
G01 X56.2651 Y30.5181
G01 X56.2651 Y30.5181
G01 X56.2651 Y30.5181
G00 X56.2651 Y30.5181
G01 F250.00
G01 Z-1.3000
G01 F1250.00
G01 X56.2651 Y30.5181
G01 X56.2651 Y30.5181
G01 X56.2651 Y30.5181
G01 X56.2651 Y30.5181
G00 X56.2651 Y30.5181
G01 F250.00
G01 Z-1.4000
G01 F1250.00
G01 X56.2651 Y30.5181
G01 X56.2651 Y30.5181
G01 X56.2651 Y30.5181
G01 X56.2651 Y30.5181
G00 X56.2651 Y30.5181
G01 F250.00
G01 Z-1.5000
G01 F1250.00
G01 X56.2651 Y30.5181
G01 X56.2651 Y30.5181
G01 X56.2651 Y30.5181
G01 X56.2651 Y30.5181
G00 X56.2651 Y30.5181
G01 F250.00
G01 Z-1.6000
G01 F1250.00
G01 X56.2651 Y30.5181
G01 X56.2651 Y30.5181
G01 X56.2651 Y30.5181
G01 X56.2651 Y30.5181
G00 X56.2651 Y30.5181
G01 F250.00
G01 Z-1.7000
G01 F1250.00
G01 X56.2651 Y30.5181
G01 X56.2651 Y30.5181
G01 X56.2651 Y30.5181
G01 X56.2651 Y30.5181
G00 Z0.5000
G00 X56.2651 Y43.0181
G01 F250.00
G01 Z-0.1000
G01 F1250.00
G01 X56.2651 Y43.0181
G01 X56.2651 Y43.0181
G01 X56.2651 Y43.0181
G01 X56.2651 Y43.0181
G00 X56.2651 Y43.0181
G01 F250.00
G01 Z-0.2000
G01 F1250.00
G01 X56.2651 Y43.0181
G01 X56.2651 Y43.0181
G01 X56.2651 Y43.0181
G01 X56.2651 Y43.0181
G00 X56.2651 Y43.0181
G01 F250.00
G01 Z-0.3000
G01 F1250.00
G01 X56.2651 Y43.0181
G01 X56.2651 Y43.0181
G01 X56.2651 Y43.0181
G01 X56.2651 Y43.0181
G00 X56.2651 Y43.0181
G01 F250.00
G01 Z-0.4000
G01 F1250.00
G01 X56.2651 Y43.0181
G01 X56.2651 Y43.0181
G01 X56.2651 Y43.0181
G01 X56.2651 Y43.0181
G00 X56.2651 Y43.0181
G01 F250.00
G01 Z-0.5000
G01 F1250.00
G01 X56.2651 Y43.0181
G01 X56.2651 Y43.0181
G01 X56.2651 Y43.0181
G01 X56.2651 Y43.0181
G00 X56.2651 Y43.0181
G01 F250.00
G01 Z-0.6000
G01 F1250.00
G01 X56.2651 Y43.0181
G01 X56.2651 Y43.0181
G01 X56.2651 Y43.0181
G01 X56.2651 Y43.0181
G00 X56.2651 Y43.0181
G01 F250.00
G01 Z-0.7000
G01 F1250.00
G01 X56.2651 Y43.0181
G01 X56.2651 Y43.0181
G01 X56.2651 Y43.0181
G01 X56.2651 Y43.0181
G00 X56.2651 Y43.0181
G01 F250.00
G01 Z-0.8000
G01 F1250.00
G01 X56.2651 Y43.0181
G01 X56.2651 Y43.0181
G01 X56.2651 Y43.0181
G01 X56.2651 Y43.0181
G00 X56.2651 Y43.0181
G01 F250.00
G01 Z-0.9000
G01 F1250.00
G01 X56.2651 Y43.0181
G01 X56.2651 Y43.0181
G01 X56.2651 Y43.0181
G01 X56.2651 Y43.0181
G00 X56.2651 Y43.0181
G01 F250.00
G01 Z-1.0000
G01 F1250.00
G01 X56.2651 Y43.0181
G01 X56.2651 Y43.0181
G01 X56.2651 Y43.0181
G01 X56.2651 Y43.0181
G00 X56.2651 Y43.0181
G01 F250.00
G01 Z-1.1000
G01 F1250.00
G01 X56.2651 Y43.0181
G01 X56.2651 Y43.0181
G01 X56.2651 Y43.0181
G01 X56.2651 Y43.0181
G00 X56.2651 Y43.0181
G01 F250.00
G01 Z-1.2000
G01 F1250.00
G01 X56.2651 Y43.0181
G01 X56.2651 Y43.0181
G01 X56.2651 Y43.0181
G01 X56.2651 Y43.0181
G00 X56.2651 Y43.0181
G01 F250.00
G01 Z-1.3000
G01 F1250.00
G01 X56.2651 Y43.0181
G01 X56.2651 Y43.0181
G01 X56.2651 Y43.0181
G01 X56.2651 Y43.0181
G00 X56.2651 Y43.0181
G01 F250.00
G01 Z-1.4000
G01 F1250.00
G01 X56.2651 Y43.0181
G01 X56.2651 Y43.0181
G01 X56.2651 Y43.0181
G01 X56.2651 Y43.0181
G00 X56.2651 Y43.0181
G01 F250.00
G01 Z-1.5000
G01 F1250.00
G01 X56.2651 Y43.0181
G01 X56.2651 Y43.0181
G01 X56.2651 Y43.0181
G01 X56.2651 Y43.0181
G00 X56.2651 Y43.0181
G01 F250.00
G01 Z-1.6000
G01 F1250.00
G01 X56.2651 Y43.0181
G01 X56.2651 Y43.0181
G01 X56.2651 Y43.0181
G01 X56.2651 Y43.0181
G00 X56.2651 Y43.0181
G01 F250.00
G01 Z-1.7000
G01 F1250.00
G01 X56.2651 Y43.0181
G01 X56.2651 Y43.0181
G01 X56.2651 Y43.0181
G01 X56.2651 Y43.0181
G00 Z0.5000
G00 X51.1851 Y43.0181
G01 F250.00
G01 Z-0.1000
G01 F1250.00
G01 X51.1851 Y43.0181
G01 X51.1851 Y43.0181
G01 X51.1851 Y43.0181
G01 X51.1851 Y43.0181
G00 X51.1851 Y43.0181
G01 F250.00
G01 Z-0.2000
G01 F1250.00
G01 X51.1851 Y43.0181
G01 X51.1851 Y43.0181
G01 X51.1851 Y43.0181
G01 X51.1851 Y43.0181
G00 X51.1851 Y43.0181
G01 F250.00
G01 Z-0.3000
G01 F1250.00
G01 X51.1851 Y43.0181
G01 X51.1851 Y43.0181
G01 X51.1851 Y43.0181
G01 X51.1851 Y43.0181
G00 X51.1851 Y43.0181
G01 F250.00
G01 Z-0.4000
G01 F1250.00
G01 X51.1851 Y43.0181
G01 X51.1851 Y43.0181
G01 X51.1851 Y43.0181
G01 X51.1851 Y43.0181
G00 X51.1851 Y43.0181
G01 F250.00
G01 Z-0.5000
G01 F1250.00
G01 X51.1851 Y43.0181
G01 X51.1851 Y43.0181
G01 X51.1851 Y43.0181
G01 X51.1851 Y43.0181
G00 X51.1851 Y43.0181
G01 F250.00
G01 Z-0.6000
G01 F1250.00
G01 X51.1851 Y43.0181
G01 X51.1851 Y43.0181
G01 X51.1851 Y43.0181
G01 X51.1851 Y43.0181
G00 X51.1851 Y43.0181
G01 F250.00
G01 Z-0.7000
G01 F1250.00
G01 X51.1851 Y43.0181
G01 X51.1851 Y43.0181
G01 X51.1851 Y43.0181
G01 X51.1851 Y43.0181
G00 X51.1851 Y43.0181
G01 F250.00
G01 Z-0.8000
G01 F1250.00
G01 X51.1851 Y43.0181
G01 X51.1851 Y43.0181
G01 X51.1851 Y43.0181
G01 X51.1851 Y43.0181
G00 X51.1851 Y43.0181
G01 F250.00
G01 Z-0.9000
G01 F1250.00
G01 X51.1851 Y43.0181
G01 X51.1851 Y43.0181
G01 X51.1851 Y43.0181
G01 X51.1851 Y43.0181
G00 X51.1851 Y43.0181
G01 F250.00
G01 Z-1.0000
G01 F1250.00
G01 X51.1851 Y43.0181
G01 X51.1851 Y43.0181
G01 X51.1851 Y43.0181
G01 X51.1851 Y43.0181
G00 X51.1851 Y43.0181
G01 F250.00
G01 Z-1.1000
G01 F1250.00
G01 X51.1851 Y43.0181
G01 X51.1851 Y43.0181
G01 X51.1851 Y43.0181
G01 X51.1851 Y43.0181
G00 X51.1851 Y43.0181
G01 F250.00
G01 Z-1.2000
G01 F1250.00
G01 X51.1851 Y43.0181
G01 X51.1851 Y43.0181
G01 X51.1851 Y43.0181
G01 X51.1851 Y43.0181
G00 X51.1851 Y43.0181
G01 F250.00
G01 Z-1.3000
G01 F1250.00
G01 X51.1851 Y43.0181
G01 X51.1851 Y43.0181
G01 X51.1851 Y43.0181
G01 X51.1851 Y43.0181
G00 X51.1851 Y43.0181
G01 F250.00
G01 Z-1.4000
G01 F1250.00
G01 X51.1851 Y43.0181
G01 X51.1851 Y43.0181
G01 X51.1851 Y43.0181
G01 X51.1851 Y43.0181
G00 X51.1851 Y43.0181
G01 F250.00
G01 Z-1.5000
G01 F1250.00
G01 X51.1851 Y43.0181
G01 X51.1851 Y43.0181
G01 X51.1851 Y43.0181
G01 X51.1851 Y43.0181
G00 X51.1851 Y43.0181
G01 F250.00
G01 Z-1.6000
G01 F1250.00
G01 X51.1851 Y43.0181
G01 X51.1851 Y43.0181
G01 X51.1851 Y43.0181
G01 X51.1851 Y43.0181
G00 X51.1851 Y43.0181
G01 F250.00
G01 Z-1.7000
G01 F1250.00
G01 X51.1851 Y43.0181
G01 X51.1851 Y43.0181
G01 X51.1851 Y43.0181
G01 X51.1851 Y43.0181
G00 Z0.5000
G00 X62.2351 Y43.4081
G01 F250.00
G01 Z-0.1000
G01 F1250.00
G01 X62.2351 Y43.4081
G01 X62.2351 Y43.4081
G01 X62.2351 Y43.4081
G01 X62.2351 Y43.4081
G00 X62.2351 Y43.4081
G01 F250.00
G01 Z-0.2000
G01 F1250.00
G01 X62.2351 Y43.4081
G01 X62.2351 Y43.4081
G01 X62.2351 Y43.4081
G01 X62.2351 Y43.4081
G00 X62.2351 Y43.4081
G01 F250.00
G01 Z-0.3000
G01 F1250.00
G01 X62.2351 Y43.4081
G01 X62.2351 Y43.4081
G01 X62.2351 Y43.4081
G01 X62.2351 Y43.4081
G00 X62.2351 Y43.4081
G01 F250.00
G01 Z-0.4000
G01 F1250.00
G01 X62.2351 Y43.4081
G01 X62.2351 Y43.4081
G01 X62.2351 Y43.4081
G01 X62.2351 Y43.4081
G00 X62.2351 Y43.4081
G01 F250.00
G01 Z-0.5000
G01 F1250.00
G01 X62.2351 Y43.4081
G01 X62.2351 Y43.4081
G01 X62.2351 Y43.4081
G01 X62.2351 Y43.4081
G00 X62.2351 Y43.4081
G01 F250.00
G01 Z-0.6000
G01 F1250.00
G01 X62.2351 Y43.4081
G01 X62.2351 Y43.4081
G01 X62.2351 Y43.4081
G01 X62.2351 Y43.4081
G00 X62.2351 Y43.4081
G01 F250.00
G01 Z-0.7000
G01 F1250.00
G01 X62.2351 Y43.4081
G01 X62.2351 Y43.4081
G01 X62.2351 Y43.4081
G01 X62.2351 Y43.4081
G00 X62.2351 Y43.4081
G01 F250.00
G01 Z-0.8000
G01 F1250.00
G01 X62.2351 Y43.4081
G01 X62.2351 Y43.4081
G01 X62.2351 Y43.4081
G01 X62.2351 Y43.4081
G00 X62.2351 Y43.4081
G01 F250.00
G01 Z-0.9000
G01 F1250.00
G01 X62.2351 Y43.4081
G01 X62.2351 Y43.4081
G01 X62.2351 Y43.4081
G01 X62.2351 Y43.4081
G00 X62.2351 Y43.4081
G01 F250.00
G01 Z-1.0000
G01 F1250.00
G01 X62.2351 Y43.4081
G01 X62.2351 Y43.4081
G01 X62.2351 Y43.4081
G01 X62.2351 Y43.4081
G00 X62.2351 Y43.4081
G01 F250.00
G01 Z-1.1000
G01 F1250.00
G01 X62.2351 Y43.4081
G01 X62.2351 Y43.4081
G01 X62.2351 Y43.4081
G01 X62.2351 Y43.4081
G00 X62.2351 Y43.4081
G01 F250.00
G01 Z-1.2000
G01 F1250.00
G01 X62.2351 Y43.4081
G01 X62.2351 Y43.4081
G01 X62.2351 Y43.4081
G01 X62.2351 Y43.4081
G00 X62.2351 Y43.4081
G01 F250.00
G01 Z-1.3000
G01 F1250.00
G01 X62.2351 Y43.4081
G01 X62.2351 Y43.4081
G01 X62.2351 Y43.4081
G01 X62.2351 Y43.4081
G00 X62.2351 Y43.4081
G01 F250.00
G01 Z-1.4000
G01 F1250.00
G01 X62.2351 Y43.4081
G01 X62.2351 Y43.4081
G01 X62.2351 Y43.4081
G01 X62.2351 Y43.4081
G00 X62.2351 Y43.4081
G01 F250.00
G01 Z-1.5000
G01 F1250.00
G01 X62.2351 Y43.4081
G01 X62.2351 Y43.4081
G01 X62.2351 Y43.4081
G01 X62.2351 Y43.4081
G00 X62.2351 Y43.4081
G01 F250.00
G01 Z-1.6000
G01 F1250.00
G01 X62.2351 Y43.4081
G01 X62.2351 Y43.4081
G01 X62.2351 Y43.4081
G01 X62.2351 Y43.4081
G00 X62.2351 Y43.4081
G01 F250.00
G01 Z-1.7000
G01 F1250.00
G01 X62.2351 Y43.4081
G01 X62.2351 Y43.4081
G01 X62.2351 Y43.4081
G01 X62.2351 Y43.4081
G00 Z0.5000
G00 X62.2351 Y48.4881
G01 F250.00
G01 Z-0.1000
G01 F1250.00
G01 X62.2351 Y48.4881
G01 X62.2351 Y48.4881
G01 X62.2351 Y48.4881
G01 X62.2351 Y48.4881
G00 X62.2351 Y48.4881
G01 F250.00
G01 Z-0.2000
G01 F1250.00
G01 X62.2351 Y48.4881
G01 X62.2351 Y48.4881
G01 X62.2351 Y48.4881
G01 X62.2351 Y48.4881
G00 X62.2351 Y48.4881
G01 F250.00
G01 Z-0.3000
G01 F1250.00
G01 X62.2351 Y48.4881
G01 X62.2351 Y48.4881
G01 X62.2351 Y48.4881
G01 X62.2351 Y48.4881
G00 X62.2351 Y48.4881
G01 F250.00
G01 Z-0.4000
G01 F1250.00
G01 X62.2351 Y48.4881
G01 X62.2351 Y48.4881
G01 X62.2351 Y48.4881
G01 X62.2351 Y48.4881
G00 X62.2351 Y48.4881
G01 F250.00
G01 Z-0.5000
G01 F1250.00
G01 X62.2351 Y48.4881
G01 X62.2351 Y48.4881
G01 X62.2351 Y48.4881
G01 X62.2351 Y48.4881
G00 X62.2351 Y48.4881
G01 F250.00
G01 Z-0.6000
G01 F1250.00
G01 X62.2351 Y48.4881
G01 X62.2351 Y48.4881
G01 X62.2351 Y48.4881
G01 X62.2351 Y48.4881
G00 X62.2351 Y48.4881
G01 F250.00
G01 Z-0.7000
G01 F1250.00
G01 X62.2351 Y48.4881
G01 X62.2351 Y48.4881
G01 X62.2351 Y48.4881
G01 X62.2351 Y48.4881
G00 X62.2351 Y48.4881
G01 F250.00
G01 Z-0.8000
G01 F1250.00
G01 X62.2351 Y48.4881
G01 X62.2351 Y48.4881
G01 X62.2351 Y48.4881
G01 X62.2351 Y48.4881
G00 X62.2351 Y48.4881
G01 F250.00
G01 Z-0.9000
G01 F1250.00
G01 X62.2351 Y48.4881
G01 X62.2351 Y48.4881
G01 X62.2351 Y48.4881
G01 X62.2351 Y48.4881
G00 X62.2351 Y48.4881
G01 F250.00
G01 Z-1.0000
G01 F1250.00
G01 X62.2351 Y48.4881
G01 X62.2351 Y48.4881
G01 X62.2351 Y48.4881
G01 X62.2351 Y48.4881
G00 X62.2351 Y48.4881
G01 F250.00
G01 Z-1.1000
G01 F1250.00
G01 X62.2351 Y48.4881
G01 X62.2351 Y48.4881
G01 X62.2351 Y48.4881
G01 X62.2351 Y48.4881
G00 X62.2351 Y48.4881
G01 F250.00
G01 Z-1.2000
G01 F1250.00
G01 X62.2351 Y48.4881
G01 X62.2351 Y48.4881
G01 X62.2351 Y48.4881
G01 X62.2351 Y48.4881
G00 X62.2351 Y48.4881
G01 F250.00
G01 Z-1.3000
G01 F1250.00
G01 X62.2351 Y48.4881
G01 X62.2351 Y48.4881
G01 X62.2351 Y48.4881
G01 X62.2351 Y48.4881
G00 X62.2351 Y48.4881
G01 F250.00
G01 Z-1.4000
G01 F1250.00
G01 X62.2351 Y48.4881
G01 X62.2351 Y48.4881
G01 X62.2351 Y48.4881
G01 X62.2351 Y48.4881
G00 X62.2351 Y48.4881
G01 F250.00
G01 Z-1.5000
G01 F1250.00
G01 X62.2351 Y48.4881
G01 X62.2351 Y48.4881
G01 X62.2351 Y48.4881
G01 X62.2351 Y48.4881
G00 X62.2351 Y48.4881
G01 F250.00
G01 Z-1.6000
G01 F1250.00
G01 X62.2351 Y48.4881
G01 X62.2351 Y48.4881
G01 X62.2351 Y48.4881
G01 X62.2351 Y48.4881
G00 X62.2351 Y48.4881
G01 F250.00
G01 Z-1.7000
G01 F1250.00
G01 X62.2351 Y48.4881
G01 X62.2351 Y48.4881
G01 X62.2351 Y48.4881
G01 X62.2351 Y48.4881
G00 Z0.5000
G00 X74.7351 Y48.4881
G01 F250.00
G01 Z-0.1000
G01 F1250.00
G01 X74.7351 Y48.4881
G01 X74.7351 Y48.4881
G01 X74.7351 Y48.4881
G01 X74.7351 Y48.4881
G00 X74.7351 Y48.4881
G01 F250.00
G01 Z-0.2000
G01 F1250.00
G01 X74.7351 Y48.4881
G01 X74.7351 Y48.4881
G01 X74.7351 Y48.4881
G01 X74.7351 Y48.4881
G00 X74.7351 Y48.4881
G01 F250.00
G01 Z-0.3000
G01 F1250.00
G01 X74.7351 Y48.4881
G01 X74.7351 Y48.4881
G01 X74.7351 Y48.4881
G01 X74.7351 Y48.4881
G00 X74.7351 Y48.4881
G01 F250.00
G01 Z-0.4000
G01 F1250.00
G01 X74.7351 Y48.4881
G01 X74.7351 Y48.4881
G01 X74.7351 Y48.4881
G01 X74.7351 Y48.4881
G00 X74.7351 Y48.4881
G01 F250.00
G01 Z-0.5000
G01 F1250.00
G01 X74.7351 Y48.4881
G01 X74.7351 Y48.4881
G01 X74.7351 Y48.4881
G01 X74.7351 Y48.4881
G00 X74.7351 Y48.4881
G01 F250.00
G01 Z-0.6000
G01 F1250.00
G01 X74.7351 Y48.4881
G01 X74.7351 Y48.4881
G01 X74.7351 Y48.4881
G01 X74.7351 Y48.4881
G00 X74.7351 Y48.4881
G01 F250.00
G01 Z-0.7000
G01 F1250.00
G01 X74.7351 Y48.4881
G01 X74.7351 Y48.4881
G01 X74.7351 Y48.4881
G01 X74.7351 Y48.4881
G00 X74.7351 Y48.4881
G01 F250.00
G01 Z-0.8000
G01 F1250.00
G01 X74.7351 Y48.4881
G01 X74.7351 Y48.4881
G01 X74.7351 Y48.4881
G01 X74.7351 Y48.4881
G00 X74.7351 Y48.4881
G01 F250.00
G01 Z-0.9000
G01 F1250.00
G01 X74.7351 Y48.4881
G01 X74.7351 Y48.4881
G01 X74.7351 Y48.4881
G01 X74.7351 Y48.4881
G00 X74.7351 Y48.4881
G01 F250.00
G01 Z-1.0000
G01 F1250.00
G01 X74.7351 Y48.4881
G01 X74.7351 Y48.4881
G01 X74.7351 Y48.4881
G01 X74.7351 Y48.4881
G00 X74.7351 Y48.4881
G01 F250.00
G01 Z-1.1000
G01 F1250.00
G01 X74.7351 Y48.4881
G01 X74.7351 Y48.4881
G01 X74.7351 Y48.4881
G01 X74.7351 Y48.4881
G00 X74.7351 Y48.4881
G01 F250.00
G01 Z-1.2000
G01 F1250.00
G01 X74.7351 Y48.4881
G01 X74.7351 Y48.4881
G01 X74.7351 Y48.4881
G01 X74.7351 Y48.4881
G00 X74.7351 Y48.4881
G01 F250.00
G01 Z-1.3000
G01 F1250.00
G01 X74.7351 Y48.4881
G01 X74.7351 Y48.4881
G01 X74.7351 Y48.4881
G01 X74.7351 Y48.4881
G00 X74.7351 Y48.4881
G01 F250.00
G01 Z-1.4000
G01 F1250.00
G01 X74.7351 Y48.4881
G01 X74.7351 Y48.4881
G01 X74.7351 Y48.4881
G01 X74.7351 Y48.4881
G00 X74.7351 Y48.4881
G01 F250.00
G01 Z-1.5000
G01 F1250.00
G01 X74.7351 Y48.4881
G01 X74.7351 Y48.4881
G01 X74.7351 Y48.4881
G01 X74.7351 Y48.4881
G00 X74.7351 Y48.4881
G01 F250.00
G01 Z-1.6000
G01 F1250.00
G01 X74.7351 Y48.4881
G01 X74.7351 Y48.4881
G01 X74.7351 Y48.4881
G01 X74.7351 Y48.4881
G00 X74.7351 Y48.4881
G01 F250.00
G01 Z-1.7000
G01 F1250.00
G01 X74.7351 Y48.4881
G01 X74.7351 Y48.4881
G01 X74.7351 Y48.4881
G01 X74.7351 Y48.4881
G00 Z0.5000
G00 X74.7351 Y43.4081
G01 F250.00
G01 Z-0.1000
G01 F1250.00
G01 X74.7351 Y43.4081
G01 X74.7351 Y43.4081
G01 X74.7351 Y43.4081
G01 X74.7351 Y43.4081
G00 X74.7351 Y43.4081
G01 F250.00
G01 Z-0.2000
G01 F1250.00
G01 X74.7351 Y43.4081
G01 X74.7351 Y43.4081
G01 X74.7351 Y43.4081
G01 X74.7351 Y43.4081
G00 X74.7351 Y43.4081
G01 F250.00
G01 Z-0.3000
G01 F1250.00
G01 X74.7351 Y43.4081
G01 X74.7351 Y43.4081
G01 X74.7351 Y43.4081
G01 X74.7351 Y43.4081
G00 X74.7351 Y43.4081
G01 F250.00
G01 Z-0.4000
G01 F1250.00
G01 X74.7351 Y43.4081
G01 X74.7351 Y43.4081
G01 X74.7351 Y43.4081
G01 X74.7351 Y43.4081
G00 X74.7351 Y43.4081
G01 F250.00
G01 Z-0.5000
G01 F1250.00
G01 X74.7351 Y43.4081
G01 X74.7351 Y43.4081
G01 X74.7351 Y43.4081
G01 X74.7351 Y43.4081
G00 X74.7351 Y43.4081
G01 F250.00
G01 Z-0.6000
G01 F1250.00
G01 X74.7351 Y43.4081
G01 X74.7351 Y43.4081
G01 X74.7351 Y43.4081
G01 X74.7351 Y43.4081
G00 X74.7351 Y43.4081
G01 F250.00
G01 Z-0.7000
G01 F1250.00
G01 X74.7351 Y43.4081
G01 X74.7351 Y43.4081
G01 X74.7351 Y43.4081
G01 X74.7351 Y43.4081
G00 X74.7351 Y43.4081
G01 F250.00
G01 Z-0.8000
G01 F1250.00
G01 X74.7351 Y43.4081
G01 X74.7351 Y43.4081
G01 X74.7351 Y43.4081
G01 X74.7351 Y43.4081
G00 X74.7351 Y43.4081
G01 F250.00
G01 Z-0.9000
G01 F1250.00
G01 X74.7351 Y43.4081
G01 X74.7351 Y43.4081
G01 X74.7351 Y43.4081
G01 X74.7351 Y43.4081
G00 X74.7351 Y43.4081
G01 F250.00
G01 Z-1.0000
G01 F1250.00
G01 X74.7351 Y43.4081
G01 X74.7351 Y43.4081
G01 X74.7351 Y43.4081
G01 X74.7351 Y43.4081
G00 X74.7351 Y43.4081
G01 F250.00
G01 Z-1.1000
G01 F1250.00
G01 X74.7351 Y43.4081
G01 X74.7351 Y43.4081
G01 X74.7351 Y43.4081
G01 X74.7351 Y43.4081
G00 X74.7351 Y43.4081
G01 F250.00
G01 Z-1.2000
G01 F1250.00
G01 X74.7351 Y43.4081
G01 X74.7351 Y43.4081
G01 X74.7351 Y43.4081
G01 X74.7351 Y43.4081
G00 X74.7351 Y43.4081
G01 F250.00
G01 Z-1.3000
G01 F1250.00
G01 X74.7351 Y43.4081
G01 X74.7351 Y43.4081
G01 X74.7351 Y43.4081
G01 X74.7351 Y43.4081
G00 X74.7351 Y43.4081
G01 F250.00
G01 Z-1.4000
G01 F1250.00
G01 X74.7351 Y43.4081
G01 X74.7351 Y43.4081
G01 X74.7351 Y43.4081
G01 X74.7351 Y43.4081
G00 X74.7351 Y43.4081
G01 F250.00
G01 Z-1.5000
G01 F1250.00
G01 X74.7351 Y43.4081
G01 X74.7351 Y43.4081
G01 X74.7351 Y43.4081
G01 X74.7351 Y43.4081
G00 X74.7351 Y43.4081
G01 F250.00
G01 Z-1.6000
G01 F1250.00
G01 X74.7351 Y43.4081
G01 X74.7351 Y43.4081
G01 X74.7351 Y43.4081
G01 X74.7351 Y43.4081
G00 X74.7351 Y43.4081
G01 F250.00
G01 Z-1.7000
G01 F1250.00
G01 X74.7351 Y43.4081
G01 X74.7351 Y43.4081
G01 X74.7351 Y43.4081
G01 X74.7351 Y43.4081
G00 Z0.5000
G00 X73.9751 Y64.1381
G01 F250.00
G01 Z-0.1000
G01 F1250.00
G01 X73.9710 Y64.0547
G01 X73.9587 Y63.9722
G01 X73.9385 Y63.8913
G01 X73.9104 Y63.8128
G01 X73.8747 Y63.7374
G01 X73.8318 Y63.6658
G01 X73.7821 Y63.5988
G01 X73.7261 Y63.5370
G01 X73.6643 Y63.4810
G01 X73.5973 Y63.4313
G01 X73.5257 Y63.3884
G01 X73.4503 Y63.3528
G01 X73.3718 Y63.3247
G01 X73.2909 Y63.3044
G01 X73.2084 Y63.2921
G01 X73.1251 Y63.2881
G01 X73.0417 Y63.2921
G01 X72.9592 Y63.3044
G01 X72.8783 Y63.3247
G01 X72.7998 Y63.3528
G01 X72.7244 Y63.3884
G01 X72.6528 Y63.4313
G01 X72.5858 Y63.4810
G01 X72.5240 Y63.5370
G01 X72.4680 Y63.5988
G01 X72.4183 Y63.6658
G01 X72.3754 Y63.7374
G01 X72.3398 Y63.8128
G01 X72.3117 Y63.8913
G01 X72.2914 Y63.9722
G01 X72.2792 Y64.0547
G01 X72.2751 Y64.1381
G01 X72.2792 Y64.2214
G01 X72.2914 Y64.3039
G01 X72.3117 Y64.3848
G01 X72.3398 Y64.4633
G01 X72.3754 Y64.5387
G01 X72.4183 Y64.6103
G01 X72.4680 Y64.6773
G01 X72.5240 Y64.7391
G01 X72.5858 Y64.7951
G01 X72.6528 Y64.8448
G01 X72.7244 Y64.8877
G01 X72.7998 Y64.9234
G01 X72.8783 Y64.9515
G01 X72.9592 Y64.9717
G01 X73.0417 Y64.9840
G01 X73.1251 Y64.9881
G01 X73.2084 Y64.9840
G01 X73.2909 Y64.9717
G01 X73.3718 Y64.9515
G01 X73.4503 Y64.9234
G01 X73.5257 Y64.8877
G01 X73.5973 Y64.8448
G01 X73.6643 Y64.7951
G01 X73.7261 Y64.7391
G01 X73.7821 Y64.6773
G01 X73.8318 Y64.6103
G01 X73.8747 Y64.5387
G01 X73.9104 Y64.4633
G01 X73.9385 Y64.3848
G01 X73.9587 Y64.3039
G01 X73.9710 Y64.2214
G01 X73.9751 Y64.1381
G00 X73.9751 Y64.1381
G01 F250.00
G01 Z-0.2000
G01 F1250.00
G01 X73.9710 Y64.0547
G01 X73.9587 Y63.9722
G01 X73.9385 Y63.8913
G01 X73.9104 Y63.8128
G01 X73.8747 Y63.7374
G01 X73.8318 Y63.6658
G01 X73.7821 Y63.5988
G01 X73.7261 Y63.5370
G01 X73.6643 Y63.4810
G01 X73.5973 Y63.4313
G01 X73.5257 Y63.3884
G01 X73.4503 Y63.3528
G01 X73.3718 Y63.3247
G01 X73.2909 Y63.3044
G01 X73.2084 Y63.2921
G01 X73.1251 Y63.2881
G01 X73.0417 Y63.2921
G01 X72.9592 Y63.3044
G01 X72.8783 Y63.3247
G01 X72.7998 Y63.3528
G01 X72.7244 Y63.3884
G01 X72.6528 Y63.4313
G01 X72.5858 Y63.4810
G01 X72.5240 Y63.5370
G01 X72.4680 Y63.5988
G01 X72.4183 Y63.6658
G01 X72.3754 Y63.7374
G01 X72.3398 Y63.8128
G01 X72.3117 Y63.8913
G01 X72.2914 Y63.9722
G01 X72.2792 Y64.0547
G01 X72.2751 Y64.1381
G01 X72.2792 Y64.2214
G01 X72.2914 Y64.3039
G01 X72.3117 Y64.3848
G01 X72.3398 Y64.4633
G01 X72.3754 Y64.5387
G01 X72.4183 Y64.6103
G01 X72.4680 Y64.6773
G01 X72.5240 Y64.7391
G01 X72.5858 Y64.7951
G01 X72.6528 Y64.8448
G01 X72.7244 Y64.8877
G01 X72.7998 Y64.9234
G01 X72.8783 Y64.9515
G01 X72.9592 Y64.9717
G01 X73.0417 Y64.9840
G01 X73.1251 Y64.9881
G01 X73.2084 Y64.9840
G01 X73.2909 Y64.9717
G01 X73.3718 Y64.9515
G01 X73.4503 Y64.9234
G01 X73.5257 Y64.8877
G01 X73.5973 Y64.8448
G01 X73.6643 Y64.7951
G01 X73.7261 Y64.7391
G01 X73.7821 Y64.6773
G01 X73.8318 Y64.6103
G01 X73.8747 Y64.5387
G01 X73.9104 Y64.4633
G01 X73.9385 Y64.3848
G01 X73.9587 Y64.3039
G01 X73.9710 Y64.2214
G01 X73.9751 Y64.1381
G00 X73.9751 Y64.1381
G01 F250.00
G01 Z-0.3000
G01 F1250.00
G01 X73.9710 Y64.0547
G01 X73.9587 Y63.9722
G01 X73.9385 Y63.8913
G01 X73.9104 Y63.8128
G01 X73.8747 Y63.7374
G01 X73.8318 Y63.6658
G01 X73.7821 Y63.5988
G01 X73.7261 Y63.5370
G01 X73.6643 Y63.4810
G01 X73.5973 Y63.4313
G01 X73.5257 Y63.3884
G01 X73.4503 Y63.3528
G01 X73.3718 Y63.3247
G01 X73.2909 Y63.3044
G01 X73.2084 Y63.2921
G01 X73.1251 Y63.2881
G01 X73.0417 Y63.2921
G01 X72.9592 Y63.3044
G01 X72.8783 Y63.3247
G01 X72.7998 Y63.3528
G01 X72.7244 Y63.3884
G01 X72.6528 Y63.4313
G01 X72.5858 Y63.4810
G01 X72.5240 Y63.5370
G01 X72.4680 Y63.5988
G01 X72.4183 Y63.6658
G01 X72.3754 Y63.7374
G01 X72.3398 Y63.8128
G01 X72.3117 Y63.8913
G01 X72.2914 Y63.9722
G01 X72.2792 Y64.0547
G01 X72.2751 Y64.1381
G01 X72.2792 Y64.2214
G01 X72.2914 Y64.3039
G01 X72.3117 Y64.3848
G01 X72.3398 Y64.4633
G01 X72.3754 Y64.5387
G01 X72.4183 Y64.6103
G01 X72.4680 Y64.6773
G01 X72.5240 Y64.7391
G01 X72.5858 Y64.7951
G01 X72.6528 Y64.8448
G01 X72.7244 Y64.8877
G01 X72.7998 Y64.9234
G01 X72.8783 Y64.9515
G01 X72.9592 Y64.9717
G01 X73.0417 Y64.9840
G01 X73.1251 Y64.9881
G01 X73.2084 Y64.9840
G01 X73.2909 Y64.9717
G01 X73.3718 Y64.9515
G01 X73.4503 Y64.9234
G01 X73.5257 Y64.8877
G01 X73.5973 Y64.8448
G01 X73.6643 Y64.7951
G01 X73.7261 Y64.7391
G01 X73.7821 Y64.6773
G01 X73.8318 Y64.6103
G01 X73.8747 Y64.5387
G01 X73.9104 Y64.4633
G01 X73.9385 Y64.3848
G01 X73.9587 Y64.3039
G01 X73.9710 Y64.2214
G01 X73.9751 Y64.1381
G00 X73.9751 Y64.1381
G01 F250.00
G01 Z-0.4000
G01 F1250.00
G01 X73.9710 Y64.0547
G01 X73.9587 Y63.9722
G01 X73.9385 Y63.8913
G01 X73.9104 Y63.8128
G01 X73.8747 Y63.7374
G01 X73.8318 Y63.6658
G01 X73.7821 Y63.5988
G01 X73.7261 Y63.5370
G01 X73.6643 Y63.4810
G01 X73.5973 Y63.4313
G01 X73.5257 Y63.3884
G01 X73.4503 Y63.3528
G01 X73.3718 Y63.3247
G01 X73.2909 Y63.3044
G01 X73.2084 Y63.2921
G01 X73.1251 Y63.2881
G01 X73.0417 Y63.2921
G01 X72.9592 Y63.3044
G01 X72.8783 Y63.3247
G01 X72.7998 Y63.3528
G01 X72.7244 Y63.3884
G01 X72.6528 Y63.4313
G01 X72.5858 Y63.4810
G01 X72.5240 Y63.5370
G01 X72.4680 Y63.5988
G01 X72.4183 Y63.6658
G01 X72.3754 Y63.7374
G01 X72.3398 Y63.8128
G01 X72.3117 Y63.8913
G01 X72.2914 Y63.9722
G01 X72.2792 Y64.0547
G01 X72.2751 Y64.1381
G01 X72.2792 Y64.2214
G01 X72.2914 Y64.3039
G01 X72.3117 Y64.3848
G01 X72.3398 Y64.4633
G01 X72.3754 Y64.5387
G01 X72.4183 Y64.6103
G01 X72.4680 Y64.6773
G01 X72.5240 Y64.7391
G01 X72.5858 Y64.7951
G01 X72.6528 Y64.8448
G01 X72.7244 Y64.8877
G01 X72.7998 Y64.9234
G01 X72.8783 Y64.9515
G01 X72.9592 Y64.9717
G01 X73.0417 Y64.9840
G01 X73.1251 Y64.9881
G01 X73.2084 Y64.9840
G01 X73.2909 Y64.9717
G01 X73.3718 Y64.9515
G01 X73.4503 Y64.9234
G01 X73.5257 Y64.8877
G01 X73.5973 Y64.8448
G01 X73.6643 Y64.7951
G01 X73.7261 Y64.7391
G01 X73.7821 Y64.6773
G01 X73.8318 Y64.6103
G01 X73.8747 Y64.5387
G01 X73.9104 Y64.4633
G01 X73.9385 Y64.3848
G01 X73.9587 Y64.3039
G01 X73.9710 Y64.2214
G01 X73.9751 Y64.1381
G00 X73.9751 Y64.1381
G01 F250.00
G01 Z-0.5000
G01 F1250.00
G01 X73.9710 Y64.0547
G01 X73.9587 Y63.9722
G01 X73.9385 Y63.8913
G01 X73.9104 Y63.8128
G01 X73.8747 Y63.7374
G01 X73.8318 Y63.6658
G01 X73.7821 Y63.5988
G01 X73.7261 Y63.5370
G01 X73.6643 Y63.4810
G01 X73.5973 Y63.4313
G01 X73.5257 Y63.3884
G01 X73.4503 Y63.3528
G01 X73.3718 Y63.3247
G01 X73.2909 Y63.3044
G01 X73.2084 Y63.2921
G01 X73.1251 Y63.2881
G01 X73.0417 Y63.2921
G01 X72.9592 Y63.3044
G01 X72.8783 Y63.3247
G01 X72.7998 Y63.3528
G01 X72.7244 Y63.3884
G01 X72.6528 Y63.4313
G01 X72.5858 Y63.4810
G01 X72.5240 Y63.5370
G01 X72.4680 Y63.5988
G01 X72.4183 Y63.6658
G01 X72.3754 Y63.7374
G01 X72.3398 Y63.8128
G01 X72.3117 Y63.8913
G01 X72.2914 Y63.9722
G01 X72.2792 Y64.0547
G01 X72.2751 Y64.1381
G01 X72.2792 Y64.2214
G01 X72.2914 Y64.3039
G01 X72.3117 Y64.3848
G01 X72.3398 Y64.4633
G01 X72.3754 Y64.5387
G01 X72.4183 Y64.6103
G01 X72.4680 Y64.6773
G01 X72.5240 Y64.7391
G01 X72.5858 Y64.7951
G01 X72.6528 Y64.8448
G01 X72.7244 Y64.8877
G01 X72.7998 Y64.9234
G01 X72.8783 Y64.9515
G01 X72.9592 Y64.9717
G01 X73.0417 Y64.9840
G01 X73.1251 Y64.9881
G01 X73.2084 Y64.9840
G01 X73.2909 Y64.9717
G01 X73.3718 Y64.9515
G01 X73.4503 Y64.9234
G01 X73.5257 Y64.8877
G01 X73.5973 Y64.8448
G01 X73.6643 Y64.7951
G01 X73.7261 Y64.7391
G01 X73.7821 Y64.6773
G01 X73.8318 Y64.6103
G01 X73.8747 Y64.5387
G01 X73.9104 Y64.4633
G01 X73.9385 Y64.3848
G01 X73.9587 Y64.3039
G01 X73.9710 Y64.2214
G01 X73.9751 Y64.1381
G00 X73.9751 Y64.1381
G01 F250.00
G01 Z-0.6000
G01 F1250.00
G01 X73.9710 Y64.0547
G01 X73.9587 Y63.9722
G01 X73.9385 Y63.8913
G01 X73.9104 Y63.8128
G01 X73.8747 Y63.7374
G01 X73.8318 Y63.6658
G01 X73.7821 Y63.5988
G01 X73.7261 Y63.5370
G01 X73.6643 Y63.4810
G01 X73.5973 Y63.4313
G01 X73.5257 Y63.3884
G01 X73.4503 Y63.3528
G01 X73.3718 Y63.3247
G01 X73.2909 Y63.3044
G01 X73.2084 Y63.2921
G01 X73.1251 Y63.2881
G01 X73.0417 Y63.2921
G01 X72.9592 Y63.3044
G01 X72.8783 Y63.3247
G01 X72.7998 Y63.3528
G01 X72.7244 Y63.3884
G01 X72.6528 Y63.4313
G01 X72.5858 Y63.4810
G01 X72.5240 Y63.5370
G01 X72.4680 Y63.5988
G01 X72.4183 Y63.6658
G01 X72.3754 Y63.7374
G01 X72.3398 Y63.8128
G01 X72.3117 Y63.8913
G01 X72.2914 Y63.9722
G01 X72.2792 Y64.0547
G01 X72.2751 Y64.1381
G01 X72.2792 Y64.2214
G01 X72.2914 Y64.3039
G01 X72.3117 Y64.3848
G01 X72.3398 Y64.4633
G01 X72.3754 Y64.5387
G01 X72.4183 Y64.6103
G01 X72.4680 Y64.6773
G01 X72.5240 Y64.7391
G01 X72.5858 Y64.7951
G01 X72.6528 Y64.8448
G01 X72.7244 Y64.8877
G01 X72.7998 Y64.9234
G01 X72.8783 Y64.9515
G01 X72.9592 Y64.9717
G01 X73.0417 Y64.9840
G01 X73.1251 Y64.9881
G01 X73.2084 Y64.9840
G01 X73.2909 Y64.9717
G01 X73.3718 Y64.9515
G01 X73.4503 Y64.9234
G01 X73.5257 Y64.8877
G01 X73.5973 Y64.8448
G01 X73.6643 Y64.7951
G01 X73.7261 Y64.7391
G01 X73.7821 Y64.6773
G01 X73.8318 Y64.6103
G01 X73.8747 Y64.5387
G01 X73.9104 Y64.4633
G01 X73.9385 Y64.3848
G01 X73.9587 Y64.3039
G01 X73.9710 Y64.2214
G01 X73.9751 Y64.1381
G00 X73.9751 Y64.1381
G01 F250.00
G01 Z-0.7000
G01 F1250.00
G01 X73.9710 Y64.0547
G01 X73.9587 Y63.9722
G01 X73.9385 Y63.8913
G01 X73.9104 Y63.8128
G01 X73.8747 Y63.7374
G01 X73.8318 Y63.6658
G01 X73.7821 Y63.5988
G01 X73.7261 Y63.5370
G01 X73.6643 Y63.4810
G01 X73.5973 Y63.4313
G01 X73.5257 Y63.3884
G01 X73.4503 Y63.3528
G01 X73.3718 Y63.3247
G01 X73.2909 Y63.3044
G01 X73.2084 Y63.2921
G01 X73.1251 Y63.2881
G01 X73.0417 Y63.2921
G01 X72.9592 Y63.3044
G01 X72.8783 Y63.3247
G01 X72.7998 Y63.3528
G01 X72.7244 Y63.3884
G01 X72.6528 Y63.4313
G01 X72.5858 Y63.4810
G01 X72.5240 Y63.5370
G01 X72.4680 Y63.5988
G01 X72.4183 Y63.6658
G01 X72.3754 Y63.7374
G01 X72.3398 Y63.8128
G01 X72.3117 Y63.8913
G01 X72.2914 Y63.9722
G01 X72.2792 Y64.0547
G01 X72.2751 Y64.1381
G01 X72.2792 Y64.2214
G01 X72.2914 Y64.3039
G01 X72.3117 Y64.3848
G01 X72.3398 Y64.4633
G01 X72.3754 Y64.5387
G01 X72.4183 Y64.6103
G01 X72.4680 Y64.6773
G01 X72.5240 Y64.7391
G01 X72.5858 Y64.7951
G01 X72.6528 Y64.8448
G01 X72.7244 Y64.8877
G01 X72.7998 Y64.9234
G01 X72.8783 Y64.9515
G01 X72.9592 Y64.9717
G01 X73.0417 Y64.9840
G01 X73.1251 Y64.9881
G01 X73.2084 Y64.9840
G01 X73.2909 Y64.9717
G01 X73.3718 Y64.9515
G01 X73.4503 Y64.9234
G01 X73.5257 Y64.8877
G01 X73.5973 Y64.8448
G01 X73.6643 Y64.7951
G01 X73.7261 Y64.7391
G01 X73.7821 Y64.6773
G01 X73.8318 Y64.6103
G01 X73.8747 Y64.5387
G01 X73.9104 Y64.4633
G01 X73.9385 Y64.3848
G01 X73.9587 Y64.3039
G01 X73.9710 Y64.2214
G01 X73.9751 Y64.1381
G00 X73.9751 Y64.1381
G01 F250.00
G01 Z-0.8000
G01 F1250.00
G01 X73.9710 Y64.0547
G01 X73.9587 Y63.9722
G01 X73.9385 Y63.8913
G01 X73.9104 Y63.8128
G01 X73.8747 Y63.7374
G01 X73.8318 Y63.6658
G01 X73.7821 Y63.5988
G01 X73.7261 Y63.5370
G01 X73.6643 Y63.4810
G01 X73.5973 Y63.4313
G01 X73.5257 Y63.3884
G01 X73.4503 Y63.3528
G01 X73.3718 Y63.3247
G01 X73.2909 Y63.3044
G01 X73.2084 Y63.2921
G01 X73.1251 Y63.2881
G01 X73.0417 Y63.2921
G01 X72.9592 Y63.3044
G01 X72.8783 Y63.3247
G01 X72.7998 Y63.3528
G01 X72.7244 Y63.3884
G01 X72.6528 Y63.4313
G01 X72.5858 Y63.4810
G01 X72.5240 Y63.5370
G01 X72.4680 Y63.5988
G01 X72.4183 Y63.6658
G01 X72.3754 Y63.7374
G01 X72.3398 Y63.8128
G01 X72.3117 Y63.8913
G01 X72.2914 Y63.9722
G01 X72.2792 Y64.0547
G01 X72.2751 Y64.1381
G01 X72.2792 Y64.2214
G01 X72.2914 Y64.3039
G01 X72.3117 Y64.3848
G01 X72.3398 Y64.4633
G01 X72.3754 Y64.5387
G01 X72.4183 Y64.6103
G01 X72.4680 Y64.6773
G01 X72.5240 Y64.7391
G01 X72.5858 Y64.7951
G01 X72.6528 Y64.8448
G01 X72.7244 Y64.8877
G01 X72.7998 Y64.9234
G01 X72.8783 Y64.9515
G01 X72.9592 Y64.9717
G01 X73.0417 Y64.9840
G01 X73.1251 Y64.9881
G01 X73.2084 Y64.9840
G01 X73.2909 Y64.9717
G01 X73.3718 Y64.9515
G01 X73.4503 Y64.9234
G01 X73.5257 Y64.8877
G01 X73.5973 Y64.8448
G01 X73.6643 Y64.7951
G01 X73.7261 Y64.7391
G01 X73.7821 Y64.6773
G01 X73.8318 Y64.6103
G01 X73.8747 Y64.5387
G01 X73.9104 Y64.4633
G01 X73.9385 Y64.3848
G01 X73.9587 Y64.3039
G01 X73.9710 Y64.2214
G01 X73.9751 Y64.1381
G00 X73.9751 Y64.1381
G01 F250.00
G01 Z-0.9000
G01 F1250.00
G01 X73.9710 Y64.0547
G01 X73.9587 Y63.9722
G01 X73.9385 Y63.8913
G01 X73.9104 Y63.8128
G01 X73.8747 Y63.7374
G01 X73.8318 Y63.6658
G01 X73.7821 Y63.5988
G01 X73.7261 Y63.5370
G01 X73.6643 Y63.4810
G01 X73.5973 Y63.4313
G01 X73.5257 Y63.3884
G01 X73.4503 Y63.3528
G01 X73.3718 Y63.3247
G01 X73.2909 Y63.3044
G01 X73.2084 Y63.2921
G01 X73.1251 Y63.2881
G01 X73.0417 Y63.2921
G01 X72.9592 Y63.3044
G01 X72.8783 Y63.3247
G01 X72.7998 Y63.3528
G01 X72.7244 Y63.3884
G01 X72.6528 Y63.4313
G01 X72.5858 Y63.4810
G01 X72.5240 Y63.5370
G01 X72.4680 Y63.5988
G01 X72.4183 Y63.6658
G01 X72.3754 Y63.7374
G01 X72.3398 Y63.8128
G01 X72.3117 Y63.8913
G01 X72.2914 Y63.9722
G01 X72.2792 Y64.0547
G01 X72.2751 Y64.1381
G01 X72.2792 Y64.2214
G01 X72.2914 Y64.3039
G01 X72.3117 Y64.3848
G01 X72.3398 Y64.4633
G01 X72.3754 Y64.5387
G01 X72.4183 Y64.6103
G01 X72.4680 Y64.6773
G01 X72.5240 Y64.7391
G01 X72.5858 Y64.7951
G01 X72.6528 Y64.8448
G01 X72.7244 Y64.8877
G01 X72.7998 Y64.9234
G01 X72.8783 Y64.9515
G01 X72.9592 Y64.9717
G01 X73.0417 Y64.9840
G01 X73.1251 Y64.9881
G01 X73.2084 Y64.9840
G01 X73.2909 Y64.9717
G01 X73.3718 Y64.9515
G01 X73.4503 Y64.9234
G01 X73.5257 Y64.8877
G01 X73.5973 Y64.8448
G01 X73.6643 Y64.7951
G01 X73.7261 Y64.7391
G01 X73.7821 Y64.6773
G01 X73.8318 Y64.6103
G01 X73.8747 Y64.5387
G01 X73.9104 Y64.4633
G01 X73.9385 Y64.3848
G01 X73.9587 Y64.3039
G01 X73.9710 Y64.2214
G01 X73.9751 Y64.1381
G00 X73.9751 Y64.1381
G01 F250.00
G01 Z-1.0000
G01 F1250.00
G01 X73.9710 Y64.0547
G01 X73.9587 Y63.9722
G01 X73.9385 Y63.8913
G01 X73.9104 Y63.8128
G01 X73.8747 Y63.7374
G01 X73.8318 Y63.6658
G01 X73.7821 Y63.5988
G01 X73.7261 Y63.5370
G01 X73.6643 Y63.4810
G01 X73.5973 Y63.4313
G01 X73.5257 Y63.3884
G01 X73.4503 Y63.3528
G01 X73.3718 Y63.3247
G01 X73.2909 Y63.3044
G01 X73.2084 Y63.2921
G01 X73.1251 Y63.2881
G01 X73.0417 Y63.2921
G01 X72.9592 Y63.3044
G01 X72.8783 Y63.3247
G01 X72.7998 Y63.3528
G01 X72.7244 Y63.3884
G01 X72.6528 Y63.4313
G01 X72.5858 Y63.4810
G01 X72.5240 Y63.5370
G01 X72.4680 Y63.5988
G01 X72.4183 Y63.6658
G01 X72.3754 Y63.7374
G01 X72.3398 Y63.8128
G01 X72.3117 Y63.8913
G01 X72.2914 Y63.9722
G01 X72.2792 Y64.0547
G01 X72.2751 Y64.1381
G01 X72.2792 Y64.2214
G01 X72.2914 Y64.3039
G01 X72.3117 Y64.3848
G01 X72.3398 Y64.4633
G01 X72.3754 Y64.5387
G01 X72.4183 Y64.6103
G01 X72.4680 Y64.6773
G01 X72.5240 Y64.7391
G01 X72.5858 Y64.7951
G01 X72.6528 Y64.8448
G01 X72.7244 Y64.8877
G01 X72.7998 Y64.9234
G01 X72.8783 Y64.9515
G01 X72.9592 Y64.9717
G01 X73.0417 Y64.9840
G01 X73.1251 Y64.9881
G01 X73.2084 Y64.9840
G01 X73.2909 Y64.9717
G01 X73.3718 Y64.9515
G01 X73.4503 Y64.9234
G01 X73.5257 Y64.8877
G01 X73.5973 Y64.8448
G01 X73.6643 Y64.7951
G01 X73.7261 Y64.7391
G01 X73.7821 Y64.6773
G01 X73.8318 Y64.6103
G01 X73.8747 Y64.5387
G01 X73.9104 Y64.4633
G01 X73.9385 Y64.3848
G01 X73.9587 Y64.3039
G01 X73.9710 Y64.2214
G01 X73.9751 Y64.1381
G00 X73.9751 Y64.1381
G01 F250.00
G01 Z-1.1000
G01 F1250.00
G01 X73.9710 Y64.0547
G01 X73.9587 Y63.9722
G01 X73.9385 Y63.8913
G01 X73.9104 Y63.8128
G01 X73.8747 Y63.7374
G01 X73.8318 Y63.6658
G01 X73.7821 Y63.5988
G01 X73.7261 Y63.5370
G01 X73.6643 Y63.4810
G01 X73.5973 Y63.4313
G01 X73.5257 Y63.3884
G01 X73.4503 Y63.3528
G01 X73.3718 Y63.3247
G01 X73.2909 Y63.3044
G01 X73.2084 Y63.2921
G01 X73.1251 Y63.2881
G01 X73.0417 Y63.2921
G01 X72.9592 Y63.3044
G01 X72.8783 Y63.3247
G01 X72.7998 Y63.3528
G01 X72.7244 Y63.3884
G01 X72.6528 Y63.4313
G01 X72.5858 Y63.4810
G01 X72.5240 Y63.5370
G01 X72.4680 Y63.5988
G01 X72.4183 Y63.6658
G01 X72.3754 Y63.7374
G01 X72.3398 Y63.8128
G01 X72.3117 Y63.8913
G01 X72.2914 Y63.9722
G01 X72.2792 Y64.0547
G01 X72.2751 Y64.1381
G01 X72.2792 Y64.2214
G01 X72.2914 Y64.3039
G01 X72.3117 Y64.3848
G01 X72.3398 Y64.4633
G01 X72.3754 Y64.5387
G01 X72.4183 Y64.6103
G01 X72.4680 Y64.6773
G01 X72.5240 Y64.7391
G01 X72.5858 Y64.7951
G01 X72.6528 Y64.8448
G01 X72.7244 Y64.8877
G01 X72.7998 Y64.9234
G01 X72.8783 Y64.9515
G01 X72.9592 Y64.9717
G01 X73.0417 Y64.9840
G01 X73.1251 Y64.9881
G01 X73.2084 Y64.9840
G01 X73.2909 Y64.9717
G01 X73.3718 Y64.9515
G01 X73.4503 Y64.9234
G01 X73.5257 Y64.8877
G01 X73.5973 Y64.8448
G01 X73.6643 Y64.7951
G01 X73.7261 Y64.7391
G01 X73.7821 Y64.6773
G01 X73.8318 Y64.6103
G01 X73.8747 Y64.5387
G01 X73.9104 Y64.4633
G01 X73.9385 Y64.3848
G01 X73.9587 Y64.3039
G01 X73.9710 Y64.2214
G01 X73.9751 Y64.1381
G00 X73.9751 Y64.1381
G01 F250.00
G01 Z-1.2000
G01 F1250.00
G01 X73.9710 Y64.0547
G01 X73.9587 Y63.9722
G01 X73.9385 Y63.8913
G01 X73.9104 Y63.8128
G01 X73.8747 Y63.7374
G01 X73.8318 Y63.6658
G01 X73.7821 Y63.5988
G01 X73.7261 Y63.5370
G01 X73.6643 Y63.4810
G01 X73.5973 Y63.4313
G01 X73.5257 Y63.3884
G01 X73.4503 Y63.3528
G01 X73.3718 Y63.3247
G01 X73.2909 Y63.3044
G01 X73.2084 Y63.2921
G01 X73.1251 Y63.2881
G01 X73.0417 Y63.2921
G01 X72.9592 Y63.3044
G01 X72.8783 Y63.3247
G01 X72.7998 Y63.3528
G01 X72.7244 Y63.3884
G01 X72.6528 Y63.4313
G01 X72.5858 Y63.4810
G01 X72.5240 Y63.5370
G01 X72.4680 Y63.5988
G01 X72.4183 Y63.6658
G01 X72.3754 Y63.7374
G01 X72.3398 Y63.8128
G01 X72.3117 Y63.8913
G01 X72.2914 Y63.9722
G01 X72.2792 Y64.0547
G01 X72.2751 Y64.1381
G01 X72.2792 Y64.2214
G01 X72.2914 Y64.3039
G01 X72.3117 Y64.3848
G01 X72.3398 Y64.4633
G01 X72.3754 Y64.5387
G01 X72.4183 Y64.6103
G01 X72.4680 Y64.6773
G01 X72.5240 Y64.7391
G01 X72.5858 Y64.7951
G01 X72.6528 Y64.8448
G01 X72.7244 Y64.8877
G01 X72.7998 Y64.9234
G01 X72.8783 Y64.9515
G01 X72.9592 Y64.9717
G01 X73.0417 Y64.9840
G01 X73.1251 Y64.9881
G01 X73.2084 Y64.9840
G01 X73.2909 Y64.9717
G01 X73.3718 Y64.9515
G01 X73.4503 Y64.9234
G01 X73.5257 Y64.8877
G01 X73.5973 Y64.8448
G01 X73.6643 Y64.7951
G01 X73.7261 Y64.7391
G01 X73.7821 Y64.6773
G01 X73.8318 Y64.6103
G01 X73.8747 Y64.5387
G01 X73.9104 Y64.4633
G01 X73.9385 Y64.3848
G01 X73.9587 Y64.3039
G01 X73.9710 Y64.2214
G01 X73.9751 Y64.1381
G00 X73.9751 Y64.1381
G01 F250.00
G01 Z-1.3000
G01 F1250.00
G01 X73.9710 Y64.0547
G01 X73.9587 Y63.9722
G01 X73.9385 Y63.8913
G01 X73.9104 Y63.8128
G01 X73.8747 Y63.7374
G01 X73.8318 Y63.6658
G01 X73.7821 Y63.5988
G01 X73.7261 Y63.5370
G01 X73.6643 Y63.4810
G01 X73.5973 Y63.4313
G01 X73.5257 Y63.3884
G01 X73.4503 Y63.3528
G01 X73.3718 Y63.3247
G01 X73.2909 Y63.3044
G01 X73.2084 Y63.2921
G01 X73.1251 Y63.2881
G01 X73.0417 Y63.2921
G01 X72.9592 Y63.3044
G01 X72.8783 Y63.3247
G01 X72.7998 Y63.3528
G01 X72.7244 Y63.3884
G01 X72.6528 Y63.4313
G01 X72.5858 Y63.4810
G01 X72.5240 Y63.5370
G01 X72.4680 Y63.5988
G01 X72.4183 Y63.6658
G01 X72.3754 Y63.7374
G01 X72.3398 Y63.8128
G01 X72.3117 Y63.8913
G01 X72.2914 Y63.9722
G01 X72.2792 Y64.0547
G01 X72.2751 Y64.1381
G01 X72.2792 Y64.2214
G01 X72.2914 Y64.3039
G01 X72.3117 Y64.3848
G01 X72.3398 Y64.4633
G01 X72.3754 Y64.5387
G01 X72.4183 Y64.6103
G01 X72.4680 Y64.6773
G01 X72.5240 Y64.7391
G01 X72.5858 Y64.7951
G01 X72.6528 Y64.8448
G01 X72.7244 Y64.8877
G01 X72.7998 Y64.9234
G01 X72.8783 Y64.9515
G01 X72.9592 Y64.9717
G01 X73.0417 Y64.9840
G01 X73.1251 Y64.9881
G01 X73.2084 Y64.9840
G01 X73.2909 Y64.9717
G01 X73.3718 Y64.9515
G01 X73.4503 Y64.9234
G01 X73.5257 Y64.8877
G01 X73.5973 Y64.8448
G01 X73.6643 Y64.7951
G01 X73.7261 Y64.7391
G01 X73.7821 Y64.6773
G01 X73.8318 Y64.6103
G01 X73.8747 Y64.5387
G01 X73.9104 Y64.4633
G01 X73.9385 Y64.3848
G01 X73.9587 Y64.3039
G01 X73.9710 Y64.2214
G01 X73.9751 Y64.1381
G00 X73.9751 Y64.1381
G01 F250.00
G01 Z-1.4000
G01 F1250.00
G01 X73.9710 Y64.0547
G01 X73.9587 Y63.9722
G01 X73.9385 Y63.8913
G01 X73.9104 Y63.8128
G01 X73.8747 Y63.7374
G01 X73.8318 Y63.6658
G01 X73.7821 Y63.5988
G01 X73.7261 Y63.5370
G01 X73.6643 Y63.4810
G01 X73.5973 Y63.4313
G01 X73.5257 Y63.3884
G01 X73.4503 Y63.3528
G01 X73.3718 Y63.3247
G01 X73.2909 Y63.3044
G01 X73.2084 Y63.2921
G01 X73.1251 Y63.2881
G01 X73.0417 Y63.2921
G01 X72.9592 Y63.3044
G01 X72.8783 Y63.3247
G01 X72.7998 Y63.3528
G01 X72.7244 Y63.3884
G01 X72.6528 Y63.4313
G01 X72.5858 Y63.4810
G01 X72.5240 Y63.5370
G01 X72.4680 Y63.5988
G01 X72.4183 Y63.6658
G01 X72.3754 Y63.7374
G01 X72.3398 Y63.8128
G01 X72.3117 Y63.8913
G01 X72.2914 Y63.9722
G01 X72.2792 Y64.0547
G01 X72.2751 Y64.1381
G01 X72.2792 Y64.2214
G01 X72.2914 Y64.3039
G01 X72.3117 Y64.3848
G01 X72.3398 Y64.4633
G01 X72.3754 Y64.5387
G01 X72.4183 Y64.6103
G01 X72.4680 Y64.6773
G01 X72.5240 Y64.7391
G01 X72.5858 Y64.7951
G01 X72.6528 Y64.8448
G01 X72.7244 Y64.8877
G01 X72.7998 Y64.9234
G01 X72.8783 Y64.9515
G01 X72.9592 Y64.9717
G01 X73.0417 Y64.9840
G01 X73.1251 Y64.9881
G01 X73.2084 Y64.9840
G01 X73.2909 Y64.9717
G01 X73.3718 Y64.9515
G01 X73.4503 Y64.9234
G01 X73.5257 Y64.8877
G01 X73.5973 Y64.8448
G01 X73.6643 Y64.7951
G01 X73.7261 Y64.7391
G01 X73.7821 Y64.6773
G01 X73.8318 Y64.6103
G01 X73.8747 Y64.5387
G01 X73.9104 Y64.4633
G01 X73.9385 Y64.3848
G01 X73.9587 Y64.3039
G01 X73.9710 Y64.2214
G01 X73.9751 Y64.1381
G00 X73.9751 Y64.1381
G01 F250.00
G01 Z-1.5000
G01 F1250.00
G01 X73.9710 Y64.0547
G01 X73.9587 Y63.9722
G01 X73.9385 Y63.8913
G01 X73.9104 Y63.8128
G01 X73.8747 Y63.7374
G01 X73.8318 Y63.6658
G01 X73.7821 Y63.5988
G01 X73.7261 Y63.5370
G01 X73.6643 Y63.4810
G01 X73.5973 Y63.4313
G01 X73.5257 Y63.3884
G01 X73.4503 Y63.3528
G01 X73.3718 Y63.3247
G01 X73.2909 Y63.3044
G01 X73.2084 Y63.2921
G01 X73.1251 Y63.2881
G01 X73.0417 Y63.2921
G01 X72.9592 Y63.3044
G01 X72.8783 Y63.3247
G01 X72.7998 Y63.3528
G01 X72.7244 Y63.3884
G01 X72.6528 Y63.4313
G01 X72.5858 Y63.4810
G01 X72.5240 Y63.5370
G01 X72.4680 Y63.5988
G01 X72.4183 Y63.6658
G01 X72.3754 Y63.7374
G01 X72.3398 Y63.8128
G01 X72.3117 Y63.8913
G01 X72.2914 Y63.9722
G01 X72.2792 Y64.0547
G01 X72.2751 Y64.1381
G01 X72.2792 Y64.2214
G01 X72.2914 Y64.3039
G01 X72.3117 Y64.3848
G01 X72.3398 Y64.4633
G01 X72.3754 Y64.5387
G01 X72.4183 Y64.6103
G01 X72.4680 Y64.6773
G01 X72.5240 Y64.7391
G01 X72.5858 Y64.7951
G01 X72.6528 Y64.8448
G01 X72.7244 Y64.8877
G01 X72.7998 Y64.9234
G01 X72.8783 Y64.9515
G01 X72.9592 Y64.9717
G01 X73.0417 Y64.9840
G01 X73.1251 Y64.9881
G01 X73.2084 Y64.9840
G01 X73.2909 Y64.9717
G01 X73.3718 Y64.9515
G01 X73.4503 Y64.9234
G01 X73.5257 Y64.8877
G01 X73.5973 Y64.8448
G01 X73.6643 Y64.7951
G01 X73.7261 Y64.7391
G01 X73.7821 Y64.6773
G01 X73.8318 Y64.6103
G01 X73.8747 Y64.5387
G01 X73.9104 Y64.4633
G01 X73.9385 Y64.3848
G01 X73.9587 Y64.3039
G01 X73.9710 Y64.2214
G01 X73.9751 Y64.1381
G00 X73.9751 Y64.1381
G01 F250.00
G01 Z-1.6000
G01 F1250.00
G01 X73.9710 Y64.0547
G01 X73.9587 Y63.9722
G01 X73.9385 Y63.8913
G01 X73.9104 Y63.8128
G01 X73.8747 Y63.7374
G01 X73.8318 Y63.6658
G01 X73.7821 Y63.5988
G01 X73.7261 Y63.5370
G01 X73.6643 Y63.4810
G01 X73.5973 Y63.4313
G01 X73.5257 Y63.3884
G01 X73.4503 Y63.3528
G01 X73.3718 Y63.3247
G01 X73.2909 Y63.3044
G01 X73.2084 Y63.2921
G01 X73.1251 Y63.2881
G01 X73.0417 Y63.2921
G01 X72.9592 Y63.3044
G01 X72.8783 Y63.3247
G01 X72.7998 Y63.3528
G01 X72.7244 Y63.3884
G01 X72.6528 Y63.4313
G01 X72.5858 Y63.4810
G01 X72.5240 Y63.5370
G01 X72.4680 Y63.5988
G01 X72.4183 Y63.6658
G01 X72.3754 Y63.7374
G01 X72.3398 Y63.8128
G01 X72.3117 Y63.8913
G01 X72.2914 Y63.9722
G01 X72.2792 Y64.0547
G01 X72.2751 Y64.1381
G01 X72.2792 Y64.2214
G01 X72.2914 Y64.3039
G01 X72.3117 Y64.3848
G01 X72.3398 Y64.4633
G01 X72.3754 Y64.5387
G01 X72.4183 Y64.6103
G01 X72.4680 Y64.6773
G01 X72.5240 Y64.7391
G01 X72.5858 Y64.7951
G01 X72.6528 Y64.8448
G01 X72.7244 Y64.8877
G01 X72.7998 Y64.9234
G01 X72.8783 Y64.9515
G01 X72.9592 Y64.9717
G01 X73.0417 Y64.9840
G01 X73.1251 Y64.9881
G01 X73.2084 Y64.9840
G01 X73.2909 Y64.9717
G01 X73.3718 Y64.9515
G01 X73.4503 Y64.9234
G01 X73.5257 Y64.8877
G01 X73.5973 Y64.8448
G01 X73.6643 Y64.7951
G01 X73.7261 Y64.7391
G01 X73.7821 Y64.6773
G01 X73.8318 Y64.6103
G01 X73.8747 Y64.5387
G01 X73.9104 Y64.4633
G01 X73.9385 Y64.3848
G01 X73.9587 Y64.3039
G01 X73.9710 Y64.2214
G01 X73.9751 Y64.1381
G00 X73.9751 Y64.1381
G01 F250.00
G01 Z-1.7000
G01 F1250.00
G01 X73.9710 Y64.0547
G01 X73.9587 Y63.9722
G01 X73.9385 Y63.8913
G01 X73.9104 Y63.8128
G01 X73.8747 Y63.7374
G01 X73.8318 Y63.6658
G01 X73.7821 Y63.5988
G01 X73.7261 Y63.5370
G01 X73.6643 Y63.4810
G01 X73.5973 Y63.4313
G01 X73.5257 Y63.3884
G01 X73.4503 Y63.3528
G01 X73.3718 Y63.3247
G01 X73.2909 Y63.3044
G01 X73.2084 Y63.2921
G01 X73.1251 Y63.2881
G01 X73.0417 Y63.2921
G01 X72.9592 Y63.3044
G01 X72.8783 Y63.3247
G01 X72.7998 Y63.3528
G01 X72.7244 Y63.3884
G01 X72.6528 Y63.4313
G01 X72.5858 Y63.4810
G01 X72.5240 Y63.5370
G01 X72.4680 Y63.5988
G01 X72.4183 Y63.6658
G01 X72.3754 Y63.7374
G01 X72.3398 Y63.8128
G01 X72.3117 Y63.8913
G01 X72.2914 Y63.9722
G01 X72.2792 Y64.0547
G01 X72.2751 Y64.1381
G01 X72.2792 Y64.2214
G01 X72.2914 Y64.3039
G01 X72.3117 Y64.3848
G01 X72.3398 Y64.4633
G01 X72.3754 Y64.5387
G01 X72.4183 Y64.6103
G01 X72.4680 Y64.6773
G01 X72.5240 Y64.7391
G01 X72.5858 Y64.7951
G01 X72.6528 Y64.8448
G01 X72.7244 Y64.8877
G01 X72.7998 Y64.9234
G01 X72.8783 Y64.9515
G01 X72.9592 Y64.9717
G01 X73.0417 Y64.9840
G01 X73.1251 Y64.9881
G01 X73.2084 Y64.9840
G01 X73.2909 Y64.9717
G01 X73.3718 Y64.9515
G01 X73.4503 Y64.9234
G01 X73.5257 Y64.8877
G01 X73.5973 Y64.8448
G01 X73.6643 Y64.7951
G01 X73.7261 Y64.7391
G01 X73.7821 Y64.6773
G01 X73.8318 Y64.6103
G01 X73.8747 Y64.5387
G01 X73.9104 Y64.4633
G01 X73.9385 Y64.3848
G01 X73.9587 Y64.3039
G01 X73.9710 Y64.2214
G01 X73.9751 Y64.1381
G00 Z0.5000
G00 X37.5151 Y63.2281
G01 F250.00
G01 Z-0.1000
G01 F1250.00
G01 X37.5151 Y63.2281
G01 X37.5151 Y63.2281
G01 X37.5151 Y63.2281
G01 X37.5151 Y63.2281
G00 X37.5151 Y63.2281
G01 F250.00
G01 Z-0.2000
G01 F1250.00
G01 X37.5151 Y63.2281
G01 X37.5151 Y63.2281
G01 X37.5151 Y63.2281
G01 X37.5151 Y63.2281
G00 X37.5151 Y63.2281
G01 F250.00
G01 Z-0.3000
G01 F1250.00
G01 X37.5151 Y63.2281
G01 X37.5151 Y63.2281
G01 X37.5151 Y63.2281
G01 X37.5151 Y63.2281
G00 X37.5151 Y63.2281
G01 F250.00
G01 Z-0.4000
G01 F1250.00
G01 X37.5151 Y63.2281
G01 X37.5151 Y63.2281
G01 X37.5151 Y63.2281
G01 X37.5151 Y63.2281
G00 X37.5151 Y63.2281
G01 F250.00
G01 Z-0.5000
G01 F1250.00
G01 X37.5151 Y63.2281
G01 X37.5151 Y63.2281
G01 X37.5151 Y63.2281
G01 X37.5151 Y63.2281
G00 X37.5151 Y63.2281
G01 F250.00
G01 Z-0.6000
G01 F1250.00
G01 X37.5151 Y63.2281
G01 X37.5151 Y63.2281
G01 X37.5151 Y63.2281
G01 X37.5151 Y63.2281
G00 X37.5151 Y63.2281
G01 F250.00
G01 Z-0.7000
G01 F1250.00
G01 X37.5151 Y63.2281
G01 X37.5151 Y63.2281
G01 X37.5151 Y63.2281
G01 X37.5151 Y63.2281
G00 X37.5151 Y63.2281
G01 F250.00
G01 Z-0.8000
G01 F1250.00
G01 X37.5151 Y63.2281
G01 X37.5151 Y63.2281
G01 X37.5151 Y63.2281
G01 X37.5151 Y63.2281
G00 X37.5151 Y63.2281
G01 F250.00
G01 Z-0.9000
G01 F1250.00
G01 X37.5151 Y63.2281
G01 X37.5151 Y63.2281
G01 X37.5151 Y63.2281
G01 X37.5151 Y63.2281
G00 X37.5151 Y63.2281
G01 F250.00
G01 Z-1.0000
G01 F1250.00
G01 X37.5151 Y63.2281
G01 X37.5151 Y63.2281
G01 X37.5151 Y63.2281
G01 X37.5151 Y63.2281
G00 X37.5151 Y63.2281
G01 F250.00
G01 Z-1.1000
G01 F1250.00
G01 X37.5151 Y63.2281
G01 X37.5151 Y63.2281
G01 X37.5151 Y63.2281
G01 X37.5151 Y63.2281
G00 X37.5151 Y63.2281
G01 F250.00
G01 Z-1.2000
G01 F1250.00
G01 X37.5151 Y63.2281
G01 X37.5151 Y63.2281
G01 X37.5151 Y63.2281
G01 X37.5151 Y63.2281
G00 X37.5151 Y63.2281
G01 F250.00
G01 Z-1.3000
G01 F1250.00
G01 X37.5151 Y63.2281
G01 X37.5151 Y63.2281
G01 X37.5151 Y63.2281
G01 X37.5151 Y63.2281
G00 X37.5151 Y63.2281
G01 F250.00
G01 Z-1.4000
G01 F1250.00
G01 X37.5151 Y63.2281
G01 X37.5151 Y63.2281
G01 X37.5151 Y63.2281
G01 X37.5151 Y63.2281
G00 X37.5151 Y63.2281
G01 F250.00
G01 Z-1.5000
G01 F1250.00
G01 X37.5151 Y63.2281
G01 X37.5151 Y63.2281
G01 X37.5151 Y63.2281
G01 X37.5151 Y63.2281
G00 X37.5151 Y63.2281
G01 F250.00
G01 Z-1.6000
G01 F1250.00
G01 X37.5151 Y63.2281
G01 X37.5151 Y63.2281
G01 X37.5151 Y63.2281
G01 X37.5151 Y63.2281
G00 X37.5151 Y63.2281
G01 F250.00
G01 Z-1.7000
G01 F1250.00
G01 X37.5151 Y63.2281
G01 X37.5151 Y63.2281
G01 X37.5151 Y63.2281
G01 X37.5151 Y63.2281
G00 Z0.5000
G00 X37.5151 Y58.1481
G01 F250.00
G01 Z-0.1000
G01 F1250.00
G01 X37.5151 Y58.1481
G01 X37.5151 Y58.1481
G01 X37.5151 Y58.1481
G01 X37.5151 Y58.1481
G00 X37.5151 Y58.1481
G01 F250.00
G01 Z-0.2000
G01 F1250.00
G01 X37.5151 Y58.1481
G01 X37.5151 Y58.1481
G01 X37.5151 Y58.1481
G01 X37.5151 Y58.1481
G00 X37.5151 Y58.1481
G01 F250.00
G01 Z-0.3000
G01 F1250.00
G01 X37.5151 Y58.1481
G01 X37.5151 Y58.1481
G01 X37.5151 Y58.1481
G01 X37.5151 Y58.1481
G00 X37.5151 Y58.1481
G01 F250.00
G01 Z-0.4000
G01 F1250.00
G01 X37.5151 Y58.1481
G01 X37.5151 Y58.1481
G01 X37.5151 Y58.1481
G01 X37.5151 Y58.1481
G00 X37.5151 Y58.1481
G01 F250.00
G01 Z-0.5000
G01 F1250.00
G01 X37.5151 Y58.1481
G01 X37.5151 Y58.1481
G01 X37.5151 Y58.1481
G01 X37.5151 Y58.1481
G00 X37.5151 Y58.1481
G01 F250.00
G01 Z-0.6000
G01 F1250.00
G01 X37.5151 Y58.1481
G01 X37.5151 Y58.1481
G01 X37.5151 Y58.1481
G01 X37.5151 Y58.1481
G00 X37.5151 Y58.1481
G01 F250.00
G01 Z-0.7000
G01 F1250.00
G01 X37.5151 Y58.1481
G01 X37.5151 Y58.1481
G01 X37.5151 Y58.1481
G01 X37.5151 Y58.1481
G00 X37.5151 Y58.1481
G01 F250.00
G01 Z-0.8000
G01 F1250.00
G01 X37.5151 Y58.1481
G01 X37.5151 Y58.1481
G01 X37.5151 Y58.1481
G01 X37.5151 Y58.1481
G00 X37.5151 Y58.1481
G01 F250.00
G01 Z-0.9000
G01 F1250.00
G01 X37.5151 Y58.1481
G01 X37.5151 Y58.1481
G01 X37.5151 Y58.1481
G01 X37.5151 Y58.1481
G00 X37.5151 Y58.1481
G01 F250.00
G01 Z-1.0000
G01 F1250.00
G01 X37.5151 Y58.1481
G01 X37.5151 Y58.1481
G01 X37.5151 Y58.1481
G01 X37.5151 Y58.1481
G00 X37.5151 Y58.1481
G01 F250.00
G01 Z-1.1000
G01 F1250.00
G01 X37.5151 Y58.1481
G01 X37.5151 Y58.1481
G01 X37.5151 Y58.1481
G01 X37.5151 Y58.1481
G00 X37.5151 Y58.1481
G01 F250.00
G01 Z-1.2000
G01 F1250.00
G01 X37.5151 Y58.1481
G01 X37.5151 Y58.1481
G01 X37.5151 Y58.1481
G01 X37.5151 Y58.1481
G00 X37.5151 Y58.1481
G01 F250.00
G01 Z-1.3000
G01 F1250.00
G01 X37.5151 Y58.1481
G01 X37.5151 Y58.1481
G01 X37.5151 Y58.1481
G01 X37.5151 Y58.1481
G00 X37.5151 Y58.1481
G01 F250.00
G01 Z-1.4000
G01 F1250.00
G01 X37.5151 Y58.1481
G01 X37.5151 Y58.1481
G01 X37.5151 Y58.1481
G01 X37.5151 Y58.1481
G00 X37.5151 Y58.1481
G01 F250.00
G01 Z-1.5000
G01 F1250.00
G01 X37.5151 Y58.1481
G01 X37.5151 Y58.1481
G01 X37.5151 Y58.1481
G01 X37.5151 Y58.1481
G00 X37.5151 Y58.1481
G01 F250.00
G01 Z-1.6000
G01 F1250.00
G01 X37.5151 Y58.1481
G01 X37.5151 Y58.1481
G01 X37.5151 Y58.1481
G01 X37.5151 Y58.1481
G00 X37.5151 Y58.1481
G01 F250.00
G01 Z-1.7000
G01 F1250.00
G01 X37.5151 Y58.1481
G01 X37.5151 Y58.1481
G01 X37.5151 Y58.1481
G01 X37.5151 Y58.1481
G00 Z0.5000
G00 X25.0151 Y58.1481
G01 F250.00
G01 Z-0.1000
G01 F1250.00
G01 X25.0151 Y58.1481
G01 X25.0151 Y58.1481
G01 X25.0151 Y58.1481
G01 X25.0151 Y58.1481
G00 X25.0151 Y58.1481
G01 F250.00
G01 Z-0.2000
G01 F1250.00
G01 X25.0151 Y58.1481
G01 X25.0151 Y58.1481
G01 X25.0151 Y58.1481
G01 X25.0151 Y58.1481
G00 X25.0151 Y58.1481
G01 F250.00
G01 Z-0.3000
G01 F1250.00
G01 X25.0151 Y58.1481
G01 X25.0151 Y58.1481
G01 X25.0151 Y58.1481
G01 X25.0151 Y58.1481
G00 X25.0151 Y58.1481
G01 F250.00
G01 Z-0.4000
G01 F1250.00
G01 X25.0151 Y58.1481
G01 X25.0151 Y58.1481
G01 X25.0151 Y58.1481
G01 X25.0151 Y58.1481
G00 X25.0151 Y58.1481
G01 F250.00
G01 Z-0.5000
G01 F1250.00
G01 X25.0151 Y58.1481
G01 X25.0151 Y58.1481
G01 X25.0151 Y58.1481
G01 X25.0151 Y58.1481
G00 X25.0151 Y58.1481
G01 F250.00
G01 Z-0.6000
G01 F1250.00
G01 X25.0151 Y58.1481
G01 X25.0151 Y58.1481
G01 X25.0151 Y58.1481
G01 X25.0151 Y58.1481
G00 X25.0151 Y58.1481
G01 F250.00
G01 Z-0.7000
G01 F1250.00
G01 X25.0151 Y58.1481
G01 X25.0151 Y58.1481
G01 X25.0151 Y58.1481
G01 X25.0151 Y58.1481
G00 X25.0151 Y58.1481
G01 F250.00
G01 Z-0.8000
G01 F1250.00
G01 X25.0151 Y58.1481
G01 X25.0151 Y58.1481
G01 X25.0151 Y58.1481
G01 X25.0151 Y58.1481
G00 X25.0151 Y58.1481
G01 F250.00
G01 Z-0.9000
G01 F1250.00
G01 X25.0151 Y58.1481
G01 X25.0151 Y58.1481
G01 X25.0151 Y58.1481
G01 X25.0151 Y58.1481
G00 X25.0151 Y58.1481
G01 F250.00
G01 Z-1.0000
G01 F1250.00
G01 X25.0151 Y58.1481
G01 X25.0151 Y58.1481
G01 X25.0151 Y58.1481
G01 X25.0151 Y58.1481
G00 X25.0151 Y58.1481
G01 F250.00
G01 Z-1.1000
G01 F1250.00
G01 X25.0151 Y58.1481
G01 X25.0151 Y58.1481
G01 X25.0151 Y58.1481
G01 X25.0151 Y58.1481
G00 X25.0151 Y58.1481
G01 F250.00
G01 Z-1.2000
G01 F1250.00
G01 X25.0151 Y58.1481
G01 X25.0151 Y58.1481
G01 X25.0151 Y58.1481
G01 X25.0151 Y58.1481
G00 X25.0151 Y58.1481
G01 F250.00
G01 Z-1.3000
G01 F1250.00
G01 X25.0151 Y58.1481
G01 X25.0151 Y58.1481
G01 X25.0151 Y58.1481
G01 X25.0151 Y58.1481
G00 X25.0151 Y58.1481
G01 F250.00
G01 Z-1.4000
G01 F1250.00
G01 X25.0151 Y58.1481
G01 X25.0151 Y58.1481
G01 X25.0151 Y58.1481
G01 X25.0151 Y58.1481
G00 X25.0151 Y58.1481
G01 F250.00
G01 Z-1.5000
G01 F1250.00
G01 X25.0151 Y58.1481
G01 X25.0151 Y58.1481
G01 X25.0151 Y58.1481
G01 X25.0151 Y58.1481
G00 X25.0151 Y58.1481
G01 F250.00
G01 Z-1.6000
G01 F1250.00
G01 X25.0151 Y58.1481
G01 X25.0151 Y58.1481
G01 X25.0151 Y58.1481
G01 X25.0151 Y58.1481
G00 X25.0151 Y58.1481
G01 F250.00
G01 Z-1.7000
G01 F1250.00
G01 X25.0151 Y58.1481
G01 X25.0151 Y58.1481
G01 X25.0151 Y58.1481
G01 X25.0151 Y58.1481
G00 Z0.5000
G00 X25.0151 Y63.2281
G01 F250.00
G01 Z-0.1000
G01 F1250.00
G01 X25.0151 Y63.2281
G01 X25.0151 Y63.2281
G01 X25.0151 Y63.2281
G01 X25.0151 Y63.2281
G00 X25.0151 Y63.2281
G01 F250.00
G01 Z-0.2000
G01 F1250.00
G01 X25.0151 Y63.2281
G01 X25.0151 Y63.2281
G01 X25.0151 Y63.2281
G01 X25.0151 Y63.2281
G00 X25.0151 Y63.2281
G01 F250.00
G01 Z-0.3000
G01 F1250.00
G01 X25.0151 Y63.2281
G01 X25.0151 Y63.2281
G01 X25.0151 Y63.2281
G01 X25.0151 Y63.2281
G00 X25.0151 Y63.2281
G01 F250.00
G01 Z-0.4000
G01 F1250.00
G01 X25.0151 Y63.2281
G01 X25.0151 Y63.2281
G01 X25.0151 Y63.2281
G01 X25.0151 Y63.2281
G00 X25.0151 Y63.2281
G01 F250.00
G01 Z-0.5000
G01 F1250.00
G01 X25.0151 Y63.2281
G01 X25.0151 Y63.2281
G01 X25.0151 Y63.2281
G01 X25.0151 Y63.2281
G00 X25.0151 Y63.2281
G01 F250.00
G01 Z-0.6000
G01 F1250.00
G01 X25.0151 Y63.2281
G01 X25.0151 Y63.2281
G01 X25.0151 Y63.2281
G01 X25.0151 Y63.2281
G00 X25.0151 Y63.2281
G01 F250.00
G01 Z-0.7000
G01 F1250.00
G01 X25.0151 Y63.2281
G01 X25.0151 Y63.2281
G01 X25.0151 Y63.2281
G01 X25.0151 Y63.2281
G00 X25.0151 Y63.2281
G01 F250.00
G01 Z-0.8000
G01 F1250.00
G01 X25.0151 Y63.2281
G01 X25.0151 Y63.2281
G01 X25.0151 Y63.2281
G01 X25.0151 Y63.2281
G00 X25.0151 Y63.2281
G01 F250.00
G01 Z-0.9000
G01 F1250.00
G01 X25.0151 Y63.2281
G01 X25.0151 Y63.2281
G01 X25.0151 Y63.2281
G01 X25.0151 Y63.2281
G00 X25.0151 Y63.2281
G01 F250.00
G01 Z-1.0000
G01 F1250.00
G01 X25.0151 Y63.2281
G01 X25.0151 Y63.2281
G01 X25.0151 Y63.2281
G01 X25.0151 Y63.2281
G00 X25.0151 Y63.2281
G01 F250.00
G01 Z-1.1000
G01 F1250.00
G01 X25.0151 Y63.2281
G01 X25.0151 Y63.2281
G01 X25.0151 Y63.2281
G01 X25.0151 Y63.2281
G00 X25.0151 Y63.2281
G01 F250.00
G01 Z-1.2000
G01 F1250.00
G01 X25.0151 Y63.2281
G01 X25.0151 Y63.2281
G01 X25.0151 Y63.2281
G01 X25.0151 Y63.2281
G00 X25.0151 Y63.2281
G01 F250.00
G01 Z-1.3000
G01 F1250.00
G01 X25.0151 Y63.2281
G01 X25.0151 Y63.2281
G01 X25.0151 Y63.2281
G01 X25.0151 Y63.2281
G00 X25.0151 Y63.2281
G01 F250.00
G01 Z-1.4000
G01 F1250.00
G01 X25.0151 Y63.2281
G01 X25.0151 Y63.2281
G01 X25.0151 Y63.2281
G01 X25.0151 Y63.2281
G00 X25.0151 Y63.2281
G01 F250.00
G01 Z-1.5000
G01 F1250.00
G01 X25.0151 Y63.2281
G01 X25.0151 Y63.2281
G01 X25.0151 Y63.2281
G01 X25.0151 Y63.2281
G00 X25.0151 Y63.2281
G01 F250.00
G01 Z-1.6000
G01 F1250.00
G01 X25.0151 Y63.2281
G01 X25.0151 Y63.2281
G01 X25.0151 Y63.2281
G01 X25.0151 Y63.2281
G00 X25.0151 Y63.2281
G01 F250.00
G01 Z-1.7000
G01 F1250.00
G01 X25.0151 Y63.2281
G01 X25.0151 Y63.2281
G01 X25.0151 Y63.2281
G01 X25.0151 Y63.2281
G00 Z0.5000
G00 X6.9751 Y64.1381
G01 F250.00
G01 Z-0.1000
G01 F1250.00
G01 X6.9710 Y64.0547
G01 X6.9587 Y63.9722
G01 X6.9385 Y63.8913
G01 X6.9104 Y63.8128
G01 X6.8747 Y63.7374
G01 X6.8318 Y63.6658
G01 X6.7821 Y63.5988
G01 X6.7261 Y63.5370
G01 X6.6643 Y63.4810
G01 X6.5973 Y63.4313
G01 X6.5257 Y63.3884
G01 X6.4503 Y63.3528
G01 X6.3718 Y63.3247
G01 X6.2909 Y63.3044
G01 X6.2084 Y63.2921
G01 X6.1251 Y63.2881
G01 X6.0417 Y63.2921
G01 X5.9592 Y63.3044
G01 X5.8783 Y63.3247
G01 X5.7998 Y63.3528
G01 X5.7244 Y63.3884
G01 X5.6528 Y63.4313
G01 X5.5858 Y63.4810
G01 X5.5240 Y63.5370
G01 X5.4680 Y63.5988
G01 X5.4183 Y63.6658
G01 X5.3754 Y63.7374
G01 X5.3398 Y63.8128
G01 X5.3117 Y63.8913
G01 X5.2914 Y63.9722
G01 X5.2792 Y64.0547
G01 X5.2751 Y64.1381
G01 X5.2792 Y64.2214
G01 X5.2914 Y64.3039
G01 X5.3117 Y64.3848
G01 X5.3398 Y64.4633
G01 X5.3754 Y64.5387
G01 X5.4183 Y64.6103
G01 X5.4680 Y64.6773
G01 X5.5240 Y64.7391
G01 X5.5858 Y64.7951
G01 X5.6528 Y64.8448
G01 X5.7244 Y64.8877
G01 X5.7998 Y64.9234
G01 X5.8783 Y64.9515
G01 X5.9592 Y64.9717
G01 X6.0417 Y64.9840
G01 X6.1251 Y64.9881
G01 X6.2084 Y64.9840
G01 X6.2909 Y64.9717
G01 X6.3718 Y64.9515
G01 X6.4503 Y64.9234
G01 X6.5257 Y64.8877
G01 X6.5973 Y64.8448
G01 X6.6643 Y64.7951
G01 X6.7261 Y64.7391
G01 X6.7821 Y64.6773
G01 X6.8318 Y64.6103
G01 X6.8747 Y64.5387
G01 X6.9104 Y64.4633
G01 X6.9385 Y64.3848
G01 X6.9587 Y64.3039
G01 X6.9710 Y64.2214
G01 X6.9751 Y64.1381
G00 X6.9751 Y64.1381
G01 F250.00
G01 Z-0.2000
G01 F1250.00
G01 X6.9710 Y64.0547
G01 X6.9587 Y63.9722
G01 X6.9385 Y63.8913
G01 X6.9104 Y63.8128
G01 X6.8747 Y63.7374
G01 X6.8318 Y63.6658
G01 X6.7821 Y63.5988
G01 X6.7261 Y63.5370
G01 X6.6643 Y63.4810
G01 X6.5973 Y63.4313
G01 X6.5257 Y63.3884
G01 X6.4503 Y63.3528
G01 X6.3718 Y63.3247
G01 X6.2909 Y63.3044
G01 X6.2084 Y63.2921
G01 X6.1251 Y63.2881
G01 X6.0417 Y63.2921
G01 X5.9592 Y63.3044
G01 X5.8783 Y63.3247
G01 X5.7998 Y63.3528
G01 X5.7244 Y63.3884
G01 X5.6528 Y63.4313
G01 X5.5858 Y63.4810
G01 X5.5240 Y63.5370
G01 X5.4680 Y63.5988
G01 X5.4183 Y63.6658
G01 X5.3754 Y63.7374
G01 X5.3398 Y63.8128
G01 X5.3117 Y63.8913
G01 X5.2914 Y63.9722
G01 X5.2792 Y64.0547
G01 X5.2751 Y64.1381
G01 X5.2792 Y64.2214
G01 X5.2914 Y64.3039
G01 X5.3117 Y64.3848
G01 X5.3398 Y64.4633
G01 X5.3754 Y64.5387
G01 X5.4183 Y64.6103
G01 X5.4680 Y64.6773
G01 X5.5240 Y64.7391
G01 X5.5858 Y64.7951
G01 X5.6528 Y64.8448
G01 X5.7244 Y64.8877
G01 X5.7998 Y64.9234
G01 X5.8783 Y64.9515
G01 X5.9592 Y64.9717
G01 X6.0417 Y64.9840
G01 X6.1251 Y64.9881
G01 X6.2084 Y64.9840
G01 X6.2909 Y64.9717
G01 X6.3718 Y64.9515
G01 X6.4503 Y64.9234
G01 X6.5257 Y64.8877
G01 X6.5973 Y64.8448
G01 X6.6643 Y64.7951
G01 X6.7261 Y64.7391
G01 X6.7821 Y64.6773
G01 X6.8318 Y64.6103
G01 X6.8747 Y64.5387
G01 X6.9104 Y64.4633
G01 X6.9385 Y64.3848
G01 X6.9587 Y64.3039
G01 X6.9710 Y64.2214
G01 X6.9751 Y64.1381
G00 X6.9751 Y64.1381
G01 F250.00
G01 Z-0.3000
G01 F1250.00
G01 X6.9710 Y64.0547
G01 X6.9587 Y63.9722
G01 X6.9385 Y63.8913
G01 X6.9104 Y63.8128
G01 X6.8747 Y63.7374
G01 X6.8318 Y63.6658
G01 X6.7821 Y63.5988
G01 X6.7261 Y63.5370
G01 X6.6643 Y63.4810
G01 X6.5973 Y63.4313
G01 X6.5257 Y63.3884
G01 X6.4503 Y63.3528
G01 X6.3718 Y63.3247
G01 X6.2909 Y63.3044
G01 X6.2084 Y63.2921
G01 X6.1251 Y63.2881
G01 X6.0417 Y63.2921
G01 X5.9592 Y63.3044
G01 X5.8783 Y63.3247
G01 X5.7998 Y63.3528
G01 X5.7244 Y63.3884
G01 X5.6528 Y63.4313
G01 X5.5858 Y63.4810
G01 X5.5240 Y63.5370
G01 X5.4680 Y63.5988
G01 X5.4183 Y63.6658
G01 X5.3754 Y63.7374
G01 X5.3398 Y63.8128
G01 X5.3117 Y63.8913
G01 X5.2914 Y63.9722
G01 X5.2792 Y64.0547
G01 X5.2751 Y64.1381
G01 X5.2792 Y64.2214
G01 X5.2914 Y64.3039
G01 X5.3117 Y64.3848
G01 X5.3398 Y64.4633
G01 X5.3754 Y64.5387
G01 X5.4183 Y64.6103
G01 X5.4680 Y64.6773
G01 X5.5240 Y64.7391
G01 X5.5858 Y64.7951
G01 X5.6528 Y64.8448
G01 X5.7244 Y64.8877
G01 X5.7998 Y64.9234
G01 X5.8783 Y64.9515
G01 X5.9592 Y64.9717
G01 X6.0417 Y64.9840
G01 X6.1251 Y64.9881
G01 X6.2084 Y64.9840
G01 X6.2909 Y64.9717
G01 X6.3718 Y64.9515
G01 X6.4503 Y64.9234
G01 X6.5257 Y64.8877
G01 X6.5973 Y64.8448
G01 X6.6643 Y64.7951
G01 X6.7261 Y64.7391
G01 X6.7821 Y64.6773
G01 X6.8318 Y64.6103
G01 X6.8747 Y64.5387
G01 X6.9104 Y64.4633
G01 X6.9385 Y64.3848
G01 X6.9587 Y64.3039
G01 X6.9710 Y64.2214
G01 X6.9751 Y64.1381
G00 X6.9751 Y64.1381
G01 F250.00
G01 Z-0.4000
G01 F1250.00
G01 X6.9710 Y64.0547
G01 X6.9587 Y63.9722
G01 X6.9385 Y63.8913
G01 X6.9104 Y63.8128
G01 X6.8747 Y63.7374
G01 X6.8318 Y63.6658
G01 X6.7821 Y63.5988
G01 X6.7261 Y63.5370
G01 X6.6643 Y63.4810
G01 X6.5973 Y63.4313
G01 X6.5257 Y63.3884
G01 X6.4503 Y63.3528
G01 X6.3718 Y63.3247
G01 X6.2909 Y63.3044
G01 X6.2084 Y63.2921
G01 X6.1251 Y63.2881
G01 X6.0417 Y63.2921
G01 X5.9592 Y63.3044
G01 X5.8783 Y63.3247
G01 X5.7998 Y63.3528
G01 X5.7244 Y63.3884
G01 X5.6528 Y63.4313
G01 X5.5858 Y63.4810
G01 X5.5240 Y63.5370
G01 X5.4680 Y63.5988
G01 X5.4183 Y63.6658
G01 X5.3754 Y63.7374
G01 X5.3398 Y63.8128
G01 X5.3117 Y63.8913
G01 X5.2914 Y63.9722
G01 X5.2792 Y64.0547
G01 X5.2751 Y64.1381
G01 X5.2792 Y64.2214
G01 X5.2914 Y64.3039
G01 X5.3117 Y64.3848
G01 X5.3398 Y64.4633
G01 X5.3754 Y64.5387
G01 X5.4183 Y64.6103
G01 X5.4680 Y64.6773
G01 X5.5240 Y64.7391
G01 X5.5858 Y64.7951
G01 X5.6528 Y64.8448
G01 X5.7244 Y64.8877
G01 X5.7998 Y64.9234
G01 X5.8783 Y64.9515
G01 X5.9592 Y64.9717
G01 X6.0417 Y64.9840
G01 X6.1251 Y64.9881
G01 X6.2084 Y64.9840
G01 X6.2909 Y64.9717
G01 X6.3718 Y64.9515
G01 X6.4503 Y64.9234
G01 X6.5257 Y64.8877
G01 X6.5973 Y64.8448
G01 X6.6643 Y64.7951
G01 X6.7261 Y64.7391
G01 X6.7821 Y64.6773
G01 X6.8318 Y64.6103
G01 X6.8747 Y64.5387
G01 X6.9104 Y64.4633
G01 X6.9385 Y64.3848
G01 X6.9587 Y64.3039
G01 X6.9710 Y64.2214
G01 X6.9751 Y64.1381
G00 X6.9751 Y64.1381
G01 F250.00
G01 Z-0.5000
G01 F1250.00
G01 X6.9710 Y64.0547
G01 X6.9587 Y63.9722
G01 X6.9385 Y63.8913
G01 X6.9104 Y63.8128
G01 X6.8747 Y63.7374
G01 X6.8318 Y63.6658
G01 X6.7821 Y63.5988
G01 X6.7261 Y63.5370
G01 X6.6643 Y63.4810
G01 X6.5973 Y63.4313
G01 X6.5257 Y63.3884
G01 X6.4503 Y63.3528
G01 X6.3718 Y63.3247
G01 X6.2909 Y63.3044
G01 X6.2084 Y63.2921
G01 X6.1251 Y63.2881
G01 X6.0417 Y63.2921
G01 X5.9592 Y63.3044
G01 X5.8783 Y63.3247
G01 X5.7998 Y63.3528
G01 X5.7244 Y63.3884
G01 X5.6528 Y63.4313
G01 X5.5858 Y63.4810
G01 X5.5240 Y63.5370
G01 X5.4680 Y63.5988
G01 X5.4183 Y63.6658
G01 X5.3754 Y63.7374
G01 X5.3398 Y63.8128
G01 X5.3117 Y63.8913
G01 X5.2914 Y63.9722
G01 X5.2792 Y64.0547
G01 X5.2751 Y64.1381
G01 X5.2792 Y64.2214
G01 X5.2914 Y64.3039
G01 X5.3117 Y64.3848
G01 X5.3398 Y64.4633
G01 X5.3754 Y64.5387
G01 X5.4183 Y64.6103
G01 X5.4680 Y64.6773
G01 X5.5240 Y64.7391
G01 X5.5858 Y64.7951
G01 X5.6528 Y64.8448
G01 X5.7244 Y64.8877
G01 X5.7998 Y64.9234
G01 X5.8783 Y64.9515
G01 X5.9592 Y64.9717
G01 X6.0417 Y64.9840
G01 X6.1251 Y64.9881
G01 X6.2084 Y64.9840
G01 X6.2909 Y64.9717
G01 X6.3718 Y64.9515
G01 X6.4503 Y64.9234
G01 X6.5257 Y64.8877
G01 X6.5973 Y64.8448
G01 X6.6643 Y64.7951
G01 X6.7261 Y64.7391
G01 X6.7821 Y64.6773
G01 X6.8318 Y64.6103
G01 X6.8747 Y64.5387
G01 X6.9104 Y64.4633
G01 X6.9385 Y64.3848
G01 X6.9587 Y64.3039
G01 X6.9710 Y64.2214
G01 X6.9751 Y64.1381
G00 X6.9751 Y64.1381
G01 F250.00
G01 Z-0.6000
G01 F1250.00
G01 X6.9710 Y64.0547
G01 X6.9587 Y63.9722
G01 X6.9385 Y63.8913
G01 X6.9104 Y63.8128
G01 X6.8747 Y63.7374
G01 X6.8318 Y63.6658
G01 X6.7821 Y63.5988
G01 X6.7261 Y63.5370
G01 X6.6643 Y63.4810
G01 X6.5973 Y63.4313
G01 X6.5257 Y63.3884
G01 X6.4503 Y63.3528
G01 X6.3718 Y63.3247
G01 X6.2909 Y63.3044
G01 X6.2084 Y63.2921
G01 X6.1251 Y63.2881
G01 X6.0417 Y63.2921
G01 X5.9592 Y63.3044
G01 X5.8783 Y63.3247
G01 X5.7998 Y63.3528
G01 X5.7244 Y63.3884
G01 X5.6528 Y63.4313
G01 X5.5858 Y63.4810
G01 X5.5240 Y63.5370
G01 X5.4680 Y63.5988
G01 X5.4183 Y63.6658
G01 X5.3754 Y63.7374
G01 X5.3398 Y63.8128
G01 X5.3117 Y63.8913
G01 X5.2914 Y63.9722
G01 X5.2792 Y64.0547
G01 X5.2751 Y64.1381
G01 X5.2792 Y64.2214
G01 X5.2914 Y64.3039
G01 X5.3117 Y64.3848
G01 X5.3398 Y64.4633
G01 X5.3754 Y64.5387
G01 X5.4183 Y64.6103
G01 X5.4680 Y64.6773
G01 X5.5240 Y64.7391
G01 X5.5858 Y64.7951
G01 X5.6528 Y64.8448
G01 X5.7244 Y64.8877
G01 X5.7998 Y64.9234
G01 X5.8783 Y64.9515
G01 X5.9592 Y64.9717
G01 X6.0417 Y64.9840
G01 X6.1251 Y64.9881
G01 X6.2084 Y64.9840
G01 X6.2909 Y64.9717
G01 X6.3718 Y64.9515
G01 X6.4503 Y64.9234
G01 X6.5257 Y64.8877
G01 X6.5973 Y64.8448
G01 X6.6643 Y64.7951
G01 X6.7261 Y64.7391
G01 X6.7821 Y64.6773
G01 X6.8318 Y64.6103
G01 X6.8747 Y64.5387
G01 X6.9104 Y64.4633
G01 X6.9385 Y64.3848
G01 X6.9587 Y64.3039
G01 X6.9710 Y64.2214
G01 X6.9751 Y64.1381
G00 X6.9751 Y64.1381
G01 F250.00
G01 Z-0.7000
G01 F1250.00
G01 X6.9710 Y64.0547
G01 X6.9587 Y63.9722
G01 X6.9385 Y63.8913
G01 X6.9104 Y63.8128
G01 X6.8747 Y63.7374
G01 X6.8318 Y63.6658
G01 X6.7821 Y63.5988
G01 X6.7261 Y63.5370
G01 X6.6643 Y63.4810
G01 X6.5973 Y63.4313
G01 X6.5257 Y63.3884
G01 X6.4503 Y63.3528
G01 X6.3718 Y63.3247
G01 X6.2909 Y63.3044
G01 X6.2084 Y63.2921
G01 X6.1251 Y63.2881
G01 X6.0417 Y63.2921
G01 X5.9592 Y63.3044
G01 X5.8783 Y63.3247
G01 X5.7998 Y63.3528
G01 X5.7244 Y63.3884
G01 X5.6528 Y63.4313
G01 X5.5858 Y63.4810
G01 X5.5240 Y63.5370
G01 X5.4680 Y63.5988
G01 X5.4183 Y63.6658
G01 X5.3754 Y63.7374
G01 X5.3398 Y63.8128
G01 X5.3117 Y63.8913
G01 X5.2914 Y63.9722
G01 X5.2792 Y64.0547
G01 X5.2751 Y64.1381
G01 X5.2792 Y64.2214
G01 X5.2914 Y64.3039
G01 X5.3117 Y64.3848
G01 X5.3398 Y64.4633
G01 X5.3754 Y64.5387
G01 X5.4183 Y64.6103
G01 X5.4680 Y64.6773
G01 X5.5240 Y64.7391
G01 X5.5858 Y64.7951
G01 X5.6528 Y64.8448
G01 X5.7244 Y64.8877
G01 X5.7998 Y64.9234
G01 X5.8783 Y64.9515
G01 X5.9592 Y64.9717
G01 X6.0417 Y64.9840
G01 X6.1251 Y64.9881
G01 X6.2084 Y64.9840
G01 X6.2909 Y64.9717
G01 X6.3718 Y64.9515
G01 X6.4503 Y64.9234
G01 X6.5257 Y64.8877
G01 X6.5973 Y64.8448
G01 X6.6643 Y64.7951
G01 X6.7261 Y64.7391
G01 X6.7821 Y64.6773
G01 X6.8318 Y64.6103
G01 X6.8747 Y64.5387
G01 X6.9104 Y64.4633
G01 X6.9385 Y64.3848
G01 X6.9587 Y64.3039
G01 X6.9710 Y64.2214
G01 X6.9751 Y64.1381
G00 X6.9751 Y64.1381
G01 F250.00
G01 Z-0.8000
G01 F1250.00
G01 X6.9710 Y64.0547
G01 X6.9587 Y63.9722
G01 X6.9385 Y63.8913
G01 X6.9104 Y63.8128
G01 X6.8747 Y63.7374
G01 X6.8318 Y63.6658
G01 X6.7821 Y63.5988
G01 X6.7261 Y63.5370
G01 X6.6643 Y63.4810
G01 X6.5973 Y63.4313
G01 X6.5257 Y63.3884
G01 X6.4503 Y63.3528
G01 X6.3718 Y63.3247
G01 X6.2909 Y63.3044
G01 X6.2084 Y63.2921
G01 X6.1251 Y63.2881
G01 X6.0417 Y63.2921
G01 X5.9592 Y63.3044
G01 X5.8783 Y63.3247
G01 X5.7998 Y63.3528
G01 X5.7244 Y63.3884
G01 X5.6528 Y63.4313
G01 X5.5858 Y63.4810
G01 X5.5240 Y63.5370
G01 X5.4680 Y63.5988
G01 X5.4183 Y63.6658
G01 X5.3754 Y63.7374
G01 X5.3398 Y63.8128
G01 X5.3117 Y63.8913
G01 X5.2914 Y63.9722
G01 X5.2792 Y64.0547
G01 X5.2751 Y64.1381
G01 X5.2792 Y64.2214
G01 X5.2914 Y64.3039
G01 X5.3117 Y64.3848
G01 X5.3398 Y64.4633
G01 X5.3754 Y64.5387
G01 X5.4183 Y64.6103
G01 X5.4680 Y64.6773
G01 X5.5240 Y64.7391
G01 X5.5858 Y64.7951
G01 X5.6528 Y64.8448
G01 X5.7244 Y64.8877
G01 X5.7998 Y64.9234
G01 X5.8783 Y64.9515
G01 X5.9592 Y64.9717
G01 X6.0417 Y64.9840
G01 X6.1251 Y64.9881
G01 X6.2084 Y64.9840
G01 X6.2909 Y64.9717
G01 X6.3718 Y64.9515
G01 X6.4503 Y64.9234
G01 X6.5257 Y64.8877
G01 X6.5973 Y64.8448
G01 X6.6643 Y64.7951
G01 X6.7261 Y64.7391
G01 X6.7821 Y64.6773
G01 X6.8318 Y64.6103
G01 X6.8747 Y64.5387
G01 X6.9104 Y64.4633
G01 X6.9385 Y64.3848
G01 X6.9587 Y64.3039
G01 X6.9710 Y64.2214
G01 X6.9751 Y64.1381
G00 X6.9751 Y64.1381
G01 F250.00
G01 Z-0.9000
G01 F1250.00
G01 X6.9710 Y64.0547
G01 X6.9587 Y63.9722
