(G-CODE GENERATED BY FLATCAM v8.991 - www.flatcam.org - Version Date: 2019/12/30)

(Name: Cncjob_Board_Edge)
(Type: G-code from Geometry)
(Units: MM)

(Created on Monday, 13 February 2023 at 22:53)

(TOOL DIAMETER: 1.5 mm)
(Feedrate: 2500.0 mm/min)
(Feedrate_Z: 250.0 mm/min)
(Feedrate rapids 1500.0 mm/min)

(Z_Cut: -1.7 mm)
(Z_Move: 0.5 mm)
(Z Toolchange: 15.0 mm)
(X,Y Toolchange: 0.0000, 0.0000 mm)
(Z Start: 0.5 mm)
(Z End: 15.0 mm)
(Steps per circle: 64)
(Preprocessor Geometry: default)

(X range:    1.2500 ...   78.0600  mm)
(Y range:    1.2500 ...   78.1930  mm)

(Spindle Speed: None RPM)
G21
G90
G94




G01 F2500.00
G00 Z0.5000
G00 Z0.5000
M03
G4 P1.0
G00 X1.2500 Y68.1781
G01 F250.00
G01 Z-0.1000
G01 F2500.00
G01 X1.2505 Y68.2057
G01 X1.2515 Y68.2271
G01 X1.2542 Y68.2638
G01 X1.2562 Y68.2821
G01 X1.2605 Y68.3125
G01 X1.2668 Y68.3488
G01 X1.2706 Y68.3668
G01 X1.2779 Y68.3966
G01 X1.2877 Y68.4321
G01 X1.2932 Y68.4496
G01 X1.3034 Y68.4786
G01 X1.3166 Y68.5129
G01 X1.3315 Y68.5466
G01 X1.3448 Y68.5742
G01 X1.3533 Y68.5906
G01 X1.3622 Y68.6067
G01 X1.3778 Y68.6331
G01 X1.3975 Y68.6642
G01 X1.4187 Y68.6943
G01 X1.4371 Y68.7188
G01 X1.4486 Y68.7332
G01 X1.4727 Y68.7611
G01 X1.4934 Y68.7836
G01 X1.5195 Y68.8097
G01 X1.5558 Y68.8426
G01 X1.5843 Y68.8660
G01 X1.6237 Y68.8952
G01 X1.6543 Y68.9157
G01 X1.6964 Y68.9409
G01 X1.7289 Y68.9583
G01 X1.7565 Y68.9716
G01 X1.7902 Y68.9865
G01 X1.8073 Y68.9933
G01 X1.8361 Y69.0039
G01 X1.8710 Y69.0154
G01 X1.9065 Y69.0253
G01 X1.9363 Y69.0325
G01 X1.9543 Y69.0363
G01 X1.9906 Y69.0426
G01 X2.0210 Y69.0469
G01 X2.0393 Y69.0489
G01 X2.0760 Y69.0516
G01 X2.0975 Y69.0526
G01 X2.1251 Y69.0531
G01 X18.2140 Y69.0531
G01 X18.2140 Y77.3180
G01 X18.2142 Y77.3364
G01 X18.2155 Y77.3670
G01 X18.2182 Y77.4037
G01 X18.2227 Y77.4403
G01 X18.2274 Y77.4706
G01 X18.2308 Y77.4887
G01 X18.2389 Y77.5246
G01 X18.2465 Y77.5543
G01 X18.2517 Y77.5720
G01 X18.2572 Y77.5895
G01 X18.2674 Y77.6185
G01 X18.2806 Y77.6528
G01 X18.2955 Y77.6865
G01 X18.3088 Y77.7141
G01 X18.3262 Y77.7466
G01 X18.3514 Y77.7887
G01 X18.3719 Y77.8193
G01 X18.4011 Y77.8587
G01 X18.4245 Y77.8872
G01 X18.4574 Y77.9235
G01 X18.4835 Y77.9496
G01 X18.5060 Y77.9703
G01 X18.5339 Y77.9944
G01 X18.5483 Y78.0059
G01 X18.5728 Y78.0243
G01 X18.6029 Y78.0455
G01 X18.6340 Y78.0652
G01 X18.6604 Y78.0808
G01 X18.6929 Y78.0982
G01 X18.7373 Y78.1192
G01 X18.7713 Y78.1332
G01 X18.8001 Y78.1438
G01 X18.8350 Y78.1553
G01 X18.8527 Y78.1605
G01 X18.8824 Y78.1681
G01 X18.9183 Y78.1762
G01 X18.9546 Y78.1825
G01 X18.9850 Y78.1868
G01 X19.0033 Y78.1888
G01 X19.0400 Y78.1915
G01 X19.0706 Y78.1928
G01 X19.0891 Y78.1930
G01 X19.1075 Y78.1928
G01 X19.1381 Y78.1915
G01 X19.1748 Y78.1888
G01 X19.1931 Y78.1868
G01 X19.2235 Y78.1825
G01 X19.2598 Y78.1762
G01 X19.2957 Y78.1681
G01 X19.3254 Y78.1605
G01 X19.3431 Y78.1553
G01 X19.3780 Y78.1438
G01 X19.4068 Y78.1332
G01 X19.4408 Y78.1192
G01 X19.4852 Y78.0982
G01 X19.5177 Y78.0808
G01 X19.5441 Y78.0652
G01 X19.5752 Y78.0455
G01 X19.6053 Y78.0243
G01 X19.6298 Y78.0059
G01 X19.6442 Y77.9944
G01 X19.6721 Y77.9703
G01 X19.6946 Y77.9496
G01 X19.7207 Y77.9235
G01 X19.7536 Y77.8872
G01 X19.7770 Y77.8587
G01 X19.8062 Y77.8193
G01 X19.8267 Y77.7887
G01 X19.8519 Y77.7466
G01 X19.8693 Y77.7141
G01 X19.8826 Y77.6865
G01 X19.8975 Y77.6528
G01 X19.9108 Y77.6185
G01 X19.9209 Y77.5895
G01 X19.9264 Y77.5720
G01 X19.9316 Y77.5543
G01 X19.9392 Y77.5246
G01 X19.9473 Y77.4887
G01 X19.9507 Y77.4706
G01 X19.9554 Y77.4403
G01 X19.9599 Y77.4037
G01 X19.9626 Y77.3670
G01 X19.9639 Y77.3364
G01 X19.9641 Y77.3180
G01 X19.9641 Y69.0531
G01 X77.1850 Y69.0531
G01 X77.2126 Y69.0526
G01 X77.2340 Y69.0516
G01 X77.2707 Y69.0489
G01 X77.3073 Y69.0444
G01 X77.3376 Y69.0397
G01 X77.3737 Y69.0325
G01 X77.4213 Y69.0206
G01 X77.4565 Y69.0099
G01 X77.4855 Y68.9998
G01 X77.5198 Y68.9865
G01 X77.5535 Y68.9716
G01 X77.5811 Y68.9583
G01 X77.5975 Y68.9498
G01 X77.6295 Y68.9316
G01 X77.6557 Y68.9157
G01 X77.6863 Y68.8952
G01 X77.7257 Y68.8660
G01 X77.7542 Y68.8426
G01 X77.7771 Y68.8222
G01 X77.8037 Y68.7968
G01 X77.8291 Y68.7702
G01 X77.8495 Y68.7473
G01 X77.8614 Y68.7332
G01 X77.8840 Y68.7042
G01 X77.9021 Y68.6794
G01 X77.9226 Y68.6488
G01 X77.9386 Y68.6226
G01 X77.9567 Y68.5906
G01 X77.9732 Y68.5577
G01 X77.9862 Y68.5298
G01 X78.0002 Y68.4958
G01 X78.0108 Y68.4670
G01 X78.0223 Y68.4321
G01 X78.0322 Y68.3966
G01 X78.0394 Y68.3668
G01 X78.0466 Y68.3307
G01 X78.0513 Y68.3004
G01 X78.0558 Y68.2638
G01 X78.0585 Y68.2271
G01 X78.0598 Y68.1965
G01 X78.0598 Y68.1596
G01 X78.0591 Y68.1413
G01 X78.0574 Y68.1106
G01 X78.0538 Y68.0740
G01 X78.0495 Y68.0436
G01 X78.0432 Y68.0073
G01 X78.0351 Y67.9714
G01 X78.0275 Y67.9417
G01 X78.0168 Y67.9065
G01 X78.0067 Y67.8775
G01 X77.9934 Y67.8432
G01 X77.9785 Y67.8095
G01 X77.9652 Y67.7819
G01 X77.9478 Y67.7494
G01 X77.9322 Y67.7230
G01 X77.9125 Y67.6919
G01 X77.8914 Y67.6618
G01 X77.8729 Y67.6373
G01 X77.8495 Y67.6088
G01 X77.8374 Y67.5950
G01 X77.8166 Y67.5725
G01 X77.7905 Y67.5464
G01 X77.7680 Y67.5257
G01 X77.7401 Y67.5016
G01 X77.7111 Y67.4790
G01 X77.6863 Y67.4609
G01 X77.6557 Y67.4404
G01 X77.6400 Y67.4308
G01 X77.6136 Y67.4152
G01 X77.5811 Y67.3978
G01 X77.5535 Y67.3845
G01 X77.5198 Y67.3696
G01 X77.4855 Y67.3564
G01 X77.4565 Y67.3462
G01 X77.4213 Y67.3355
G01 X77.4035 Y67.3309
G01 X77.3737 Y67.3236
G01 X77.3376 Y67.3164
G01 X77.3073 Y67.3117
G01 X77.2707 Y67.3072
G01 X77.2340 Y67.3045
G01 X77.2034 Y67.3032
G01 X19.9641 Y67.3030
G01 X19.9641 Y11.2687
G01 X19.9626 Y11.2289
G01 X19.9599 Y11.1922
G01 X19.9579 Y11.1739
G01 X19.9536 Y11.1435
G01 X19.9473 Y11.1072
G01 X19.9435 Y11.0892
G01 X19.9363 Y11.0594
G01 X19.9264 Y11.0239
G01 X19.9149 Y10.9890
G01 X19.9043 Y10.9602
G01 X19.8975 Y10.9431
G01 X19.8826 Y10.9094
G01 X19.8693 Y10.8818
G01 X19.8608 Y10.8655
G01 X19.8426 Y10.8334
G01 X19.8267 Y10.8072
G01 X19.8166 Y10.7918
G01 X19.7954 Y10.7617
G01 X19.7770 Y10.7372
G01 X19.7655 Y10.7228
G01 X19.7536 Y10.7087
G01 X19.7332 Y10.6859
G01 X19.7078 Y10.6592
G01 X19.6946 Y10.6463
G01 X19.6721 Y10.6256
G01 X19.6442 Y10.6015
G01 X19.6298 Y10.5900
G01 X19.6053 Y10.5716
G01 X19.5752 Y10.5504
G01 X19.5441 Y10.5307
G01 X19.5177 Y10.5151
G01 X19.5016 Y10.5062
G01 X19.4687 Y10.4897
G01 X19.4408 Y10.4768
G01 X19.4239 Y10.4695
G01 X19.4068 Y10.4627
G01 X19.3780 Y10.4521
G01 X19.3431 Y10.4406
G01 X19.3254 Y10.4354
G01 X19.2957 Y10.4278
G01 X19.2598 Y10.4197
G01 X19.2417 Y10.4163
G01 X19.2114 Y10.4116
G01 X19.1748 Y10.4071
G01 X19.1381 Y10.4044
G01 X19.1075 Y10.4031
G01 X19.0706 Y10.4031
G01 X19.0216 Y10.4055
G01 X18.9850 Y10.4091
G01 X18.9364 Y10.4163
G01 X18.9003 Y10.4235
G01 X18.8527 Y10.4354
G01 X18.8175 Y10.4461
G01 X18.7713 Y10.4627
G01 X18.7373 Y10.4768
G01 X18.6929 Y10.4977
G01 X18.6604 Y10.5151
G01 X18.6183 Y10.5403
G01 X18.5877 Y10.5608
G01 X18.5483 Y10.5900
G01 X18.5198 Y10.6134
G01 X18.4835 Y10.6463
G01 X18.4574 Y10.6724
G01 X18.4245 Y10.7087
G01 X18.4011 Y10.7372
G01 X18.3719 Y10.7766
G01 X18.3514 Y10.8072
G01 X18.3262 Y10.8493
G01 X18.3088 Y10.8818
G01 X18.2879 Y10.9262
G01 X18.2738 Y10.9602
G01 X18.2572 Y11.0064
G01 X18.2465 Y11.0416
G01 X18.2346 Y11.0892
G01 X18.2274 Y11.1253
G01 X18.2202 Y11.1739
G01 X18.2166 Y11.2105
G01 X18.2149 Y11.2412
G01 X18.2140 Y11.2687
G01 X18.2140 Y67.3030
G01 X3.0001 Y67.3030
G01 X3.0001 Y3.0001
G01 X77.2034 Y2.9999
G01 X77.2340 Y2.9986
G01 X77.2707 Y2.9959
G01 X77.2890 Y2.9939
G01 X77.3194 Y2.9896
G01 X77.3557 Y2.9833
G01 X77.3737 Y2.9795
G01 X77.4035 Y2.9723
G01 X77.4390 Y2.9624
G01 X77.4739 Y2.9509
G01 X77.5027 Y2.9404
G01 X77.5368 Y2.9263
G01 X77.5646 Y2.9133
G01 X77.5975 Y2.8968
G01 X77.6136 Y2.8879
G01 X77.6400 Y2.8723
G01 X77.6711 Y2.8526
G01 X77.7012 Y2.8315
G01 X77.7257 Y2.8130
G01 X77.7542 Y2.7896
G01 X77.7771 Y2.7692
G01 X77.7906 Y2.7567
G01 X77.8166 Y2.7306
G01 X77.8374 Y2.7081
G01 X77.8614 Y2.6802
G01 X77.8840 Y2.6512
G01 X77.9021 Y2.6264
G01 X77.9226 Y2.5958
G01 X77.9322 Y2.5801
G01 X77.9478 Y2.5537
G01 X77.9567 Y2.5376
G01 X77.9732 Y2.5047
G01 X77.9862 Y2.4769
G01 X78.0002 Y2.4429
G01 X78.0067 Y2.4256
G01 X78.0168 Y2.3966
G01 X78.0275 Y2.3614
G01 X78.0351 Y2.3317
G01 X78.0432 Y2.2958
G01 X78.0466 Y2.2777
G01 X78.0513 Y2.2474
G01 X78.0558 Y2.2109
G01 X78.0574 Y2.1925
G01 X78.0591 Y2.1619
G01 X78.0600 Y2.1251
G01 X78.0591 Y2.0883
G01 X78.0574 Y2.0576
G01 X78.0558 Y2.0393
G01 X78.0513 Y2.0028
G01 X78.0466 Y1.9724
G01 X78.0432 Y1.9543
G01 X78.0351 Y1.9184
G01 X78.0275 Y1.8887
G01 X78.0168 Y1.8535
G01 X78.0067 Y1.8245
G01 X78.0002 Y1.8073
G01 X77.9862 Y1.7733
G01 X77.9732 Y1.7454
G01 X77.9567 Y1.7126
G01 X77.9386 Y1.6805
G01 X77.9226 Y1.6543
G01 X77.9021 Y1.6237
G01 X77.8840 Y1.5989
G01 X77.8729 Y1.5843
G01 X77.8495 Y1.5558
G01 X77.8166 Y1.5195
G01 X77.7906 Y1.4934
G01 X77.7542 Y1.4605
G01 X77.7401 Y1.4486
G01 X77.7111 Y1.4260
G01 X77.6863 Y1.4079
G01 X77.6711 Y1.3975
G01 X77.6400 Y1.3778
G01 X77.6136 Y1.3622
G01 X77.5975 Y1.3533
G01 X77.5811 Y1.3448
G01 X77.5535 Y1.3315
G01 X77.5368 Y1.3239
G01 X77.5027 Y1.3098
G01 X77.4565 Y1.2932
G01 X77.4213 Y1.2826
G01 X77.3737 Y1.2706
G01 X77.3557 Y1.2668
G01 X77.3194 Y1.2605
G01 X77.2890 Y1.2562
G01 X77.2707 Y1.2542
G01 X77.2340 Y1.2515
G01 X77.2126 Y1.2505
G01 X77.1850 Y1.2500
G01 X2.1251 Y1.2500
G01 X2.0975 Y1.2505
G01 X2.0760 Y1.2515
G01 X2.0393 Y1.2542
G01 X2.0028 Y1.2587
G01 X1.9724 Y1.2634
G01 X1.9363 Y1.2706
G01 X1.8887 Y1.2826
G01 X1.8535 Y1.2932
G01 X1.8245 Y1.3034
G01 X1.7902 Y1.3166
G01 X1.7733 Y1.3239
G01 X1.7454 Y1.3368
G01 X1.7126 Y1.3533
G01 X1.6805 Y1.3715
G01 X1.6543 Y1.3874
G01 X1.6237 Y1.4079
G01 X1.5843 Y1.4371
G01 X1.5558 Y1.4605
G01 X1.5195 Y1.4934
G01 X1.4934 Y1.5195
G01 X1.4605 Y1.5558
G01 X1.4486 Y1.5699
G01 X1.4260 Y1.5989
G01 X1.4079 Y1.6237
G01 X1.3975 Y1.6389
G01 X1.3874 Y1.6543
G01 X1.3715 Y1.6805
G01 X1.3533 Y1.7126
G01 X1.3448 Y1.7289
G01 X1.3315 Y1.7565
G01 X1.3239 Y1.7733
G01 X1.3098 Y1.8073
G01 X1.2932 Y1.8535
G01 X1.2826 Y1.8887
G01 X1.2706 Y1.9363
G01 X1.2634 Y1.9724
G01 X1.2605 Y1.9906
G01 X1.2562 Y2.0210
G01 X1.2542 Y2.0393
G01 X1.2515 Y2.0760
G01 X1.2502 Y2.1067
G01 X1.2500 Y2.1251
G01 X1.2500 Y68.1781
G00 X1.2500 Y68.1781
G01 F250.00
G01 Z-0.2000
G01 F2500.00
G01 X1.2505 Y68.2057
G01 X1.2515 Y68.2271
G01 X1.2542 Y68.2638
G01 X1.2562 Y68.2821
G01 X1.2605 Y68.3125
G01 X1.2668 Y68.3488
G01 X1.2706 Y68.3668
G01 X1.2779 Y68.3966
G01 X1.2877 Y68.4321
G01 X1.2932 Y68.4496
G01 X1.3034 Y68.4786
G01 X1.3166 Y68.5129
G01 X1.3315 Y68.5466
G01 X1.3448 Y68.5742
G01 X1.3533 Y68.5906
G01 X1.3622 Y68.6067
G01 X1.3778 Y68.6331
G01 X1.3975 Y68.6642
G01 X1.4187 Y68.6943
G01 X1.4371 Y68.7188
G01 X1.4486 Y68.7332
G01 X1.4727 Y68.7611
G01 X1.4934 Y68.7836
G01 X1.5195 Y68.8097
G01 X1.5558 Y68.8426
G01 X1.5843 Y68.8660
G01 X1.6237 Y68.8952
G01 X1.6543 Y68.9157
G01 X1.6964 Y68.9409
G01 X1.7289 Y68.9583
G01 X1.7565 Y68.9716
G01 X1.7902 Y68.9865
G01 X1.8073 Y68.9933
G01 X1.8361 Y69.0039
G01 X1.8710 Y69.0154
G01 X1.9065 Y69.0253
G01 X1.9363 Y69.0325
G01 X1.9543 Y69.0363
G01 X1.9906 Y69.0426
G01 X2.0210 Y69.0469
G01 X2.0393 Y69.0489
G01 X2.0760 Y69.0516
G01 X2.0975 Y69.0526
G01 X2.1251 Y69.0531
G01 X18.2140 Y69.0531
G01 X18.2140 Y77.3180
G01 X18.2142 Y77.3364
G01 X18.2155 Y77.3670
G01 X18.2182 Y77.4037
G01 X18.2227 Y77.4403
G01 X18.2274 Y77.4706
G01 X18.2308 Y77.4887
G01 X18.2389 Y77.5246
G01 X18.2465 Y77.5543
G01 X18.2517 Y77.5720
G01 X18.2572 Y77.5895
G01 X18.2674 Y77.6185
G01 X18.2806 Y77.6528
G01 X18.2955 Y77.6865
G01 X18.3088 Y77.7141
G01 X18.3262 Y77.7466
G01 X18.3514 Y77.7887
G01 X18.3719 Y77.8193
G01 X18.4011 Y77.8587
G01 X18.4245 Y77.8872
G01 X18.4574 Y77.9235
G01 X18.4835 Y77.9496
G01 X18.5060 Y77.9703
G01 X18.5339 Y77.9944
G01 X18.5483 Y78.0059
G01 X18.5728 Y78.0243
G01 X18.6029 Y78.0455
G01 X18.6340 Y78.0652
G01 X18.6604 Y78.0808
G01 X18.6929 Y78.0982
G01 X18.7373 Y78.1192
G01 X18.7713 Y78.1332
G01 X18.8001 Y78.1438
G01 X18.8350 Y78.1553
G01 X18.8527 Y78.1605
G01 X18.8824 Y78.1681
G01 X18.9183 Y78.1762
G01 X18.9546 Y78.1825
G01 X18.9850 Y78.1868
G01 X19.0033 Y78.1888
G01 X19.0400 Y78.1915
G01 X19.0706 Y78.1928
G01 X19.0891 Y78.1930
G01 X19.1075 Y78.1928
G01 X19.1381 Y78.1915
G01 X19.1748 Y78.1888
G01 X19.1931 Y78.1868
G01 X19.2235 Y78.1825
G01 X19.2598 Y78.1762
G01 X19.2957 Y78.1681
G01 X19.3254 Y78.1605
G01 X19.3431 Y78.1553
G01 X19.3780 Y78.1438
G01 X19.4068 Y78.1332
G01 X19.4408 Y78.1192
G01 X19.4852 Y78.0982
G01 X19.5177 Y78.0808
G01 X19.5441 Y78.0652
G01 X19.5752 Y78.0455
G01 X19.6053 Y78.0243
G01 X19.6298 Y78.0059
G01 X19.6442 Y77.9944
G01 X19.6721 Y77.9703
G01 X19.6946 Y77.9496
G01 X19.7207 Y77.9235
G01 X19.7536 Y77.8872
G01 X19.7770 Y77.8587
G01 X19.8062 Y77.8193
G01 X19.8267 Y77.7887
G01 X19.8519 Y77.7466
G01 X19.8693 Y77.7141
G01 X19.8826 Y77.6865
G01 X19.8975 Y77.6528
G01 X19.9108 Y77.6185
G01 X19.9209 Y77.5895
G01 X19.9264 Y77.5720
G01 X19.9316 Y77.5543
G01 X19.9392 Y77.5246
G01 X19.9473 Y77.4887
G01 X19.9507 Y77.4706
G01 X19.9554 Y77.4403
G01 X19.9599 Y77.4037
G01 X19.9626 Y77.3670
G01 X19.9639 Y77.3364
G01 X19.9641 Y77.3180
G01 X19.9641 Y69.0531
G01 X77.1850 Y69.0531
G01 X77.2126 Y69.0526
G01 X77.2340 Y69.0516
G01 X77.2707 Y69.0489
G01 X77.3073 Y69.0444
G01 X77.3376 Y69.0397
G01 X77.3737 Y69.0325
G01 X77.4213 Y69.0206
G01 X77.4565 Y69.0099
G01 X77.4855 Y68.9998
G01 X77.5198 Y68.9865
G01 X77.5535 Y68.9716
G01 X77.5811 Y68.9583
G01 X77.5975 Y68.9498
G01 X77.6295 Y68.9316
G01 X77.6557 Y68.9157
G01 X77.6863 Y68.8952
G01 X77.7257 Y68.8660
G01 X77.7542 Y68.8426
G01 X77.7771 Y68.8222
G01 X77.8037 Y68.7968
G01 X77.8291 Y68.7702
G01 X77.8495 Y68.7473
G01 X77.8614 Y68.7332
G01 X77.8840 Y68.7042
G01 X77.9021 Y68.6794
G01 X77.9226 Y68.6488
G01 X77.9386 Y68.6226
G01 X77.9567 Y68.5906
G01 X77.9732 Y68.5577
G01 X77.9862 Y68.5298
G01 X78.0002 Y68.4958
G01 X78.0108 Y68.4670
G01 X78.0223 Y68.4321
G01 X78.0322 Y68.3966
G01 X78.0394 Y68.3668
G01 X78.0466 Y68.3307
G01 X78.0513 Y68.3004
G01 X78.0558 Y68.2638
G01 X78.0585 Y68.2271
G01 X78.0598 Y68.1965
G01 X78.0598 Y68.1596
G01 X78.0591 Y68.1413
G01 X78.0574 Y68.1106
G01 X78.0538 Y68.0740
G01 X78.0495 Y68.0436
G01 X78.0432 Y68.0073
G01 X78.0351 Y67.9714
G01 X78.0275 Y67.9417
G01 X78.0168 Y67.9065
G01 X78.0067 Y67.8775
G01 X77.9934 Y67.8432
G01 X77.9785 Y67.8095
G01 X77.9652 Y67.7819
G01 X77.9478 Y67.7494
G01 X77.9322 Y67.7230
G01 X77.9125 Y67.6919
G01 X77.8914 Y67.6618
G01 X77.8729 Y67.6373
G01 X77.8495 Y67.6088
G01 X77.8374 Y67.5950
G01 X77.8166 Y67.5725
G01 X77.7905 Y67.5464
G01 X77.7680 Y67.5257
G01 X77.7401 Y67.5016
G01 X77.7111 Y67.4790
G01 X77.6863 Y67.4609
G01 X77.6557 Y67.4404
G01 X77.6400 Y67.4308
G01 X77.6136 Y67.4152
G01 X77.5811 Y67.3978
G01 X77.5535 Y67.3845
G01 X77.5198 Y67.3696
G01 X77.4855 Y67.3564
G01 X77.4565 Y67.3462
G01 X77.4213 Y67.3355
G01 X77.4035 Y67.3309
G01 X77.3737 Y67.3236
G01 X77.3376 Y67.3164
G01 X77.3073 Y67.3117
G01 X77.2707 Y67.3072
G01 X77.2340 Y67.3045
G01 X77.2034 Y67.3032
G01 X19.9641 Y67.3030
G01 X19.9641 Y11.2687
G01 X19.9626 Y11.2289
G01 X19.9599 Y11.1922
G01 X19.9579 Y11.1739
G01 X19.9536 Y11.1435
G01 X19.9473 Y11.1072
G01 X19.9435 Y11.0892
G01 X19.9363 Y11.0594
G01 X19.9264 Y11.0239
G01 X19.9149 Y10.9890
G01 X19.9043 Y10.9602
G01 X19.8975 Y10.9431
G01 X19.8826 Y10.9094
G01 X19.8693 Y10.8818
G01 X19.8608 Y10.8655
G01 X19.8426 Y10.8334
G01 X19.8267 Y10.8072
G01 X19.8166 Y10.7918
G01 X19.7954 Y10.7617
G01 X19.7770 Y10.7372
G01 X19.7655 Y10.7228
G01 X19.7536 Y10.7087
G01 X19.7332 Y10.6859
G01 X19.7078 Y10.6592
G01 X19.6946 Y10.6463
G01 X19.6721 Y10.6256
G01 X19.6442 Y10.6015
G01 X19.6298 Y10.5900
G01 X19.6053 Y10.5716
G01 X19.5752 Y10.5504
G01 X19.5441 Y10.5307
G01 X19.5177 Y10.5151
G01 X19.5016 Y10.5062
G01 X19.4687 Y10.4897
G01 X19.4408 Y10.4768
G01 X19.4239 Y10.4695
G01 X19.4068 Y10.4627
G01 X19.3780 Y10.4521
G01 X19.3431 Y10.4406
G01 X19.3254 Y10.4354
G01 X19.2957 Y10.4278
G01 X19.2598 Y10.4197
G01 X19.2417 Y10.4163
G01 X19.2114 Y10.4116
G01 X19.1748 Y10.4071
G01 X19.1381 Y10.4044
G01 X19.1075 Y10.4031
G01 X19.0706 Y10.4031
G01 X19.0216 Y10.4055
G01 X18.9850 Y10.4091
G01 X18.9364 Y10.4163
G01 X18.9003 Y10.4235
G01 X18.8527 Y10.4354
G01 X18.8175 Y10.4461
G01 X18.7713 Y10.4627
G01 X18.7373 Y10.4768
G01 X18.6929 Y10.4977
G01 X18.6604 Y10.5151
G01 X18.6183 Y10.5403
G01 X18.5877 Y10.5608
G01 X18.5483 Y10.5900
G01 X18.5198 Y10.6134
G01 X18.4835 Y10.6463
G01 X18.4574 Y10.6724
G01 X18.4245 Y10.7087
G01 X18.4011 Y10.7372
G01 X18.3719 Y10.7766
G01 X18.3514 Y10.8072
G01 X18.3262 Y10.8493
G01 X18.3088 Y10.8818
G01 X18.2879 Y10.9262
G01 X18.2738 Y10.9602
G01 X18.2572 Y11.0064
G01 X18.2465 Y11.0416
G01 X18.2346 Y11.0892
G01 X18.2274 Y11.1253
G01 X18.2202 Y11.1739
G01 X18.2166 Y11.2105
G01 X18.2149 Y11.2412
G01 X18.2140 Y11.2687
G01 X18.2140 Y67.3030
G01 X3.0001 Y67.3030
G01 X3.0001 Y3.0001
G01 X77.2034 Y2.9999
G01 X77.2340 Y2.9986
G01 X77.2707 Y2.9959
G01 X77.2890 Y2.9939
G01 X77.3194 Y2.9896
G01 X77.3557 Y2.9833
G01 X77.3737 Y2.9795
G01 X77.4035 Y2.9723
G01 X77.4390 Y2.9624
G01 X77.4739 Y2.9509
G01 X77.5027 Y2.9404
G01 X77.5368 Y2.9263
G01 X77.5646 Y2.9133
G01 X77.5975 Y2.8968
G01 X77.6136 Y2.8879
G01 X77.6400 Y2.8723
G01 X77.6711 Y2.8526
G01 X77.7012 Y2.8315
G01 X77.7257 Y2.8130
G01 X77.7542 Y2.7896
G01 X77.7771 Y2.7692
G01 X77.7906 Y2.7567
G01 X77.8166 Y2.7306
G01 X77.8374 Y2.7081
G01 X77.8614 Y2.6802
G01 X77.8840 Y2.6512
G01 X77.9021 Y2.6264
G01 X77.9226 Y2.5958
G01 X77.9322 Y2.5801
G01 X77.9478 Y2.5537
G01 X77.9567 Y2.5376
G01 X77.9732 Y2.5047
G01 X77.9862 Y2.4769
G01 X78.0002 Y2.4429
G01 X78.0067 Y2.4256
G01 X78.0168 Y2.3966
G01 X78.0275 Y2.3614
G01 X78.0351 Y2.3317
G01 X78.0432 Y2.2958
G01 X78.0466 Y2.2777
G01 X78.0513 Y2.2474
G01 X78.0558 Y2.2109
G01 X78.0574 Y2.1925
G01 X78.0591 Y2.1619
G01 X78.0600 Y2.1251
G01 X78.0591 Y2.0883
G01 X78.0574 Y2.0576
G01 X78.0558 Y2.0393
G01 X78.0513 Y2.0028
G01 X78.0466 Y1.9724
G01 X78.0432 Y1.9543
G01 X78.0351 Y1.9184
G01 X78.0275 Y1.8887
G01 X78.0168 Y1.8535
G01 X78.0067 Y1.8245
G01 X78.0002 Y1.8073
G01 X77.9862 Y1.7733
G01 X77.9732 Y1.7454
G01 X77.9567 Y1.7126
G01 X77.9386 Y1.6805
G01 X77.9226 Y1.6543
G01 X77.9021 Y1.6237
G01 X77.8840 Y1.5989
G01 X77.8729 Y1.5843
G01 X77.8495 Y1.5558
G01 X77.8166 Y1.5195
G01 X77.7906 Y1.4934
G01 X77.7542 Y1.4605
G01 X77.7401 Y1.4486
G01 X77.7111 Y1.4260
G01 X77.6863 Y1.4079
G01 X77.6711 Y1.3975
G01 X77.6400 Y1.3778
G01 X77.6136 Y1.3622
G01 X77.5975 Y1.3533
G01 X77.5811 Y1.3448
G01 X77.5535 Y1.3315
G01 X77.5368 Y1.3239
G01 X77.5027 Y1.3098
G01 X77.4565 Y1.2932
G01 X77.4213 Y1.2826
G01 X77.3737 Y1.2706
G01 X77.3557 Y1.2668
G01 X77.3194 Y1.2605
G01 X77.2890 Y1.2562
G01 X77.2707 Y1.2542
G01 X77.2340 Y1.2515
G01 X77.2126 Y1.2505
G01 X77.1850 Y1.2500
G01 X2.1251 Y1.2500
G01 X2.0975 Y1.2505
G01 X2.0760 Y1.2515
G01 X2.0393 Y1.2542
G01 X2.0028 Y1.2587
G01 X1.9724 Y1.2634
G01 X1.9363 Y1.2706
G01 X1.8887 Y1.2826
G01 X1.8535 Y1.2932
G01 X1.8245 Y1.3034
G01 X1.7902 Y1.3166
G01 X1.7733 Y1.3239
G01 X1.7454 Y1.3368
G01 X1.7126 Y1.3533
G01 X1.6805 Y1.3715
G01 X1.6543 Y1.3874
G01 X1.6237 Y1.4079
G01 X1.5843 Y1.4371
G01 X1.5558 Y1.4605
G01 X1.5195 Y1.4934
G01 X1.4934 Y1.5195
G01 X1.4605 Y1.5558
G01 X1.4486 Y1.5699
G01 X1.4260 Y1.5989
G01 X1.4079 Y1.6237
G01 X1.3975 Y1.6389
G01 X1.3874 Y1.6543
G01 X1.3715 Y1.6805
G01 X1.3533 Y1.7126
G01 X1.3448 Y1.7289
G01 X1.3315 Y1.7565
G01 X1.3239 Y1.7733
G01 X1.3098 Y1.8073
G01 X1.2932 Y1.8535
G01 X1.2826 Y1.8887
G01 X1.2706 Y1.9363
G01 X1.2634 Y1.9724
G01 X1.2605 Y1.9906
G01 X1.2562 Y2.0210
G01 X1.2542 Y2.0393
G01 X1.2515 Y2.0760
G01 X1.2502 Y2.1067
G01 X1.2500 Y2.1251
G01 X1.2500 Y68.1781
G00 X1.2500 Y68.1781
G01 F250.00
G01 Z-0.3000
G01 F2500.00
G01 X1.2505 Y68.2057
G01 X1.2515 Y68.2271
G01 X1.2542 Y68.2638
G01 X1.2562 Y68.2821
G01 X1.2605 Y68.3125
G01 X1.2668 Y68.3488
G01 X1.2706 Y68.3668
G01 X1.2779 Y68.3966
G01 X1.2877 Y68.4321
G01 X1.2932 Y68.4496
G01 X1.3034 Y68.4786
G01 X1.3166 Y68.5129
G01 X1.3315 Y68.5466
G01 X1.3448 Y68.5742
G01 X1.3533 Y68.5906
G01 X1.3622 Y68.6067
G01 X1.3778 Y68.6331
G01 X1.3975 Y68.6642
G01 X1.4187 Y68.6943
G01 X1.4371 Y68.7188
G01 X1.4486 Y68.7332
G01 X1.4727 Y68.7611
G01 X1.4934 Y68.7836
G01 X1.5195 Y68.8097
G01 X1.5558 Y68.8426
G01 X1.5843 Y68.8660
G01 X1.6237 Y68.8952
G01 X1.6543 Y68.9157
G01 X1.6964 Y68.9409
G01 X1.7289 Y68.9583
G01 X1.7565 Y68.9716
G01 X1.7902 Y68.9865
G01 X1.8073 Y68.9933
G01 X1.8361 Y69.0039
G01 X1.8710 Y69.0154
G01 X1.9065 Y69.0253
G01 X1.9363 Y69.0325
G01 X1.9543 Y69.0363
G01 X1.9906 Y69.0426
G01 X2.0210 Y69.0469
G01 X2.0393 Y69.0489
G01 X2.0760 Y69.0516
G01 X2.0975 Y69.0526
G01 X2.1251 Y69.0531
G01 X18.2140 Y69.0531
G01 X18.2140 Y77.3180
G01 X18.2142 Y77.3364
G01 X18.2155 Y77.3670
G01 X18.2182 Y77.4037
G01 X18.2227 Y77.4403
G01 X18.2274 Y77.4706
G01 X18.2308 Y77.4887
G01 X18.2389 Y77.5246
G01 X18.2465 Y77.5543
G01 X18.2517 Y77.5720
G01 X18.2572 Y77.5895
G01 X18.2674 Y77.6185
G01 X18.2806 Y77.6528
G01 X18.2955 Y77.6865
G01 X18.3088 Y77.7141
G01 X18.3262 Y77.7466
G01 X18.3514 Y77.7887
G01 X18.3719 Y77.8193
G01 X18.4011 Y77.8587
G01 X18.4245 Y77.8872
G01 X18.4574 Y77.9235
G01 X18.4835 Y77.9496
G01 X18.5060 Y77.9703
G01 X18.5339 Y77.9944
G01 X18.5483 Y78.0059
G01 X18.5728 Y78.0243
G01 X18.6029 Y78.0455
G01 X18.6340 Y78.0652
G01 X18.6604 Y78.0808
G01 X18.6929 Y78.0982
G01 X18.7373 Y78.1192
G01 X18.7713 Y78.1332
G01 X18.8001 Y78.1438
G01 X18.8350 Y78.1553
G01 X18.8527 Y78.1605
G01 X18.8824 Y78.1681
G01 X18.9183 Y78.1762
G01 X18.9546 Y78.1825
G01 X18.9850 Y78.1868
G01 X19.0033 Y78.1888
G01 X19.0400 Y78.1915
G01 X19.0706 Y78.1928
G01 X19.0891 Y78.1930
G01 X19.1075 Y78.1928
G01 X19.1381 Y78.1915
G01 X19.1748 Y78.1888
G01 X19.1931 Y78.1868
G01 X19.2235 Y78.1825
G01 X19.2598 Y78.1762
G01 X19.2957 Y78.1681
G01 X19.3254 Y78.1605
G01 X19.3431 Y78.1553
G01 X19.3780 Y78.1438
G01 X19.4068 Y78.1332
G01 X19.4408 Y78.1192
G01 X19.4852 Y78.0982
G01 X19.5177 Y78.0808
G01 X19.5441 Y78.0652
G01 X19.5752 Y78.0455
G01 X19.6053 Y78.0243
G01 X19.6298 Y78.0059
G01 X19.6442 Y77.9944
G01 X19.6721 Y77.9703
G01 X19.6946 Y77.9496
G01 X19.7207 Y77.9235
G01 X19.7536 Y77.8872
G01 X19.7770 Y77.8587
G01 X19.8062 Y77.8193
G01 X19.8267 Y77.7887
G01 X19.8519 Y77.7466
G01 X19.8693 Y77.7141
G01 X19.8826 Y77.6865
G01 X19.8975 Y77.6528
G01 X19.9108 Y77.6185
G01 X19.9209 Y77.5895
G01 X19.9264 Y77.5720
G01 X19.9316 Y77.5543
G01 X19.9392 Y77.5246
G01 X19.9473 Y77.4887
G01 X19.9507 Y77.4706
G01 X19.9554 Y77.4403
G01 X19.9599 Y77.4037
G01 X19.9626 Y77.3670
G01 X19.9639 Y77.3364
G01 X19.9641 Y77.3180
G01 X19.9641 Y69.0531
G01 X77.1850 Y69.0531
G01 X77.2126 Y69.0526
G01 X77.2340 Y69.0516
G01 X77.2707 Y69.0489
G01 X77.3073 Y69.0444
G01 X77.3376 Y69.0397
G01 X77.3737 Y69.0325
G01 X77.4213 Y69.0206
G01 X77.4565 Y69.0099
G01 X77.4855 Y68.9998
G01 X77.5198 Y68.9865
G01 X77.5535 Y68.9716
G01 X77.5811 Y68.9583
G01 X77.5975 Y68.9498
G01 X77.6295 Y68.9316
G01 X77.6557 Y68.9157
G01 X77.6863 Y68.8952
G01 X77.7257 Y68.8660
G01 X77.7542 Y68.8426
G01 X77.7771 Y68.8222
G01 X77.8037 Y68.7968
G01 X77.8291 Y68.7702
G01 X77.8495 Y68.7473
G01 X77.8614 Y68.7332
G01 X77.8840 Y68.7042
G01 X77.9021 Y68.6794
G01 X77.9226 Y68.6488
G01 X77.9386 Y68.6226
G01 X77.9567 Y68.5906
G01 X77.9732 Y68.5577
G01 X77.9862 Y68.5298
G01 X78.0002 Y68.4958
G01 X78.0108 Y68.4670
G01 X78.0223 Y68.4321
G01 X78.0322 Y68.3966
G01 X78.0394 Y68.3668
G01 X78.0466 Y68.3307
G01 X78.0513 Y68.3004
G01 X78.0558 Y68.2638
G01 X78.0585 Y68.2271
G01 X78.0598 Y68.1965
G01 X78.0598 Y68.1596
G01 X78.0591 Y68.1413
G01 X78.0574 Y68.1106
G01 X78.0538 Y68.0740
G01 X78.0495 Y68.0436
G01 X78.0432 Y68.0073
G01 X78.0351 Y67.9714
G01 X78.0275 Y67.9417
G01 X78.0168 Y67.9065
G01 X78.0067 Y67.8775
G01 X77.9934 Y67.8432
G01 X77.9785 Y67.8095
G01 X77.9652 Y67.7819
G01 X77.9478 Y67.7494
G01 X77.9322 Y67.7230
G01 X77.9125 Y67.6919
G01 X77.8914 Y67.6618
G01 X77.8729 Y67.6373
G01 X77.8495 Y67.6088
G01 X77.8374 Y67.5950
G01 X77.8166 Y67.5725
G01 X77.7905 Y67.5464
G01 X77.7680 Y67.5257
G01 X77.7401 Y67.5016
G01 X77.7111 Y67.4790
G01 X77.6863 Y67.4609
G01 X77.6557 Y67.4404
G01 X77.6400 Y67.4308
G01 X77.6136 Y67.4152
G01 X77.5811 Y67.3978
G01 X77.5535 Y67.3845
G01 X77.5198 Y67.3696
G01 X77.4855 Y67.3564
G01 X77.4565 Y67.3462
G01 X77.4213 Y67.3355
G01 X77.4035 Y67.3309
G01 X77.3737 Y67.3236
G01 X77.3376 Y67.3164
G01 X77.3073 Y67.3117
G01 X77.2707 Y67.3072
G01 X77.2340 Y67.3045
G01 X77.2034 Y67.3032
G01 X19.9641 Y67.3030
G01 X19.9641 Y11.2687
G01 X19.9626 Y11.2289
G01 X19.9599 Y11.1922
G01 X19.9579 Y11.1739
G01 X19.9536 Y11.1435
G01 X19.9473 Y11.1072
G01 X19.9435 Y11.0892
G01 X19.9363 Y11.0594
G01 X19.9264 Y11.0239
G01 X19.9149 Y10.9890
G01 X19.9043 Y10.9602
G01 X19.8975 Y10.9431
G01 X19.8826 Y10.9094
G01 X19.8693 Y10.8818
G01 X19.8608 Y10.8655
G01 X19.8426 Y10.8334
G01 X19.8267 Y10.8072
G01 X19.8166 Y10.7918
G01 X19.7954 Y10.7617
G01 X19.7770 Y10.7372
G01 X19.7655 Y10.7228
G01 X19.7536 Y10.7087
G01 X19.7332 Y10.6859
G01 X19.7078 Y10.6592
G01 X19.6946 Y10.6463
G01 X19.6721 Y10.6256
G01 X19.6442 Y10.6015
G01 X19.6298 Y10.5900
G01 X19.6053 Y10.5716
G01 X19.5752 Y10.5504
G01 X19.5441 Y10.5307
G01 X19.5177 Y10.5151
G01 X19.5016 Y10.5062
G01 X19.4687 Y10.4897
G01 X19.4408 Y10.4768
G01 X19.4239 Y10.4695
G01 X19.4068 Y10.4627
G01 X19.3780 Y10.4521
G01 X19.3431 Y10.4406
G01 X19.3254 Y10.4354
G01 X19.2957 Y10.4278
G01 X19.2598 Y10.4197
G01 X19.2417 Y10.4163
G01 X19.2114 Y10.4116
G01 X19.1748 Y10.4071
G01 X19.1381 Y10.4044
G01 X19.1075 Y10.4031
G01 X19.0706 Y10.4031
G01 X19.0216 Y10.4055
G01 X18.9850 Y10.4091
G01 X18.9364 Y10.4163
G01 X18.9003 Y10.4235
G01 X18.8527 Y10.4354
G01 X18.8175 Y10.4461
G01 X18.7713 Y10.4627
G01 X18.7373 Y10.4768
G01 X18.6929 Y10.4977
G01 X18.6604 Y10.5151
G01 X18.6183 Y10.5403
G01 X18.5877 Y10.5608
G01 X18.5483 Y10.5900
G01 X18.5198 Y10.6134
G01 X18.4835 Y10.6463
G01 X18.4574 Y10.6724
G01 X18.4245 Y10.7087
G01 X18.4011 Y10.7372
G01 X18.3719 Y10.7766
G01 X18.3514 Y10.8072
G01 X18.3262 Y10.8493
G01 X18.3088 Y10.8818
G01 X18.2879 Y10.9262
G01 X18.2738 Y10.9602
G01 X18.2572 Y11.0064
G01 X18.2465 Y11.0416
G01 X18.2346 Y11.0892
G01 X18.2274 Y11.1253
G01 X18.2202 Y11.1739
G01 X18.2166 Y11.2105
G01 X18.2149 Y11.2412
G01 X18.2140 Y11.2687
G01 X18.2140 Y67.3030
G01 X3.0001 Y67.3030
G01 X3.0001 Y3.0001
G01 X77.2034 Y2.9999
G01 X77.2340 Y2.9986
G01 X77.2707 Y2.9959
G01 X77.2890 Y2.9939
G01 X77.3194 Y2.9896
G01 X77.3557 Y2.9833
G01 X77.3737 Y2.9795
G01 X77.4035 Y2.9723
G01 X77.4390 Y2.9624
G01 X77.4739 Y2.9509
G01 X77.5027 Y2.9404
G01 X77.5368 Y2.9263
G01 X77.5646 Y2.9133
G01 X77.5975 Y2.8968
G01 X77.6136 Y2.8879
G01 X77.6400 Y2.8723
G01 X77.6711 Y2.8526
G01 X77.7012 Y2.8315
G01 X77.7257 Y2.8130
G01 X77.7542 Y2.7896
G01 X77.7771 Y2.7692
G01 X77.7906 Y2.7567
G01 X77.8166 Y2.7306
G01 X77.8374 Y2.7081
G01 X77.8614 Y2.6802
G01 X77.8840 Y2.6512
G01 X77.9021 Y2.6264
G01 X77.9226 Y2.5958
G01 X77.9322 Y2.5801
G01 X77.9478 Y2.5537
G01 X77.9567 Y2.5376
G01 X77.9732 Y2.5047
G01 X77.9862 Y2.4769
G01 X78.0002 Y2.4429
G01 X78.0067 Y2.4256
G01 X78.0168 Y2.3966
G01 X78.0275 Y2.3614
G01 X78.0351 Y2.3317
G01 X78.0432 Y2.2958
G01 X78.0466 Y2.2777
G01 X78.0513 Y2.2474
G01 X78.0558 Y2.2109
G01 X78.0574 Y2.1925
G01 X78.0591 Y2.1619
G01 X78.0600 Y2.1251
G01 X78.0591 Y2.0883
G01 X78.0574 Y2.0576
G01 X78.0558 Y2.0393
G01 X78.0513 Y2.0028
G01 X78.0466 Y1.9724
G01 X78.0432 Y1.9543
G01 X78.0351 Y1.9184
G01 X78.0275 Y1.8887
G01 X78.0168 Y1.8535
G01 X78.0067 Y1.8245
G01 X78.0002 Y1.8073
G01 X77.9862 Y1.7733
G01 X77.9732 Y1.7454
G01 X77.9567 Y1.7126
G01 X77.9386 Y1.6805
G01 X77.9226 Y1.6543
G01 X77.9021 Y1.6237
G01 X77.8840 Y1.5989
G01 X77.8729 Y1.5843
G01 X77.8495 Y1.5558
G01 X77.8166 Y1.5195
G01 X77.7906 Y1.4934
G01 X77.7542 Y1.4605
G01 X77.7401 Y1.4486
G01 X77.7111 Y1.4260
G01 X77.6863 Y1.4079
G01 X77.6711 Y1.3975
G01 X77.6400 Y1.3778
G01 X77.6136 Y1.3622
G01 X77.5975 Y1.3533
G01 X77.5811 Y1.3448
G01 X77.5535 Y1.3315
G01 X77.5368 Y1.3239
G01 X77.5027 Y1.3098
G01 X77.4565 Y1.2932
G01 X77.4213 Y1.2826
G01 X77.3737 Y1.2706
G01 X77.3557 Y1.2668
G01 X77.3194 Y1.2605
G01 X77.2890 Y1.2562
G01 X77.2707 Y1.2542
G01 X77.2340 Y1.2515
G01 X77.2126 Y1.2505
G01 X77.1850 Y1.2500
G01 X2.1251 Y1.2500
G01 X2.0975 Y1.2505
G01 X2.0760 Y1.2515
G01 X2.0393 Y1.2542
G01 X2.0028 Y1.2587
G01 X1.9724 Y1.2634
G01 X1.9363 Y1.2706
G01 X1.8887 Y1.2826
G01 X1.8535 Y1.2932
G01 X1.8245 Y1.3034
G01 X1.7902 Y1.3166
G01 X1.7733 Y1.3239
G01 X1.7454 Y1.3368
G01 X1.7126 Y1.3533
G01 X1.6805 Y1.3715
G01 X1.6543 Y1.3874
G01 X1.6237 Y1.4079
G01 X1.5843 Y1.4371
G01 X1.5558 Y1.4605
G01 X1.5195 Y1.4934
G01 X1.4934 Y1.5195
G01 X1.4605 Y1.5558
G01 X1.4486 Y1.5699
G01 X1.4260 Y1.5989
G01 X1.4079 Y1.6237
G01 X1.3975 Y1.6389
G01 X1.3874 Y1.6543
G01 X1.3715 Y1.6805
G01 X1.3533 Y1.7126
G01 X1.3448 Y1.7289
G01 X1.3315 Y1.7565
G01 X1.3239 Y1.7733
G01 X1.3098 Y1.8073
G01 X1.2932 Y1.8535
G01 X1.2826 Y1.8887
G01 X1.2706 Y1.9363
G01 X1.2634 Y1.9724
G01 X1.2605 Y1.9906
G01 X1.2562 Y2.0210
G01 X1.2542 Y2.0393
G01 X1.2515 Y2.0760
G01 X1.2502 Y2.1067
G01 X1.2500 Y2.1251
G01 X1.2500 Y68.1781
G00 X1.2500 Y68.1781
G01 F250.00
G01 Z-0.4000
G01 F2500.00
G01 X1.2505 Y68.2057
G01 X1.2515 Y68.2271
G01 X1.2542 Y68.2638
G01 X1.2562 Y68.2821
G01 X1.2605 Y68.3125
G01 X1.2668 Y68.3488
G01 X1.2706 Y68.3668
G01 X1.2779 Y68.3966
G01 X1.2877 Y68.4321
G01 X1.2932 Y68.4496
G01 X1.3034 Y68.4786
G01 X1.3166 Y68.5129
G01 X1.3315 Y68.5466
G01 X1.3448 Y68.5742
G01 X1.3533 Y68.5906
G01 X1.3622 Y68.6067
G01 X1.3778 Y68.6331
G01 X1.3975 Y68.6642
G01 X1.4187 Y68.6943
G01 X1.4371 Y68.7188
G01 X1.4486 Y68.7332
G01 X1.4727 Y68.7611
G01 X1.4934 Y68.7836
G01 X1.5195 Y68.8097
G01 X1.5558 Y68.8426
G01 X1.5843 Y68.8660
G01 X1.6237 Y68.8952
G01 X1.6543 Y68.9157
G01 X1.6964 Y68.9409
G01 X1.7289 Y68.9583
G01 X1.7565 Y68.9716
G01 X1.7902 Y68.9865
G01 X1.8073 Y68.9933
G01 X1.8361 Y69.0039
G01 X1.8710 Y69.0154
G01 X1.9065 Y69.0253
G01 X1.9363 Y69.0325
G01 X1.9543 Y69.0363
G01 X1.9906 Y69.0426
G01 X2.0210 Y69.0469
G01 X2.0393 Y69.0489
G01 X2.0760 Y69.0516
G01 X2.0975 Y69.0526
G01 X2.1251 Y69.0531
G01 X18.2140 Y69.0531
G01 X18.2140 Y77.3180
G01 X18.2142 Y77.3364
G01 X18.2155 Y77.3670
G01 X18.2182 Y77.4037
G01 X18.2227 Y77.4403
G01 X18.2274 Y77.4706
G01 X18.2308 Y77.4887
G01 X18.2389 Y77.5246
G01 X18.2465 Y77.5543
G01 X18.2517 Y77.5720
G01 X18.2572 Y77.5895
G01 X18.2674 Y77.6185
G01 X18.2806 Y77.6528
G01 X18.2955 Y77.6865
G01 X18.3088 Y77.7141
G01 X18.3262 Y77.7466
G01 X18.3514 Y77.7887
G01 X18.3719 Y77.8193
G01 X18.4011 Y77.8587
G01 X18.4245 Y77.8872
G01 X18.4574 Y77.9235
G01 X18.4835 Y77.9496
G01 X18.5060 Y77.9703
G01 X18.5339 Y77.9944
G01 X18.5483 Y78.0059
G01 X18.5728 Y78.0243
G01 X18.6029 Y78.0455
G01 X18.6340 Y78.0652
G01 X18.6604 Y78.0808
G01 X18.6929 Y78.0982
G01 X18.7373 Y78.1192
G01 X18.7713 Y78.1332
G01 X18.8001 Y78.1438
G01 X18.8350 Y78.1553
G01 X18.8527 Y78.1605
G01 X18.8824 Y78.1681
G01 X18.9183 Y78.1762
G01 X18.9546 Y78.1825
G01 X18.9850 Y78.1868
G01 X19.0033 Y78.1888
G01 X19.0400 Y78.1915
G01 X19.0706 Y78.1928
G01 X19.0891 Y78.1930
G01 X19.1075 Y78.1928
G01 X19.1381 Y78.1915
G01 X19.1748 Y78.1888
G01 X19.1931 Y78.1868
G01 X19.2235 Y78.1825
G01 X19.2598 Y78.1762
G01 X19.2957 Y78.1681
G01 X19.3254 Y78.1605
G01 X19.3431 Y78.1553
G01 X19.3780 Y78.1438
G01 X19.4068 Y78.1332
G01 X19.4408 Y78.1192
G01 X19.4852 Y78.0982
G01 X19.5177 Y78.0808
G01 X19.5441 Y78.0652
G01 X19.5752 Y78.0455
G01 X19.6053 Y78.0243
G01 X19.6298 Y78.0059
G01 X19.6442 Y77.9944
G01 X19.6721 Y77.9703
G01 X19.6946 Y77.9496
G01 X19.7207 Y77.9235
G01 X19.7536 Y77.8872
G01 X19.7770 Y77.8587
G01 X19.8062 Y77.8193
G01 X19.8267 Y77.7887
G01 X19.8519 Y77.7466
G01 X19.8693 Y77.7141
G01 X19.8826 Y77.6865
G01 X19.8975 Y77.6528
G01 X19.9108 Y77.6185
G01 X19.9209 Y77.5895
G01 X19.9264 Y77.5720
G01 X19.9316 Y77.5543
G01 X19.9392 Y77.5246
G01 X19.9473 Y77.4887
G01 X19.9507 Y77.4706
G01 X19.9554 Y77.4403
G01 X19.9599 Y77.4037
G01 X19.9626 Y77.3670
G01 X19.9639 Y77.3364
G01 X19.9641 Y77.3180
G01 X19.9641 Y69.0531
G01 X77.1850 Y69.0531
G01 X77.2126 Y69.0526
G01 X77.2340 Y69.0516
G01 X77.2707 Y69.0489
G01 X77.3073 Y69.0444
G01 X77.3376 Y69.0397
G01 X77.3737 Y69.0325
G01 X77.4213 Y69.0206
G01 X77.4565 Y69.0099
G01 X77.4855 Y68.9998
G01 X77.5198 Y68.9865
G01 X77.5535 Y68.9716
G01 X77.5811 Y68.9583
G01 X77.5975 Y68.9498
G01 X77.6295 Y68.9316
G01 X77.6557 Y68.9157
G01 X77.6863 Y68.8952
G01 X77.7257 Y68.8660
G01 X77.7542 Y68.8426
G01 X77.7771 Y68.8222
G01 X77.8037 Y68.7968
G01 X77.8291 Y68.7702
G01 X77.8495 Y68.7473
G01 X77.8614 Y68.7332
G01 X77.8840 Y68.7042
G01 X77.9021 Y68.6794
G01 X77.9226 Y68.6488
G01 X77.9386 Y68.6226
G01 X77.9567 Y68.5906
G01 X77.9732 Y68.5577
G01 X77.9862 Y68.5298
G01 X78.0002 Y68.4958
G01 X78.0108 Y68.4670
G01 X78.0223 Y68.4321
G01 X78.0322 Y68.3966
G01 X78.0394 Y68.3668
G01 X78.0466 Y68.3307
G01 X78.0513 Y68.3004
G01 X78.0558 Y68.2638
G01 X78.0585 Y68.2271
G01 X78.0598 Y68.1965
G01 X78.0598 Y68.1596
G01 X78.0591 Y68.1413
G01 X78.0574 Y68.1106
G01 X78.0538 Y68.0740
G01 X78.0495 Y68.0436
G01 X78.0432 Y68.0073
G01 X78.0351 Y67.9714
G01 X78.0275 Y67.9417
G01 X78.0168 Y67.9065
G01 X78.0067 Y67.8775
G01 X77.9934 Y67.8432
G01 X77.9785 Y67.8095
G01 X77.9652 Y67.7819
G01 X77.9478 Y67.7494
G01 X77.9322 Y67.7230
G01 X77.9125 Y67.6919
G01 X77.8914 Y67.6618
G01 X77.8729 Y67.6373
G01 X77.8495 Y67.6088
G01 X77.8374 Y67.5950
G01 X77.8166 Y67.5725
G01 X77.7905 Y67.5464
G01 X77.7680 Y67.5257
G01 X77.7401 Y67.5016
G01 X77.7111 Y67.4790
G01 X77.6863 Y67.4609
G01 X77.6557 Y67.4404
G01 X77.6400 Y67.4308
G01 X77.6136 Y67.4152
G01 X77.5811 Y67.3978
G01 X77.5535 Y67.3845
G01 X77.5198 Y67.3696
G01 X77.4855 Y67.3564
G01 X77.4565 Y67.3462
G01 X77.4213 Y67.3355
G01 X77.4035 Y67.3309
G01 X77.3737 Y67.3236
G01 X77.3376 Y67.3164
G01 X77.3073 Y67.3117
G01 X77.2707 Y67.3072
G01 X77.2340 Y67.3045
G01 X77.2034 Y67.3032
G01 X19.9641 Y67.3030
G01 X19.9641 Y11.2687
G01 X19.9626 Y11.2289
G01 X19.9599 Y11.1922
G01 X19.9579 Y11.1739
G01 X19.9536 Y11.1435
G01 X19.9473 Y11.1072
G01 X19.9435 Y11.0892
G01 X19.9363 Y11.0594
G01 X19.9264 Y11.0239
G01 X19.9149 Y10.9890
G01 X19.9043 Y10.9602
G01 X19.8975 Y10.9431
G01 X19.8826 Y10.9094
G01 X19.8693 Y10.8818
G01 X19.8608 Y10.8655
G01 X19.8426 Y10.8334
G01 X19.8267 Y10.8072
G01 X19.8166 Y10.7918
G01 X19.7954 Y10.7617
G01 X19.7770 Y10.7372
G01 X19.7655 Y10.7228
G01 X19.7536 Y10.7087
G01 X19.7332 Y10.6859
G01 X19.7078 Y10.6592
G01 X19.6946 Y10.6463
G01 X19.6721 Y10.6256
G01 X19.6442 Y10.6015
G01 X19.6298 Y10.5900
G01 X19.6053 Y10.5716
G01 X19.5752 Y10.5504
G01 X19.5441 Y10.5307
G01 X19.5177 Y10.5151
G01 X19.5016 Y10.5062
G01 X19.4687 Y10.4897
G01 X19.4408 Y10.4768
G01 X19.4239 Y10.4695
G01 X19.4068 Y10.4627
G01 X19.3780 Y10.4521
G01 X19.3431 Y10.4406
G01 X19.3254 Y10.4354
G01 X19.2957 Y10.4278
G01 X19.2598 Y10.4197
G01 X19.2417 Y10.4163
G01 X19.2114 Y10.4116
G01 X19.1748 Y10.4071
G01 X19.1381 Y10.4044
G01 X19.1075 Y10.4031
G01 X19.0706 Y10.4031
G01 X19.0216 Y10.4055
G01 X18.9850 Y10.4091
G01 X18.9364 Y10.4163
G01 X18.9003 Y10.4235
G01 X18.8527 Y10.4354
G01 X18.8175 Y10.4461
G01 X18.7713 Y10.4627
G01 X18.7373 Y10.4768
G01 X18.6929 Y10.4977
G01 X18.6604 Y10.5151
G01 X18.6183 Y10.5403
G01 X18.5877 Y10.5608
G01 X18.5483 Y10.5900
G01 X18.5198 Y10.6134
G01 X18.4835 Y10.6463
G01 X18.4574 Y10.6724
G01 X18.4245 Y10.7087
G01 X18.4011 Y10.7372
G01 X18.3719 Y10.7766
G01 X18.3514 Y10.8072
G01 X18.3262 Y10.8493
G01 X18.3088 Y10.8818
G01 X18.2879 Y10.9262
G01 X18.2738 Y10.9602
G01 X18.2572 Y11.0064
G01 X18.2465 Y11.0416
G01 X18.2346 Y11.0892
G01 X18.2274 Y11.1253
G01 X18.2202 Y11.1739
G01 X18.2166 Y11.2105
G01 X18.2149 Y11.2412
G01 X18.2140 Y11.2687
G01 X18.2140 Y67.3030
G01 X3.0001 Y67.3030
G01 X3.0001 Y3.0001
G01 X77.2034 Y2.9999
G01 X77.2340 Y2.9986
G01 X77.2707 Y2.9959
G01 X77.2890 Y2.9939
G01 X77.3194 Y2.9896
G01 X77.3557 Y2.9833
G01 X77.3737 Y2.9795
G01 X77.4035 Y2.9723
G01 X77.4390 Y2.9624
G01 X77.4739 Y2.9509
G01 X77.5027 Y2.9404
G01 X77.5368 Y2.9263
G01 X77.5646 Y2.9133
G01 X77.5975 Y2.8968
G01 X77.6136 Y2.8879
G01 X77.6400 Y2.8723
G01 X77.6711 Y2.8526
G01 X77.7012 Y2.8315
G01 X77.7257 Y2.8130
G01 X77.7542 Y2.7896
G01 X77.7771 Y2.7692
G01 X77.7906 Y2.7567
G01 X77.8166 Y2.7306
G01 X77.8374 Y2.7081
G01 X77.8614 Y2.6802
G01 X77.8840 Y2.6512
G01 X77.9021 Y2.6264
G01 X77.9226 Y2.5958
G01 X77.9322 Y2.5801
G01 X77.9478 Y2.5537
G01 X77.9567 Y2.5376
G01 X77.9732 Y2.5047
G01 X77.9862 Y2.4769
G01 X78.0002 Y2.4429
G01 X78.0067 Y2.4256
G01 X78.0168 Y2.3966
G01 X78.0275 Y2.3614
G01 X78.0351 Y2.3317
G01 X78.0432 Y2.2958
G01 X78.0466 Y2.2777
G01 X78.0513 Y2.2474
G01 X78.0558 Y2.2109
G01 X78.0574 Y2.1925
G01 X78.0591 Y2.1619
G01 X78.0600 Y2.1251
G01 X78.0591 Y2.0883
G01 X78.0574 Y2.0576
G01 X78.0558 Y2.0393
G01 X78.0513 Y2.0028
G01 X78.0466 Y1.9724
G01 X78.0432 Y1.9543
G01 X78.0351 Y1.9184
G01 X78.0275 Y1.8887
G01 X78.0168 Y1.8535
G01 X78.0067 Y1.8245
G01 X78.0002 Y1.8073
G01 X77.9862 Y1.7733
G01 X77.9732 Y1.7454
G01 X77.9567 Y1.7126
G01 X77.9386 Y1.6805
G01 X77.9226 Y1.6543
G01 X77.9021 Y1.6237
G01 X77.8840 Y1.5989
G01 X77.8729 Y1.5843
G01 X77.8495 Y1.5558
G01 X77.8166 Y1.5195
G01 X77.7906 Y1.4934
G01 X77.7542 Y1.4605
G01 X77.7401 Y1.4486
G01 X77.7111 Y1.4260
G01 X77.6863 Y1.4079
G01 X77.6711 Y1.3975
G01 X77.6400 Y1.3778
G01 X77.6136 Y1.3622
G01 X77.5975 Y1.3533
G01 X77.5811 Y1.3448
G01 X77.5535 Y1.3315
G01 X77.5368 Y1.3239
G01 X77.5027 Y1.3098
G01 X77.4565 Y1.2932
G01 X77.4213 Y1.2826
G01 X77.3737 Y1.2706
G01 X77.3557 Y1.2668
G01 X77.3194 Y1.2605
G01 X77.2890 Y1.2562
G01 X77.2707 Y1.2542
G01 X77.2340 Y1.2515
G01 X77.2126 Y1.2505
G01 X77.1850 Y1.2500
G01 X2.1251 Y1.2500
G01 X2.0975 Y1.2505
G01 X2.0760 Y1.2515
G01 X2.0393 Y1.2542
G01 X2.0028 Y1.2587
G01 X1.9724 Y1.2634
G01 X1.9363 Y1.2706
G01 X1.8887 Y1.2826
G01 X1.8535 Y1.2932
G01 X1.8245 Y1.3034
G01 X1.7902 Y1.3166
G01 X1.7733 Y1.3239
G01 X1.7454 Y1.3368
G01 X1.7126 Y1.3533
G01 X1.6805 Y1.3715
G01 X1.6543 Y1.3874
G01 X1.6237 Y1.4079
G01 X1.5843 Y1.4371
G01 X1.5558 Y1.4605
G01 X1.5195 Y1.4934
G01 X1.4934 Y1.5195
G01 X1.4605 Y1.5558
G01 X1.4486 Y1.5699
G01 X1.4260 Y1.5989
G01 X1.4079 Y1.6237
G01 X1.3975 Y1.6389
G01 X1.3874 Y1.6543
G01 X1.3715 Y1.6805
G01 X1.3533 Y1.7126
G01 X1.3448 Y1.7289
G01 X1.3315 Y1.7565
G01 X1.3239 Y1.7733
G01 X1.3098 Y1.8073
G01 X1.2932 Y1.8535
G01 X1.2826 Y1.8887
G01 X1.2706 Y1.9363
G01 X1.2634 Y1.9724
G01 X1.2605 Y1.9906
G01 X1.2562 Y2.0210
G01 X1.2542 Y2.0393
G01 X1.2515 Y2.0760
G01 X1.2502 Y2.1067
G01 X1.2500 Y2.1251
G01 X1.2500 Y68.1781
G00 X1.2500 Y68.1781
G01 F250.00
G01 Z-0.5000
G01 F2500.00
G01 X1.2505 Y68.2057
G01 X1.2515 Y68.2271
G01 X1.2542 Y68.2638
G01 X1.2562 Y68.2821
G01 X1.2605 Y68.3125
G01 X1.2668 Y68.3488
G01 X1.2706 Y68.3668
G01 X1.2779 Y68.3966
G01 X1.2877 Y68.4321
G01 X1.2932 Y68.4496
G01 X1.3034 Y68.4786
G01 X1.3166 Y68.5129
G01 X1.3315 Y68.5466
G01 X1.3448 Y68.5742
G01 X1.3533 Y68.5906
G01 X1.3622 Y68.6067
G01 X1.3778 Y68.6331
G01 X1.3975 Y68.6642
G01 X1.4187 Y68.6943
G01 X1.4371 Y68.7188
G01 X1.4486 Y68.7332
G01 X1.4727 Y68.7611
G01 X1.4934 Y68.7836
G01 X1.5195 Y68.8097
G01 X1.5558 Y68.8426
G01 X1.5843 Y68.8660
G01 X1.6237 Y68.8952
G01 X1.6543 Y68.9157
G01 X1.6964 Y68.9409
G01 X1.7289 Y68.9583
G01 X1.7565 Y68.9716
G01 X1.7902 Y68.9865
G01 X1.8073 Y68.9933
G01 X1.8361 Y69.0039
G01 X1.8710 Y69.0154
G01 X1.9065 Y69.0253
G01 X1.9363 Y69.0325
G01 X1.9543 Y69.0363
G01 X1.9906 Y69.0426
G01 X2.0210 Y69.0469
G01 X2.0393 Y69.0489
G01 X2.0760 Y69.0516
G01 X2.0975 Y69.0526
G01 X2.1251 Y69.0531
G01 X18.2140 Y69.0531
G01 X18.2140 Y77.3180
G01 X18.2142 Y77.3364
G01 X18.2155 Y77.3670
G01 X18.2182 Y77.4037
G01 X18.2227 Y77.4403
G01 X18.2274 Y77.4706
G01 X18.2308 Y77.4887
G01 X18.2389 Y77.5246
G01 X18.2465 Y77.5543
G01 X18.2517 Y77.5720
G01 X18.2572 Y77.5895
G01 X18.2674 Y77.6185
G01 X18.2806 Y77.6528
G01 X18.2955 Y77.6865
G01 X18.3088 Y77.7141
G01 X18.3262 Y77.7466
G01 X18.3514 Y77.7887
G01 X18.3719 Y77.8193
G01 X18.4011 Y77.8587
G01 X18.4245 Y77.8872
G01 X18.4574 Y77.9235
G01 X18.4835 Y77.9496
G01 X18.5060 Y77.9703
G01 X18.5339 Y77.9944
G01 X18.5483 Y78.0059
G01 X18.5728 Y78.0243
G01 X18.6029 Y78.0455
G01 X18.6340 Y78.0652
G01 X18.6604 Y78.0808
G01 X18.6929 Y78.0982
G01 X18.7373 Y78.1192
G01 X18.7713 Y78.1332
G01 X18.8001 Y78.1438
G01 X18.8350 Y78.1553
G01 X18.8527 Y78.1605
G01 X18.8824 Y78.1681
G01 X18.9183 Y78.1762
G01 X18.9546 Y78.1825
G01 X18.9850 Y78.1868
G01 X19.0033 Y78.1888
G01 X19.0400 Y78.1915
G01 X19.0706 Y78.1928
G01 X19.0891 Y78.1930
G01 X19.1075 Y78.1928
G01 X19.1381 Y78.1915
G01 X19.1748 Y78.1888
G01 X19.1931 Y78.1868
G01 X19.2235 Y78.1825
G01 X19.2598 Y78.1762
G01 X19.2957 Y78.1681
G01 X19.3254 Y78.1605
G01 X19.3431 Y78.1553
G01 X19.3780 Y78.1438
G01 X19.4068 Y78.1332
G01 X19.4408 Y78.1192
G01 X19.4852 Y78.0982
G01 X19.5177 Y78.0808
G01 X19.5441 Y78.0652
G01 X19.5752 Y78.0455
G01 X19.6053 Y78.0243
G01 X19.6298 Y78.0059
G01 X19.6442 Y77.9944
G01 X19.6721 Y77.9703
G01 X19.6946 Y77.9496
G01 X19.7207 Y77.9235
G01 X19.7536 Y77.8872
G01 X19.7770 Y77.8587
G01 X19.8062 Y77.8193
G01 X19.8267 Y77.7887
G01 X19.8519 Y77.7466
G01 X19.8693 Y77.7141
G01 X19.8826 Y77.6865
G01 X19.8975 Y77.6528
G01 X19.9108 Y77.6185
G01 X19.9209 Y77.5895
G01 X19.9264 Y77.5720
G01 X19.9316 Y77.5543
G01 X19.9392 Y77.5246
G01 X19.9473 Y77.4887
G01 X19.9507 Y77.4706
G01 X19.9554 Y77.4403
G01 X19.9599 Y77.4037
G01 X19.9626 Y77.3670
G01 X19.9639 Y77.3364
G01 X19.9641 Y77.3180
G01 X19.9641 Y69.0531
G01 X77.1850 Y69.0531
G01 X77.2126 Y69.0526
G01 X77.2340 Y69.0516
G01 X77.2707 Y69.0489
G01 X77.3073 Y69.0444
G01 X77.3376 Y69.0397
G01 X77.3737 Y69.0325
G01 X77.4213 Y69.0206
G01 X77.4565 Y69.0099
G01 X77.4855 Y68.9998
G01 X77.5198 Y68.9865
G01 X77.5535 Y68.9716
G01 X77.5811 Y68.9583
G01 X77.5975 Y68.9498
G01 X77.6295 Y68.9316
G01 X77.6557 Y68.9157
G01 X77.6863 Y68.8952
G01 X77.7257 Y68.8660
G01 X77.7542 Y68.8426
G01 X77.7771 Y68.8222
G01 X77.8037 Y68.7968
G01 X77.8291 Y68.7702
G01 X77.8495 Y68.7473
G01 X77.8614 Y68.7332
G01 X77.8840 Y68.7042
G01 X77.9021 Y68.6794
G01 X77.9226 Y68.6488
G01 X77.9386 Y68.6226
G01 X77.9567 Y68.5906
G01 X77.9732 Y68.5577
G01 X77.9862 Y68.5298
G01 X78.0002 Y68.4958
G01 X78.0108 Y68.4670
G01 X78.0223 Y68.4321
G01 X78.0322 Y68.3966
G01 X78.0394 Y68.3668
G01 X78.0466 Y68.3307
G01 X78.0513 Y68.3004
G01 X78.0558 Y68.2638
G01 X78.0585 Y68.2271
G01 X78.0598 Y68.1965
G01 X78.0598 Y68.1596
G01 X78.0591 Y68.1413
G01 X78.0574 Y68.1106
G01 X78.0538 Y68.0740
G01 X78.0495 Y68.0436
G01 X78.0432 Y68.0073
G01 X78.0351 Y67.9714
G01 X78.0275 Y67.9417
G01 X78.0168 Y67.9065
G01 X78.0067 Y67.8775
G01 X77.9934 Y67.8432
G01 X77.9785 Y67.8095
G01 X77.9652 Y67.7819
G01 X77.9478 Y67.7494
G01 X77.9322 Y67.7230
G01 X77.9125 Y67.6919
G01 X77.8914 Y67.6618
G01 X77.8729 Y67.6373
G01 X77.8495 Y67.6088
G01 X77.8374 Y67.5950
G01 X77.8166 Y67.5725
G01 X77.7905 Y67.5464
G01 X77.7680 Y67.5257
G01 X77.7401 Y67.5016
G01 X77.7111 Y67.4790
G01 X77.6863 Y67.4609
G01 X77.6557 Y67.4404
G01 X77.6400 Y67.4308
G01 X77.6136 Y67.4152
G01 X77.5811 Y67.3978
G01 X77.5535 Y67.3845
G01 X77.5198 Y67.3696
G01 X77.4855 Y67.3564
G01 X77.4565 Y67.3462
G01 X77.4213 Y67.3355
G01 X77.4035 Y67.3309
G01 X77.3737 Y67.3236
G01 X77.3376 Y67.3164
G01 X77.3073 Y67.3117
G01 X77.2707 Y67.3072
G01 X77.2340 Y67.3045
G01 X77.2034 Y67.3032
G01 X19.9641 Y67.3030
G01 X19.9641 Y11.2687
G01 X19.9626 Y11.2289
G01 X19.9599 Y11.1922
G01 X19.9579 Y11.1739
G01 X19.9536 Y11.1435
G01 X19.9473 Y11.1072
G01 X19.9435 Y11.0892
G01 X19.9363 Y11.0594
G01 X19.9264 Y11.0239
G01 X19.9149 Y10.9890
G01 X19.9043 Y10.9602
G01 X19.8975 Y10.9431
G01 X19.8826 Y10.9094
G01 X19.8693 Y10.8818
G01 X19.8608 Y10.8655
G01 X19.8426 Y10.8334
G01 X19.8267 Y10.8072
G01 X19.8166 Y10.7918
G01 X19.7954 Y10.7617
G01 X19.7770 Y10.7372
G01 X19.7655 Y10.7228
G01 X19.7536 Y10.7087
G01 X19.7332 Y10.6859
G01 X19.7078 Y10.6592
G01 X19.6946 Y10.6463
G01 X19.6721 Y10.6256
G01 X19.6442 Y10.6015
G01 X19.6298 Y10.5900
G01 X19.6053 Y10.5716
G01 X19.5752 Y10.5504
G01 X19.5441 Y10.5307
G01 X19.5177 Y10.5151
G01 X19.5016 Y10.5062
G01 X19.4687 Y10.4897
G01 X19.4408 Y10.4768
G01 X19.4239 Y10.4695
G01 X19.4068 Y10.4627
G01 X19.3780 Y10.4521
G01 X19.3431 Y10.4406
G01 X19.3254 Y10.4354
G01 X19.2957 Y10.4278
G01 X19.2598 Y10.4197
G01 X19.2417 Y10.4163
G01 X19.2114 Y10.4116
G01 X19.1748 Y10.4071
G01 X19.1381 Y10.4044
G01 X19.1075 Y10.4031
G01 X19.0706 Y10.4031
G01 X19.0216 Y10.4055
G01 X18.9850 Y10.4091
G01 X18.9364 Y10.4163
G01 X18.9003 Y10.4235
G01 X18.8527 Y10.4354
G01 X18.8175 Y10.4461
G01 X18.7713 Y10.4627
G01 X18.7373 Y10.4768
G01 X18.6929 Y10.4977
G01 X18.6604 Y10.5151
G01 X18.6183 Y10.5403
G01 X18.5877 Y10.5608
G01 X18.5483 Y10.5900
G01 X18.5198 Y10.6134
G01 X18.4835 Y10.6463
G01 X18.4574 Y10.6724
G01 X18.4245 Y10.7087
G01 X18.4011 Y10.7372
G01 X18.3719 Y10.7766
G01 X18.3514 Y10.8072
G01 X18.3262 Y10.8493
G01 X18.3088 Y10.8818
G01 X18.2879 Y10.9262
G01 X18.2738 Y10.9602
G01 X18.2572 Y11.0064
G01 X18.2465 Y11.0416
G01 X18.2346 Y11.0892
G01 X18.2274 Y11.1253
G01 X18.2202 Y11.1739
G01 X18.2166 Y11.2105
G01 X18.2149 Y11.2412
G01 X18.2140 Y11.2687
G01 X18.2140 Y67.3030
G01 X3.0001 Y67.3030
G01 X3.0001 Y3.0001
G01 X77.2034 Y2.9999
G01 X77.2340 Y2.9986
G01 X77.2707 Y2.9959
G01 X77.2890 Y2.9939
G01 X77.3194 Y2.9896
G01 X77.3557 Y2.9833
G01 X77.3737 Y2.9795
G01 X77.4035 Y2.9723
G01 X77.4390 Y2.9624
G01 X77.4739 Y2.9509
G01 X77.5027 Y2.9404
G01 X77.5368 Y2.9263
G01 X77.5646 Y2.9133
G01 X77.5975 Y2.8968
G01 X77.6136 Y2.8879
G01 X77.6400 Y2.8723
G01 X77.6711 Y2.8526
G01 X77.7012 Y2.8315
G01 X77.7257 Y2.8130
G01 X77.7542 Y2.7896
G01 X77.7771 Y2.7692
G01 X77.7906 Y2.7567
G01 X77.8166 Y2.7306
G01 X77.8374 Y2.7081
G01 X77.8614 Y2.6802
G01 X77.8840 Y2.6512
G01 X77.9021 Y2.6264
G01 X77.9226 Y2.5958
G01 X77.9322 Y2.5801
G01 X77.9478 Y2.5537
G01 X77.9567 Y2.5376
G01 X77.9732 Y2.5047
G01 X77.9862 Y2.4769
G01 X78.0002 Y2.4429
G01 X78.0067 Y2.4256
G01 X78.0168 Y2.3966
G01 X78.0275 Y2.3614
G01 X78.0351 Y2.3317
G01 X78.0432 Y2.2958
G01 X78.0466 Y2.2777
G01 X78.0513 Y2.2474
G01 X78.0558 Y2.2109
G01 X78.0574 Y2.1925
G01 X78.0591 Y2.1619
G01 X78.0600 Y2.1251
G01 X78.0591 Y2.0883
G01 X78.0574 Y2.0576
G01 X78.0558 Y2.0393
G01 X78.0513 Y2.0028
G01 X78.0466 Y1.9724
G01 X78.0432 Y1.9543
G01 X78.0351 Y1.9184
G01 X78.0275 Y1.8887
G01 X78.0168 Y1.8535
G01 X78.0067 Y1.8245
G01 X78.0002 Y1.8073
G01 X77.9862 Y1.7733
G01 X77.9732 Y1.7454
G01 X77.9567 Y1.7126
G01 X77.9386 Y1.6805
G01 X77.9226 Y1.6543
G01 X77.9021 Y1.6237
G01 X77.8840 Y1.5989
G01 X77.8729 Y1.5843
G01 X77.8495 Y1.5558
G01 X77.8166 Y1.5195
G01 X77.7906 Y1.4934
G01 X77.7542 Y1.4605
G01 X77.7401 Y1.4486
G01 X77.7111 Y1.4260
G01 X77.6863 Y1.4079
G01 X77.6711 Y1.3975
G01 X77.6400 Y1.3778
G01 X77.6136 Y1.3622
G01 X77.5975 Y1.3533
G01 X77.5811 Y1.3448
G01 X77.5535 Y1.3315
G01 X77.5368 Y1.3239
G01 X77.5027 Y1.3098
G01 X77.4565 Y1.2932
G01 X77.4213 Y1.2826
G01 X77.3737 Y1.2706
G01 X77.3557 Y1.2668
G01 X77.3194 Y1.2605
G01 X77.2890 Y1.2562
G01 X77.2707 Y1.2542
G01 X77.2340 Y1.2515
G01 X77.2126 Y1.2505
G01 X77.1850 Y1.2500
G01 X2.1251 Y1.2500
G01 X2.0975 Y1.2505
G01 X2.0760 Y1.2515
G01 X2.0393 Y1.2542
G01 X2.0028 Y1.2587
G01 X1.9724 Y1.2634
G01 X1.9363 Y1.2706
G01 X1.8887 Y1.2826
G01 X1.8535 Y1.2932
G01 X1.8245 Y1.3034
G01 X1.7902 Y1.3166
G01 X1.7733 Y1.3239
G01 X1.7454 Y1.3368
G01 X1.7126 Y1.3533
G01 X1.6805 Y1.3715
G01 X1.6543 Y1.3874
G01 X1.6237 Y1.4079
G01 X1.5843 Y1.4371
G01 X1.5558 Y1.4605
G01 X1.5195 Y1.4934
G01 X1.4934 Y1.5195
G01 X1.4605 Y1.5558
G01 X1.4486 Y1.5699
G01 X1.4260 Y1.5989
G01 X1.4079 Y1.6237
G01 X1.3975 Y1.6389
G01 X1.3874 Y1.6543
G01 X1.3715 Y1.6805
G01 X1.3533 Y1.7126
G01 X1.3448 Y1.7289
G01 X1.3315 Y1.7565
G01 X1.3239 Y1.7733
G01 X1.3098 Y1.8073
G01 X1.2932 Y1.8535
G01 X1.2826 Y1.8887
G01 X1.2706 Y1.9363
G01 X1.2634 Y1.9724
G01 X1.2605 Y1.9906
G01 X1.2562 Y2.0210
G01 X1.2542 Y2.0393
G01 X1.2515 Y2.0760
G01 X1.2502 Y2.1067
G01 X1.2500 Y2.1251
G01 X1.2500 Y68.1781
G00 X1.2500 Y68.1781
G01 F250.00
G01 Z-0.6000
G01 F2500.00
G01 X1.2505 Y68.2057
G01 X1.2515 Y68.2271
G01 X1.2542 Y68.2638
G01 X1.2562 Y68.2821
G01 X1.2605 Y68.3125
G01 X1.2668 Y68.3488
G01 X1.2706 Y68.3668
G01 X1.2779 Y68.3966
G01 X1.2877 Y68.4321
G01 X1.2932 Y68.4496
G01 X1.3034 Y68.4786
G01 X1.3166 Y68.5129
G01 X1.3315 Y68.5466
G01 X1.3448 Y68.5742
G01 X1.3533 Y68.5906
G01 X1.3622 Y68.6067
G01 X1.3778 Y68.6331
G01 X1.3975 Y68.6642
G01 X1.4187 Y68.6943
G01 X1.4371 Y68.7188
G01 X1.4486 Y68.7332
G01 X1.4727 Y68.7611
G01 X1.4934 Y68.7836
G01 X1.5195 Y68.8097
G01 X1.5558 Y68.8426
G01 X1.5843 Y68.8660
G01 X1.6237 Y68.8952
G01 X1.6543 Y68.9157
G01 X1.6964 Y68.9409
G01 X1.7289 Y68.9583
G01 X1.7565 Y68.9716
G01 X1.7902 Y68.9865
G01 X1.8073 Y68.9933
G01 X1.8361 Y69.0039
G01 X1.8710 Y69.0154
G01 X1.9065 Y69.0253
G01 X1.9363 Y69.0325
G01 X1.9543 Y69.0363
G01 X1.9906 Y69.0426
G01 X2.0210 Y69.0469
G01 X2.0393 Y69.0489
G01 X2.0760 Y69.0516
G01 X2.0975 Y69.0526
G01 X2.1251 Y69.0531
G01 X18.2140 Y69.0531
G01 X18.2140 Y77.3180
G01 X18.2142 Y77.3364
G01 X18.2155 Y77.3670
G01 X18.2182 Y77.4037
G01 X18.2227 Y77.4403
G01 X18.2274 Y77.4706
G01 X18.2308 Y77.4887
G01 X18.2389 Y77.5246
G01 X18.2465 Y77.5543
G01 X18.2517 Y77.5720
G01 X18.2572 Y77.5895
G01 X18.2674 Y77.6185
G01 X18.2806 Y77.6528
G01 X18.2955 Y77.6865
G01 X18.3088 Y77.7141
G01 X18.3262 Y77.7466
G01 X18.3514 Y77.7887
G01 X18.3719 Y77.8193
G01 X18.4011 Y77.8587
G01 X18.4245 Y77.8872
G01 X18.4574 Y77.9235
G01 X18.4835 Y77.9496
G01 X18.5060 Y77.9703
G01 X18.5339 Y77.9944
G01 X18.5483 Y78.0059
G01 X18.5728 Y78.0243
G01 X18.6029 Y78.0455
G01 X18.6340 Y78.0652
G01 X18.6604 Y78.0808
G01 X18.6929 Y78.0982
G01 X18.7373 Y78.1192
G01 X18.7713 Y78.1332
G01 X18.8001 Y78.1438
G01 X18.8350 Y78.1553
G01 X18.8527 Y78.1605
G01 X18.8824 Y78.1681
G01 X18.9183 Y78.1762
G01 X18.9546 Y78.1825
G01 X18.9850 Y78.1868
G01 X19.0033 Y78.1888
G01 X19.0400 Y78.1915
G01 X19.0706 Y78.1928
G01 X19.0891 Y78.1930
G01 X19.1075 Y78.1928
G01 X19.1381 Y78.1915
G01 X19.1748 Y78.1888
G01 X19.1931 Y78.1868
G01 X19.2235 Y78.1825
G01 X19.2598 Y78.1762
G01 X19.2957 Y78.1681
G01 X19.3254 Y78.1605
G01 X19.3431 Y78.1553
G01 X19.3780 Y78.1438
G01 X19.4068 Y78.1332
G01 X19.4408 Y78.1192
G01 X19.4852 Y78.0982
G01 X19.5177 Y78.0808
G01 X19.5441 Y78.0652
G01 X19.5752 Y78.0455
G01 X19.6053 Y78.0243
G01 X19.6298 Y78.0059
G01 X19.6442 Y77.9944
G01 X19.6721 Y77.9703
G01 X19.6946 Y77.9496
G01 X19.7207 Y77.9235
G01 X19.7536 Y77.8872
G01 X19.7770 Y77.8587
G01 X19.8062 Y77.8193
G01 X19.8267 Y77.7887
G01 X19.8519 Y77.7466
G01 X19.8693 Y77.7141
G01 X19.8826 Y77.6865
G01 X19.8975 Y77.6528
G01 X19.9108 Y77.6185
G01 X19.9209 Y77.5895
G01 X19.9264 Y77.5720
G01 X19.9316 Y77.5543
G01 X19.9392 Y77.5246
G01 X19.9473 Y77.4887
G01 X19.9507 Y77.4706
G01 X19.9554 Y77.4403
G01 X19.9599 Y77.4037
G01 X19.9626 Y77.3670
G01 X19.9639 Y77.3364
G01 X19.9641 Y77.3180
G01 X19.9641 Y69.0531
G01 X77.1850 Y69.0531
G01 X77.2126 Y69.0526
G01 X77.2340 Y69.0516
G01 X77.2707 Y69.0489
G01 X77.3073 Y69.0444
G01 X77.3376 Y69.0397
G01 X77.3737 Y69.0325
G01 X77.4213 Y69.0206
G01 X77.4565 Y69.0099
G01 X77.4855 Y68.9998
G01 X77.5198 Y68.9865
G01 X77.5535 Y68.9716
G01 X77.5811 Y68.9583
G01 X77.5975 Y68.9498
G01 X77.6295 Y68.9316
G01 X77.6557 Y68.9157
G01 X77.6863 Y68.8952
G01 X77.7257 Y68.8660
G01 X77.7542 Y68.8426
G01 X77.7771 Y68.8222
G01 X77.8037 Y68.7968
G01 X77.8291 Y68.7702
G01 X77.8495 Y68.7473
G01 X77.8614 Y68.7332
G01 X77.8840 Y68.7042
G01 X77.9021 Y68.6794
G01 X77.9226 Y68.6488
G01 X77.9386 Y68.6226
G01 X77.9567 Y68.5906
G01 X77.9732 Y68.5577
G01 X77.9862 Y68.5298
G01 X78.0002 Y68.4958
G01 X78.0108 Y68.4670
G01 X78.0223 Y68.4321
G01 X78.0322 Y68.3966
G01 X78.0394 Y68.3668
G01 X78.0466 Y68.3307
G01 X78.0513 Y68.3004
G01 X78.0558 Y68.2638
G01 X78.0585 Y68.2271
G01 X78.0598 Y68.1965
G01 X78.0598 Y68.1596
G01 X78.0591 Y68.1413
G01 X78.0574 Y68.1106
G01 X78.0538 Y68.0740
G01 X78.0495 Y68.0436
G01 X78.0432 Y68.0073
G01 X78.0351 Y67.9714
G01 X78.0275 Y67.9417
G01 X78.0168 Y67.9065
G01 X78.0067 Y67.8775
G01 X77.9934 Y67.8432
G01 X77.9785 Y67.8095
G01 X77.9652 Y67.7819
G01 X77.9478 Y67.7494
G01 X77.9322 Y67.7230
G01 X77.9125 Y67.6919
G01 X77.8914 Y67.6618
G01 X77.8729 Y67.6373
G01 X77.8495 Y67.6088
G01 X77.8374 Y67.5950
G01 X77.8166 Y67.5725
G01 X77.7905 Y67.5464
G01 X77.7680 Y67.5257
G01 X77.7401 Y67.5016
G01 X77.7111 Y67.4790
G01 X77.6863 Y67.4609
G01 X77.6557 Y67.4404
G01 X77.6400 Y67.4308
G01 X77.6136 Y67.4152
G01 X77.5811 Y67.3978
G01 X77.5535 Y67.3845
G01 X77.5198 Y67.3696
G01 X77.4855 Y67.3564
G01 X77.4565 Y67.3462
G01 X77.4213 Y67.3355
G01 X77.4035 Y67.3309
G01 X77.3737 Y67.3236
G01 X77.3376 Y67.3164
G01 X77.3073 Y67.3117
G01 X77.2707 Y67.3072
G01 X77.2340 Y67.3045
G01 X77.2034 Y67.3032
G01 X19.9641 Y67.3030
G01 X19.9641 Y11.2687
G01 X19.9626 Y11.2289
G01 X19.9599 Y11.1922
G01 X19.9579 Y11.1739
G01 X19.9536 Y11.1435
G01 X19.9473 Y11.1072
G01 X19.9435 Y11.0892
G01 X19.9363 Y11.0594
G01 X19.9264 Y11.0239
G01 X19.9149 Y10.9890
G01 X19.9043 Y10.9602
G01 X19.8975 Y10.9431
G01 X19.8826 Y10.9094
G01 X19.8693 Y10.8818
G01 X19.8608 Y10.8655
G01 X19.8426 Y10.8334
G01 X19.8267 Y10.8072
G01 X19.8166 Y10.7918
G01 X19.7954 Y10.7617
G01 X19.7770 Y10.7372
G01 X19.7655 Y10.7228
G01 X19.7536 Y10.7087
G01 X19.7332 Y10.6859
G01 X19.7078 Y10.6592
G01 X19.6946 Y10.6463
G01 X19.6721 Y10.6256
G01 X19.6442 Y10.6015
G01 X19.6298 Y10.5900
G01 X19.6053 Y10.5716
G01 X19.5752 Y10.5504
G01 X19.5441 Y10.5307
G01 X19.5177 Y10.5151
G01 X19.5016 Y10.5062
G01 X19.4687 Y10.4897
G01 X19.4408 Y10.4768
G01 X19.4239 Y10.4695
G01 X19.4068 Y10.4627
G01 X19.3780 Y10.4521
G01 X19.3431 Y10.4406
G01 X19.3254 Y10.4354
G01 X19.2957 Y10.4278
G01 X19.2598 Y10.4197
G01 X19.2417 Y10.4163
G01 X19.2114 Y10.4116
G01 X19.1748 Y10.4071
G01 X19.1381 Y10.4044
G01 X19.1075 Y10.4031
G01 X19.0706 Y10.4031
G01 X19.0216 Y10.4055
G01 X18.9850 Y10.4091
G01 X18.9364 Y10.4163
G01 X18.9003 Y10.4235
G01 X18.8527 Y10.4354
G01 X18.8175 Y10.4461
G01 X18.7713 Y10.4627
G01 X18.7373 Y10.4768
G01 X18.6929 Y10.4977
G01 X18.6604 Y10.5151
G01 X18.6183 Y10.5403
G01 X18.5877 Y10.5608
G01 X18.5483 Y10.5900
G01 X18.5198 Y10.6134
G01 X18.4835 Y10.6463
G01 X18.4574 Y10.6724
G01 X18.4245 Y10.7087
G01 X18.4011 Y10.7372
G01 X18.3719 Y10.7766
G01 X18.3514 Y10.8072
G01 X18.3262 Y10.8493
G01 X18.3088 Y10.8818
G01 X18.2879 Y10.9262
G01 X18.2738 Y10.9602
G01 X18.2572 Y11.0064
G01 X18.2465 Y11.0416
G01 X18.2346 Y11.0892
G01 X18.2274 Y11.1253
G01 X18.2202 Y11.1739
G01 X18.2166 Y11.2105
G01 X18.2149 Y11.2412
G01 X18.2140 Y11.2687
G01 X18.2140 Y67.3030
G01 X3.0001 Y67.3030
G01 X3.0001 Y3.0001
G01 X77.2034 Y2.9999
G01 X77.2340 Y2.9986
G01 X77.2707 Y2.9959
G01 X77.2890 Y2.9939
G01 X77.3194 Y2.9896
G01 X77.3557 Y2.9833
G01 X77.3737 Y2.9795
G01 X77.4035 Y2.9723
G01 X77.4390 Y2.9624
G01 X77.4739 Y2.9509
G01 X77.5027 Y2.9404
G01 X77.5368 Y2.9263
G01 X77.5646 Y2.9133
G01 X77.5975 Y2.8968
G01 X77.6136 Y2.8879
G01 X77.6400 Y2.8723
G01 X77.6711 Y2.8526
G01 X77.7012 Y2.8315
G01 X77.7257 Y2.8130
G01 X77.7542 Y2.7896
G01 X77.7771 Y2.7692
G01 X77.7906 Y2.7567
G01 X77.8166 Y2.7306
G01 X77.8374 Y2.7081
G01 X77.8614 Y2.6802
G01 X77.8840 Y2.6512
G01 X77.9021 Y2.6264
G01 X77.9226 Y2.5958
G01 X77.9322 Y2.5801
G01 X77.9478 Y2.5537
G01 X77.9567 Y2.5376
G01 X77.9732 Y2.5047
G01 X77.9862 Y2.4769
G01 X78.0002 Y2.4429
G01 X78.0067 Y2.4256
G01 X78.0168 Y2.3966
G01 X78.0275 Y2.3614
G01 X78.0351 Y2.3317
G01 X78.0432 Y2.2958
G01 X78.0466 Y2.2777
G01 X78.0513 Y2.2474
G01 X78.0558 Y2.2109
G01 X78.0574 Y2.1925
G01 X78.0591 Y2.1619
G01 X78.0600 Y2.1251
G01 X78.0591 Y2.0883
G01 X78.0574 Y2.0576
G01 X78.0558 Y2.0393
G01 X78.0513 Y2.0028
G01 X78.0466 Y1.9724
G01 X78.0432 Y1.9543
G01 X78.0351 Y1.9184
G01 X78.0275 Y1.8887
G01 X78.0168 Y1.8535
G01 X78.0067 Y1.8245
G01 X78.0002 Y1.8073
G01 X77.9862 Y1.7733
G01 X77.9732 Y1.7454
G01 X77.9567 Y1.7126
G01 X77.9386 Y1.6805
G01 X77.9226 Y1.6543
G01 X77.9021 Y1.6237
G01 X77.8840 Y1.5989
G01 X77.8729 Y1.5843
G01 X77.8495 Y1.5558
G01 X77.8166 Y1.5195
G01 X77.7906 Y1.4934
G01 X77.7542 Y1.4605
G01 X77.7401 Y1.4486
G01 X77.7111 Y1.4260
G01 X77.6863 Y1.4079
G01 X77.6711 Y1.3975
G01 X77.6400 Y1.3778
G01 X77.6136 Y1.3622
G01 X77.5975 Y1.3533
G01 X77.5811 Y1.3448
G01 X77.5535 Y1.3315
G01 X77.5368 Y1.3239
G01 X77.5027 Y1.3098
G01 X77.4565 Y1.2932
G01 X77.4213 Y1.2826
G01 X77.3737 Y1.2706
G01 X77.3557 Y1.2668
G01 X77.3194 Y1.2605
G01 X77.2890 Y1.2562
G01 X77.2707 Y1.2542
G01 X77.2340 Y1.2515
G01 X77.2126 Y1.2505
G01 X77.1850 Y1.2500
G01 X2.1251 Y1.2500
G01 X2.0975 Y1.2505
G01 X2.0760 Y1.2515
G01 X2.0393 Y1.2542
G01 X2.0028 Y1.2587
G01 X1.9724 Y1.2634
G01 X1.9363 Y1.2706
G01 X1.8887 Y1.2826
G01 X1.8535 Y1.2932
G01 X1.8245 Y1.3034
G01 X1.7902 Y1.3166
G01 X1.7733 Y1.3239
G01 X1.7454 Y1.3368
G01 X1.7126 Y1.3533
G01 X1.6805 Y1.3715
G01 X1.6543 Y1.3874
G01 X1.6237 Y1.4079
G01 X1.5843 Y1.4371
G01 X1.5558 Y1.4605
G01 X1.5195 Y1.4934
G01 X1.4934 Y1.5195
G01 X1.4605 Y1.5558
G01 X1.4486 Y1.5699
G01 X1.4260 Y1.5989
G01 X1.4079 Y1.6237
G01 X1.3975 Y1.6389
G01 X1.3874 Y1.6543
G01 X1.3715 Y1.6805
G01 X1.3533 Y1.7126
G01 X1.3448 Y1.7289
G01 X1.3315 Y1.7565
G01 X1.3239 Y1.7733
G01 X1.3098 Y1.8073
G01 X1.2932 Y1.8535
G01 X1.2826 Y1.8887
G01 X1.2706 Y1.9363
G01 X1.2634 Y1.9724
G01 X1.2605 Y1.9906
G01 X1.2562 Y2.0210
G01 X1.2542 Y2.0393
G01 X1.2515 Y2.0760
G01 X1.2502 Y2.1067
G01 X1.2500 Y2.1251
G01 X1.2500 Y68.1781
G00 X1.2500 Y68.1781
G01 F250.00
G01 Z-0.7000
G01 F2500.00
G01 X1.2505 Y68.2057
G01 X1.2515 Y68.2271
G01 X1.2542 Y68.2638
G01 X1.2562 Y68.2821
G01 X1.2605 Y68.3125
G01 X1.2668 Y68.3488
G01 X1.2706 Y68.3668
G01 X1.2779 Y68.3966
G01 X1.2877 Y68.4321
G01 X1.2932 Y68.4496
G01 X1.3034 Y68.4786
G01 X1.3166 Y68.5129
G01 X1.3315 Y68.5466
G01 X1.3448 Y68.5742
G01 X1.3533 Y68.5906
G01 X1.3622 Y68.6067
G01 X1.3778 Y68.6331
G01 X1.3975 Y68.6642
G01 X1.4187 Y68.6943
G01 X1.4371 Y68.7188
G01 X1.4486 Y68.7332
G01 X1.4727 Y68.7611
G01 X1.4934 Y68.7836
G01 X1.5195 Y68.8097
G01 X1.5558 Y68.8426
G01 X1.5843 Y68.8660
G01 X1.6237 Y68.8952
G01 X1.6543 Y68.9157
G01 X1.6964 Y68.9409
G01 X1.7289 Y68.9583
G01 X1.7565 Y68.9716
G01 X1.7902 Y68.9865
G01 X1.8073 Y68.9933
G01 X1.8361 Y69.0039
G01 X1.8710 Y69.0154
G01 X1.9065 Y69.0253
G01 X1.9363 Y69.0325
G01 X1.9543 Y69.0363
G01 X1.9906 Y69.0426
G01 X2.0210 Y69.0469
G01 X2.0393 Y69.0489
G01 X2.0760 Y69.0516
G01 X2.0975 Y69.0526
G01 X2.1251 Y69.0531
G01 X18.2140 Y69.0531
G01 X18.2140 Y77.3180
G01 X18.2142 Y77.3364
G01 X18.2155 Y77.3670
G01 X18.2182 Y77.4037
G01 X18.2227 Y77.4403
G01 X18.2274 Y77.4706
G01 X18.2308 Y77.4887
G01 X18.2389 Y77.5246
G01 X18.2465 Y77.5543
G01 X18.2517 Y77.5720
G01 X18.2572 Y77.5895
G01 X18.2674 Y77.6185
G01 X18.2806 Y77.6528
G01 X18.2955 Y77.6865
G01 X18.3088 Y77.7141
G01 X18.3262 Y77.7466
G01 X18.3514 Y77.7887
G01 X18.3719 Y77.8193
G01 X18.4011 Y77.8587
G01 X18.4245 Y77.8872
G01 X18.4574 Y77.9235
G01 X18.4835 Y77.9496
G01 X18.5060 Y77.9703
G01 X18.5339 Y77.9944
G01 X18.5483 Y78.0059
G01 X18.5728 Y78.0243
G01 X18.6029 Y78.0455
G01 X18.6340 Y78.0652
G01 X18.6604 Y78.0808
G01 X18.6929 Y78.0982
G01 X18.7373 Y78.1192
G01 X18.7713 Y78.1332
G01 X18.8001 Y78.1438
G01 X18.8350 Y78.1553
G01 X18.8527 Y78.1605
G01 X18.8824 Y78.1681
G01 X18.9183 Y78.1762
G01 X18.9546 Y78.1825
G01 X18.9850 Y78.1868
G01 X19.0033 Y78.1888
G01 X19.0400 Y78.1915
G01 X19.0706 Y78.1928
G01 X19.0891 Y78.1930
G01 X19.1075 Y78.1928
G01 X19.1381 Y78.1915
G01 X19.1748 Y78.1888
G01 X19.1931 Y78.1868
G01 X19.2235 Y78.1825
G01 X19.2598 Y78.1762
G01 X19.2957 Y78.1681
G01 X19.3254 Y78.1605
G01 X19.3431 Y78.1553
G01 X19.3780 Y78.1438
G01 X19.4068 Y78.1332
G01 X19.4408 Y78.1192
G01 X19.4852 Y78.0982
G01 X19.5177 Y78.0808
G01 X19.5441 Y78.0652
G01 X19.5752 Y78.0455
G01 X19.6053 Y78.0243
G01 X19.6298 Y78.0059
G01 X19.6442 Y77.9944
G01 X19.6721 Y77.9703
G01 X19.6946 Y77.9496
G01 X19.7207 Y77.9235
G01 X19.7536 Y77.8872
G01 X19.7770 Y77.8587
G01 X19.8062 Y77.8193
G01 X19.8267 Y77.7887
G01 X19.8519 Y77.7466
G01 X19.8693 Y77.7141
G01 X19.8826 Y77.6865
G01 X19.8975 Y77.6528
G01 X19.9108 Y77.6185
G01 X19.9209 Y77.5895
G01 X19.9264 Y77.5720
G01 X19.9316 Y77.5543
G01 X19.9392 Y77.5246
G01 X19.9473 Y77.4887
G01 X19.9507 Y77.4706
G01 X19.9554 Y77.4403
G01 X19.9599 Y77.4037
G01 X19.9626 Y77.3670
G01 X19.9639 Y77.3364
G01 X19.9641 Y77.3180
G01 X19.9641 Y69.0531
G01 X77.1850 Y69.0531
G01 X77.2126 Y69.0526
G01 X77.2340 Y69.0516
G01 X77.2707 Y69.0489
G01 X77.3073 Y69.0444
G01 X77.3376 Y69.0397
G01 X77.3737 Y69.0325
G01 X77.4213 Y69.0206
G01 X77.4565 Y69.0099
G01 X77.4855 Y68.9998
G01 X77.5198 Y68.9865
G01 X77.5535 Y68.9716
G01 X77.5811 Y68.9583
G01 X77.5975 Y68.9498
G01 X77.6295 Y68.9316
G01 X77.6557 Y68.9157
G01 X77.6863 Y68.8952
G01 X77.7257 Y68.8660
G01 X77.7542 Y68.8426
G01 X77.7771 Y68.8222
G01 X77.8037 Y68.7968
G01 X77.8291 Y68.7702
G01 X77.8495 Y68.7473
G01 X77.8614 Y68.7332
G01 X77.8840 Y68.7042
G01 X77.9021 Y68.6794
G01 X77.9226 Y68.6488
G01 X77.9386 Y68.6226
G01 X77.9567 Y68.5906
G01 X77.9732 Y68.5577
G01 X77.9862 Y68.5298
G01 X78.0002 Y68.4958
G01 X78.0108 Y68.4670
G01 X78.0223 Y68.4321
G01 X78.0322 Y68.3966
G01 X78.0394 Y68.3668
G01 X78.0466 Y68.3307
G01 X78.0513 Y68.3004
G01 X78.0558 Y68.2638
G01 X78.0585 Y68.2271
G01 X78.0598 Y68.1965
G01 X78.0598 Y68.1596
G01 X78.0591 Y68.1413
G01 X78.0574 Y68.1106
G01 X78.0538 Y68.0740
G01 X78.0495 Y68.0436
G01 X78.0432 Y68.0073
G01 X78.0351 Y67.9714
G01 X78.0275 Y67.9417
G01 X78.0168 Y67.9065
G01 X78.0067 Y67.8775
G01 X77.9934 Y67.8432
G01 X77.9785 Y67.8095
G01 X77.9652 Y67.7819
G01 X77.9478 Y67.7494
G01 X77.9322 Y67.7230
G01 X77.9125 Y67.6919
G01 X77.8914 Y67.6618
G01 X77.8729 Y67.6373
G01 X77.8495 Y67.6088
G01 X77.8374 Y67.5950
G01 X77.8166 Y67.5725
G01 X77.7905 Y67.5464
G01 X77.7680 Y67.5257
G01 X77.7401 Y67.5016
G01 X77.7111 Y67.4790
G01 X77.6863 Y67.4609
G01 X77.6557 Y67.4404
G01 X77.6400 Y67.4308
G01 X77.6136 Y67.4152
G01 X77.5811 Y67.3978
G01 X77.5535 Y67.3845
G01 X77.5198 Y67.3696
G01 X77.4855 Y67.3564
G01 X77.4565 Y67.3462
G01 X77.4213 Y67.3355
G01 X77.4035 Y67.3309
G01 X77.3737 Y67.3236
G01 X77.3376 Y67.3164
G01 X77.3073 Y67.3117
G01 X77.2707 Y67.3072
G01 X77.2340 Y67.3045
G01 X77.2034 Y67.3032
G01 X19.9641 Y67.3030
G01 X19.9641 Y11.2687
G01 X19.9626 Y11.2289
G01 X19.9599 Y11.1922
G01 X19.9579 Y11.1739
G01 X19.9536 Y11.1435
G01 X19.9473 Y11.1072
G01 X19.9435 Y11.0892
G01 X19.9363 Y11.0594
G01 X19.9264 Y11.0239
G01 X19.9149 Y10.9890
G01 X19.9043 Y10.9602
G01 X19.8975 Y10.9431
G01 X19.8826 Y10.9094
G01 X19.8693 Y10.8818
G01 X19.8608 Y10.8655
G01 X19.8426 Y10.8334
G01 X19.8267 Y10.8072
G01 X19.8166 Y10.7918
G01 X19.7954 Y10.7617
G01 X19.7770 Y10.7372
G01 X19.7655 Y10.7228
G01 X19.7536 Y10.7087
G01 X19.7332 Y10.6859
G01 X19.7078 Y10.6592
G01 X19.6946 Y10.6463
G01 X19.6721 Y10.6256
G01 X19.6442 Y10.6015
G01 X19.6298 Y10.5900
G01 X19.6053 Y10.5716
G01 X19.5752 Y10.5504
G01 X19.5441 Y10.5307
G01 X19.5177 Y10.5151
G01 X19.5016 Y10.5062
G01 X19.4687 Y10.4897
G01 X19.4408 Y10.4768
G01 X19.4239 Y10.4695
G01 X19.4068 Y10.4627
G01 X19.3780 Y10.4521
G01 X19.3431 Y10.4406
G01 X19.3254 Y10.4354
G01 X19.2957 Y10.4278
G01 X19.2598 Y10.4197
G01 X19.2417 Y10.4163
G01 X19.2114 Y10.4116
G01 X19.1748 Y10.4071
G01 X19.1381 Y10.4044
G01 X19.1075 Y10.4031
G01 X19.0706 Y10.4031
G01 X19.0216 Y10.4055
G01 X18.9850 Y10.4091
G01 X18.9364 Y10.4163
G01 X18.9003 Y10.4235
G01 X18.8527 Y10.4354
G01 X18.8175 Y10.4461
G01 X18.7713 Y10.4627
G01 X18.7373 Y10.4768
G01 X18.6929 Y10.4977
G01 X18.6604 Y10.5151
G01 X18.6183 Y10.5403
G01 X18.5877 Y10.5608
G01 X18.5483 Y10.5900
G01 X18.5198 Y10.6134
G01 X18.4835 Y10.6463
G01 X18.4574 Y10.6724
G01 X18.4245 Y10.7087
G01 X18.4011 Y10.7372
G01 X18.3719 Y10.7766
G01 X18.3514 Y10.8072
G01 X18.3262 Y10.8493
G01 X18.3088 Y10.8818
G01 X18.2879 Y10.9262
G01 X18.2738 Y10.9602
G01 X18.2572 Y11.0064
G01 X18.2465 Y11.0416
G01 X18.2346 Y11.0892
G01 X18.2274 Y11.1253
G01 X18.2202 Y11.1739
G01 X18.2166 Y11.2105
G01 X18.2149 Y11.2412
G01 X18.2140 Y11.2687
G01 X18.2140 Y67.3030
G01 X3.0001 Y67.3030
G01 X3.0001 Y3.0001
G01 X77.2034 Y2.9999
G01 X77.2340 Y2.9986
G01 X77.2707 Y2.9959
G01 X77.2890 Y2.9939
G01 X77.3194 Y2.9896
G01 X77.3557 Y2.9833
G01 X77.3737 Y2.9795
G01 X77.4035 Y2.9723
G01 X77.4390 Y2.9624
G01 X77.4739 Y2.9509
G01 X77.5027 Y2.9404
G01 X77.5368 Y2.9263
G01 X77.5646 Y2.9133
G01 X77.5975 Y2.8968
G01 X77.6136 Y2.8879
G01 X77.6400 Y2.8723
G01 X77.6711 Y2.8526
G01 X77.7012 Y2.8315
G01 X77.7257 Y2.8130
G01 X77.7542 Y2.7896
G01 X77.7771 Y2.7692
G01 X77.7906 Y2.7567
G01 X77.8166 Y2.7306
G01 X77.8374 Y2.7081
G01 X77.8614 Y2.6802
G01 X77.8840 Y2.6512
G01 X77.9021 Y2.6264
G01 X77.9226 Y2.5958
G01 X77.9322 Y2.5801
G01 X77.9478 Y2.5537
G01 X77.9567 Y2.5376
G01 X77.9732 Y2.5047
G01 X77.9862 Y2.4769
G01 X78.0002 Y2.4429
G01 X78.0067 Y2.4256
G01 X78.0168 Y2.3966
G01 X78.0275 Y2.3614
G01 X78.0351 Y2.3317
G01 X78.0432 Y2.2958
G01 X78.0466 Y2.2777
G01 X78.0513 Y2.2474
G01 X78.0558 Y2.2109
G01 X78.0574 Y2.1925
G01 X78.0591 Y2.1619
G01 X78.0600 Y2.1251
G01 X78.0591 Y2.0883
G01 X78.0574 Y2.0576
G01 X78.0558 Y2.0393
G01 X78.0513 Y2.0028
G01 X78.0466 Y1.9724
G01 X78.0432 Y1.9543
G01 X78.0351 Y1.9184
G01 X78.0275 Y1.8887
G01 X78.0168 Y1.8535
G01 X78.0067 Y1.8245
G01 X78.0002 Y1.8073
G01 X77.9862 Y1.7733
G01 X77.9732 Y1.7454
G01 X77.9567 Y1.7126
G01 X77.9386 Y1.6805
G01 X77.9226 Y1.6543
G01 X77.9021 Y1.6237
G01 X77.8840 Y1.5989
G01 X77.8729 Y1.5843
G01 X77.8495 Y1.5558
G01 X77.8166 Y1.5195
G01 X77.7906 Y1.4934
G01 X77.7542 Y1.4605
G01 X77.7401 Y1.4486
G01 X77.7111 Y1.4260
G01 X77.6863 Y1.4079
G01 X77.6711 Y1.3975
G01 X77.6400 Y1.3778
G01 X77.6136 Y1.3622
G01 X77.5975 Y1.3533
G01 X77.5811 Y1.3448
G01 X77.5535 Y1.3315
G01 X77.5368 Y1.3239
G01 X77.5027 Y1.3098
G01 X77.4565 Y1.2932
G01 X77.4213 Y1.2826
G01 X77.3737 Y1.2706
G01 X77.3557 Y1.2668
G01 X77.3194 Y1.2605
G01 X77.2890 Y1.2562
G01 X77.2707 Y1.2542
G01 X77.2340 Y1.2515
G01 X77.2126 Y1.2505
G01 X77.1850 Y1.2500
G01 X2.1251 Y1.2500
G01 X2.0975 Y1.2505
G01 X2.0760 Y1.2515
G01 X2.0393 Y1.2542
G01 X2.0028 Y1.2587
G01 X1.9724 Y1.2634
G01 X1.9363 Y1.2706
G01 X1.8887 Y1.2826
G01 X1.8535 Y1.2932
G01 X1.8245 Y1.3034
G01 X1.7902 Y1.3166
G01 X1.7733 Y1.3239
G01 X1.7454 Y1.3368
G01 X1.7126 Y1.3533
G01 X1.6805 Y1.3715
G01 X1.6543 Y1.3874
G01 X1.6237 Y1.4079
G01 X1.5843 Y1.4371
G01 X1.5558 Y1.4605
G01 X1.5195 Y1.4934
G01 X1.4934 Y1.5195
G01 X1.4605 Y1.5558
G01 X1.4486 Y1.5699
G01 X1.4260 Y1.5989
G01 X1.4079 Y1.6237
G01 X1.3975 Y1.6389
G01 X1.3874 Y1.6543
G01 X1.3715 Y1.6805
G01 X1.3533 Y1.7126
G01 X1.3448 Y1.7289
G01 X1.3315 Y1.7565
G01 X1.3239 Y1.7733
G01 X1.3098 Y1.8073
G01 X1.2932 Y1.8535
G01 X1.2826 Y1.8887
G01 X1.2706 Y1.9363
G01 X1.2634 Y1.9724
G01 X1.2605 Y1.9906
G01 X1.2562 Y2.0210
G01 X1.2542 Y2.0393
G01 X1.2515 Y2.0760
G01 X1.2502 Y2.1067
G01 X1.2500 Y2.1251
G01 X1.2500 Y68.1781
G00 X1.2500 Y68.1781
G01 F250.00
G01 Z-0.8000
G01 F2500.00
G01 X1.2505 Y68.2057
G01 X1.2515 Y68.2271
G01 X1.2542 Y68.2638
G01 X1.2562 Y68.2821
G01 X1.2605 Y68.3125
G01 X1.2668 Y68.3488
G01 X1.2706 Y68.3668
G01 X1.2779 Y68.3966
G01 X1.2877 Y68.4321
G01 X1.2932 Y68.4496
G01 X1.3034 Y68.4786
G01 X1.3166 Y68.5129
G01 X1.3315 Y68.5466
G01 X1.3448 Y68.5742
G01 X1.3533 Y68.5906
G01 X1.3622 Y68.6067
G01 X1.3778 Y68.6331
G01 X1.3975 Y68.6642
G01 X1.4187 Y68.6943
G01 X1.4371 Y68.7188
G01 X1.4486 Y68.7332
G01 X1.4727 Y68.7611
G01 X1.4934 Y68.7836
G01 X1.5195 Y68.8097
G01 X1.5558 Y68.8426
G01 X1.5843 Y68.8660
G01 X1.6237 Y68.8952
G01 X1.6543 Y68.9157
G01 X1.6964 Y68.9409
G01 X1.7289 Y68.9583
G01 X1.7565 Y68.9716
G01 X1.7902 Y68.9865
G01 X1.8073 Y68.9933
G01 X1.8361 Y69.0039
G01 X1.8710 Y69.0154
G01 X1.9065 Y69.0253
G01 X1.9363 Y69.0325
G01 X1.9543 Y69.0363
G01 X1.9906 Y69.0426
G01 X2.0210 Y69.0469
G01 X2.0393 Y69.0489
G01 X2.0760 Y69.0516
G01 X2.0975 Y69.0526
G01 X2.1251 Y69.0531
G01 X18.2140 Y69.0531
G01 X18.2140 Y77.3180
G01 X18.2142 Y77.3364
G01 X18.2155 Y77.3670
G01 X18.2182 Y77.4037
G01 X18.2227 Y77.4403
G01 X18.2274 Y77.4706
G01 X18.2308 Y77.4887
G01 X18.2389 Y77.5246
G01 X18.2465 Y77.5543
G01 X18.2517 Y77.5720
G01 X18.2572 Y77.5895
G01 X18.2674 Y77.6185
G01 X18.2806 Y77.6528
G01 X18.2955 Y77.6865
G01 X18.3088 Y77.7141
G01 X18.3262 Y77.7466
G01 X18.3514 Y77.7887
G01 X18.3719 Y77.8193
G01 X18.4011 Y77.8587
G01 X18.4245 Y77.8872
G01 X18.4574 Y77.9235
G01 X18.4835 Y77.9496
G01 X18.5060 Y77.9703
G01 X18.5339 Y77.9944
G01 X18.5483 Y78.0059
G01 X18.5728 Y78.0243
G01 X18.6029 Y78.0455
G01 X18.6340 Y78.0652
G01 X18.6604 Y78.0808
G01 X18.6929 Y78.0982
G01 X18.7373 Y78.1192
G01 X18.7713 Y78.1332
G01 X18.8001 Y78.1438
G01 X18.8350 Y78.1553
G01 X18.8527 Y78.1605
G01 X18.8824 Y78.1681
G01 X18.9183 Y78.1762
G01 X18.9546 Y78.1825
G01 X18.9850 Y78.1868
G01 X19.0033 Y78.1888
G01 X19.0400 Y78.1915
G01 X19.0706 Y78.1928
G01 X19.0891 Y78.1930
G01 X19.1075 Y78.1928
G01 X19.1381 Y78.1915
G01 X19.1748 Y78.1888
G01 X19.1931 Y78.1868
G01 X19.2235 Y78.1825
G01 X19.2598 Y78.1762
G01 X19.2957 Y78.1681
G01 X19.3254 Y78.1605
G01 X19.3431 Y78.1553
G01 X19.3780 Y78.1438
G01 X19.4068 Y78.1332
G01 X19.4408 Y78.1192
G01 X19.4852 Y78.0982
G01 X19.5177 Y78.0808
G01 X19.5441 Y78.0652
G01 X19.5752 Y78.0455
G01 X19.6053 Y78.0243
G01 X19.6298 Y78.0059
G01 X19.6442 Y77.9944
G01 X19.6721 Y77.9703
G01 X19.6946 Y77.9496
G01 X19.7207 Y77.9235
G01 X19.7536 Y77.8872
G01 X19.7770 Y77.8587
G01 X19.8062 Y77.8193
G01 X19.8267 Y77.7887
G01 X19.8519 Y77.7466
G01 X19.8693 Y77.7141
G01 X19.8826 Y77.6865
G01 X19.8975 Y77.6528
G01 X19.9108 Y77.6185
G01 X19.9209 Y77.5895
G01 X19.9264 Y77.5720
G01 X19.9316 Y77.5543
G01 X19.9392 Y77.5246
G01 X19.9473 Y77.4887
G01 X19.9507 Y77.4706
G01 X19.9554 Y77.4403
G01 X19.9599 Y77.4037
G01 X19.9626 Y77.3670
G01 X19.9639 Y77.3364
G01 X19.9641 Y77.3180
G01 X19.9641 Y69.0531
G01 X77.1850 Y69.0531
G01 X77.2126 Y69.0526
G01 X77.2340 Y69.0516
G01 X77.2707 Y69.0489
G01 X77.3073 Y69.0444
G01 X77.3376 Y69.0397
G01 X77.3737 Y69.0325
G01 X77.4213 Y69.0206
G01 X77.4565 Y69.0099
G01 X77.4855 Y68.9998
G01 X77.5198 Y68.9865
G01 X77.5535 Y68.9716
G01 X77.5811 Y68.9583
G01 X77.5975 Y68.9498
G01 X77.6295 Y68.9316
G01 X77.6557 Y68.9157
G01 X77.6863 Y68.8952
G01 X77.7257 Y68.8660
G01 X77.7542 Y68.8426
G01 X77.7771 Y68.8222
G01 X77.8037 Y68.7968
G01 X77.8291 Y68.7702
G01 X77.8495 Y68.7473
G01 X77.8614 Y68.7332
G01 X77.8840 Y68.7042
G01 X77.9021 Y68.6794
G01 X77.9226 Y68.6488
G01 X77.9386 Y68.6226
G01 X77.9567 Y68.5906
G01 X77.9732 Y68.5577
G01 X77.9862 Y68.5298
G01 X78.0002 Y68.4958
G01 X78.0108 Y68.4670
G01 X78.0223 Y68.4321
G01 X78.0322 Y68.3966
G01 X78.0394 Y68.3668
G01 X78.0466 Y68.3307
G01 X78.0513 Y68.3004
G01 X78.0558 Y68.2638
G01 X78.0585 Y68.2271
G01 X78.0598 Y68.1965
G01 X78.0598 Y68.1596
G01 X78.0591 Y68.1413
G01 X78.0574 Y68.1106
G01 X78.0538 Y68.0740
G01 X78.0495 Y68.0436
G01 X78.0432 Y68.0073
G01 X78.0351 Y67.9714
G01 X78.0275 Y67.9417
G01 X78.0168 Y67.9065
G01 X78.0067 Y67.8775
G01 X77.9934 Y67.8432
G01 X77.9785 Y67.8095
G01 X77.9652 Y67.7819
G01 X77.9478 Y67.7494
G01 X77.9322 Y67.7230
G01 X77.9125 Y67.6919
G01 X77.8914 Y67.6618
G01 X77.8729 Y67.6373
G01 X77.8495 Y67.6088
G01 X77.8374 Y67.5950
G01 X77.8166 Y67.5725
G01 X77.7905 Y67.5464
G01 X77.7680 Y67.5257
G01 X77.7401 Y67.5016
G01 X77.7111 Y67.4790
G01 X77.6863 Y67.4609
G01 X77.6557 Y67.4404
G01 X77.6400 Y67.4308
G01 X77.6136 Y67.4152
G01 X77.5811 Y67.3978
G01 X77.5535 Y67.3845
G01 X77.5198 Y67.3696
G01 X77.4855 Y67.3564
G01 X77.4565 Y67.3462
G01 X77.4213 Y67.3355
G01 X77.4035 Y67.3309
G01 X77.3737 Y67.3236
G01 X77.3376 Y67.3164
G01 X77.3073 Y67.3117
G01 X77.2707 Y67.3072
G01 X77.2340 Y67.3045
G01 X77.2034 Y67.3032
G01 X19.9641 Y67.3030
G01 X19.9641 Y11.2687
G01 X19.9626 Y11.2289
G01 X19.9599 Y11.1922
G01 X19.9579 Y11.1739
G01 X19.9536 Y11.1435
G01 X19.9473 Y11.1072
G01 X19.9435 Y11.0892
G01 X19.9363 Y11.0594
G01 X19.9264 Y11.0239
G01 X19.9149 Y10.9890
G01 X19.9043 Y10.9602
G01 X19.8975 Y10.9431
G01 X19.8826 Y10.9094
G01 X19.8693 Y10.8818
G01 X19.8608 Y10.8655
G01 X19.8426 Y10.8334
G01 X19.8267 Y10.8072
G01 X19.8166 Y10.7918
G01 X19.7954 Y10.7617
G01 X19.7770 Y10.7372
G01 X19.7655 Y10.7228
G01 X19.7536 Y10.7087
G01 X19.7332 Y10.6859
G01 X19.7078 Y10.6592
G01 X19.6946 Y10.6463
G01 X19.6721 Y10.6256
G01 X19.6442 Y10.6015
G01 X19.6298 Y10.5900
G01 X19.6053 Y10.5716
G01 X19.5752 Y10.5504
G01 X19.5441 Y10.5307
G01 X19.5177 Y10.5151
G01 X19.5016 Y10.5062
G01 X19.4687 Y10.4897
G01 X19.4408 Y10.4768
G01 X19.4239 Y10.4695
G01 X19.4068 Y10.4627
G01 X19.3780 Y10.4521
G01 X19.3431 Y10.4406
G01 X19.3254 Y10.4354
G01 X19.2957 Y10.4278
G01 X19.2598 Y10.4197
G01 X19.2417 Y10.4163
G01 X19.2114 Y10.4116
G01 X19.1748 Y10.4071
G01 X19.1381 Y10.4044
G01 X19.1075 Y10.4031
G01 X19.0706 Y10.4031
G01 X19.0216 Y10.4055
G01 X18.9850 Y10.4091
G01 X18.9364 Y10.4163
G01 X18.9003 Y10.4235
G01 X18.8527 Y10.4354
G01 X18.8175 Y10.4461
G01 X18.7713 Y10.4627
G01 X18.7373 Y10.4768
G01 X18.6929 Y10.4977
G01 X18.6604 Y10.5151
G01 X18.6183 Y10.5403
G01 X18.5877 Y10.5608
G01 X18.5483 Y10.5900
G01 X18.5198 Y10.6134
G01 X18.4835 Y10.6463
G01 X18.4574 Y10.6724
G01 X18.4245 Y10.7087
G01 X18.4011 Y10.7372
G01 X18.3719 Y10.7766
G01 X18.3514 Y10.8072
G01 X18.3262 Y10.8493
G01 X18.3088 Y10.8818
G01 X18.2879 Y10.9262
G01 X18.2738 Y10.9602
G01 X18.2572 Y11.0064
G01 X18.2465 Y11.0416
G01 X18.2346 Y11.0892
G01 X18.2274 Y11.1253
G01 X18.2202 Y11.1739
G01 X18.2166 Y11.2105
G01 X18.2149 Y11.2412
G01 X18.2140 Y11.2687
G01 X18.2140 Y67.3030
G01 X3.0001 Y67.3030
G01 X3.0001 Y3.0001
G01 X77.2034 Y2.9999
G01 X77.2340 Y2.9986
G01 X77.2707 Y2.9959
G01 X77.2890 Y2.9939
G01 X77.3194 Y2.9896
G01 X77.3557 Y2.9833
G01 X77.3737 Y2.9795
G01 X77.4035 Y2.9723
G01 X77.4390 Y2.9624
G01 X77.4739 Y2.9509
G01 X77.5027 Y2.9404
G01 X77.5368 Y2.9263
G01 X77.5646 Y2.9133
G01 X77.5975 Y2.8968
G01 X77.6136 Y2.8879
G01 X77.6400 Y2.8723
G01 X77.6711 Y2.8526
G01 X77.7012 Y2.8315
G01 X77.7257 Y2.8130
G01 X77.7542 Y2.7896
G01 X77.7771 Y2.7692
G01 X77.7906 Y2.7567
G01 X77.8166 Y2.7306
G01 X77.8374 Y2.7081
G01 X77.8614 Y2.6802
G01 X77.8840 Y2.6512
G01 X77.9021 Y2.6264
G01 X77.9226 Y2.5958
G01 X77.9322 Y2.5801
G01 X77.9478 Y2.5537
G01 X77.9567 Y2.5376
G01 X77.9732 Y2.5047
G01 X77.9862 Y2.4769
G01 X78.0002 Y2.4429
G01 X78.0067 Y2.4256
G01 X78.0168 Y2.3966
G01 X78.0275 Y2.3614
G01 X78.0351 Y2.3317
G01 X78.0432 Y2.2958
G01 X78.0466 Y2.2777
G01 X78.0513 Y2.2474
G01 X78.0558 Y2.2109
G01 X78.0574 Y2.1925
G01 X78.0591 Y2.1619
G01 X78.0600 Y2.1251
G01 X78.0591 Y2.0883
G01 X78.0574 Y2.0576
G01 X78.0558 Y2.0393
G01 X78.0513 Y2.0028
G01 X78.0466 Y1.9724
G01 X78.0432 Y1.9543
G01 X78.0351 Y1.9184
G01 X78.0275 Y1.8887
G01 X78.0168 Y1.8535
G01 X78.0067 Y1.8245
G01 X78.0002 Y1.8073
G01 X77.9862 Y1.7733
G01 X77.9732 Y1.7454
G01 X77.9567 Y1.7126
G01 X77.9386 Y1.6805
G01 X77.9226 Y1.6543
G01 X77.9021 Y1.6237
G01 X77.8840 Y1.5989
G01 X77.8729 Y1.5843
G01 X77.8495 Y1.5558
G01 X77.8166 Y1.5195
G01 X77.7906 Y1.4934
G01 X77.7542 Y1.4605
G01 X77.7401 Y1.4486
G01 X77.7111 Y1.4260
G01 X77.6863 Y1.4079
G01 X77.6711 Y1.3975
G01 X77.6400 Y1.3778
G01 X77.6136 Y1.3622
G01 X77.5975 Y1.3533
G01 X77.5811 Y1.3448
G01 X77.5535 Y1.3315
G01 X77.5368 Y1.3239
G01 X77.5027 Y1.3098
G01 X77.4565 Y1.2932
G01 X77.4213 Y1.2826
G01 X77.3737 Y1.2706
G01 X77.3557 Y1.2668
G01 X77.3194 Y1.2605
G01 X77.2890 Y1.2562
G01 X77.2707 Y1.2542
G01 X77.2340 Y1.2515
G01 X77.2126 Y1.2505
G01 X77.1850 Y1.2500
G01 X2.1251 Y1.2500
G01 X2.0975 Y1.2505
G01 X2.0760 Y1.2515
G01 X2.0393 Y1.2542
G01 X2.0028 Y1.2587
G01 X1.9724 Y1.2634
G01 X1.9363 Y1.2706
G01 X1.8887 Y1.2826
G01 X1.8535 Y1.2932
G01 X1.8245 Y1.3034
G01 X1.7902 Y1.3166
G01 X1.7733 Y1.3239
G01 X1.7454 Y1.3368
G01 X1.7126 Y1.3533
G01 X1.6805 Y1.3715
G01 X1.6543 Y1.3874
G01 X1.6237 Y1.4079
G01 X1.5843 Y1.4371
G01 X1.5558 Y1.4605
G01 X1.5195 Y1.4934
G01 X1.4934 Y1.5195
G01 X1.4605 Y1.5558
G01 X1.4486 Y1.5699
G01 X1.4260 Y1.5989
G01 X1.4079 Y1.6237
G01 X1.3975 Y1.6389
G01 X1.3874 Y1.6543
G01 X1.3715 Y1.6805
G01 X1.3533 Y1.7126
G01 X1.3448 Y1.7289
G01 X1.3315 Y1.7565
G01 X1.3239 Y1.7733
G01 X1.3098 Y1.8073
G01 X1.2932 Y1.8535
G01 X1.2826 Y1.8887
G01 X1.2706 Y1.9363
G01 X1.2634 Y1.9724
G01 X1.2605 Y1.9906
G01 X1.2562 Y2.0210
G01 X1.2542 Y2.0393
G01 X1.2515 Y2.0760
G01 X1.2502 Y2.1067
G01 X1.2500 Y2.1251
G01 X1.2500 Y68.1781
G00 X1.2500 Y68.1781
G01 F250.00
G01 Z-0.9000
G01 F2500.00
G01 X1.2505 Y68.2057
G01 X1.2515 Y68.2271
G01 X1.2542 Y68.2638
G01 X1.2562 Y68.2821
G01 X1.2605 Y68.3125
G01 X1.2668 Y68.3488
G01 X1.2706 Y68.3668
G01 X1.2779 Y68.3966
G01 X1.2877 Y68.4321
G01 X1.2932 Y68.4496
G01 X1.3034 Y68.4786
G01 X1.3166 Y68.5129
G01 X1.3315 Y68.5466
G01 X1.3448 Y68.5742
G01 X1.3533 Y68.5906
G01 X1.3622 Y68.6067
G01 X1.3778 Y68.6331
G01 X1.3975 Y68.6642
G01 X1.4187 Y68.6943
G01 X1.4371 Y68.7188
G01 X1.4486 Y68.7332
G01 X1.4727 Y68.7611
G01 X1.4934 Y68.7836
G01 X1.5195 Y68.8097
G01 X1.5558 Y68.8426
G01 X1.5843 Y68.8660
G01 X1.6237 Y68.8952
G01 X1.6543 Y68.9157
G01 X1.6964 Y68.9409
G01 X1.7289 Y68.9583
G01 X1.7565 Y68.9716
G01 X1.7902 Y68.9865
G01 X1.8073 Y68.9933
G01 X1.8361 Y69.0039
G01 X1.8710 Y69.0154
G01 X1.9065 Y69.0253
G01 X1.9363 Y69.0325
G01 X1.9543 Y69.0363
G01 X1.9906 Y69.0426
G01 X2.0210 Y69.0469
G01 X2.0393 Y69.0489
G01 X2.0760 Y69.0516
G01 X2.0975 Y69.0526
G01 X2.1251 Y69.0531
G01 X18.2140 Y69.0531
G01 X18.2140 Y77.3180
G01 X18.2142 Y77.3364
G01 X18.2155 Y77.3670
G01 X18.2182 Y77.4037
G01 X18.2227 Y77.4403
G01 X18.2274 Y77.4706
G01 X18.2308 Y77.4887
G01 X18.2389 Y77.5246
G01 X18.2465 Y77.5543
G01 X18.2517 Y77.5720
G01 X18.2572 Y77.5895
G01 X18.2674 Y77.6185
G01 X18.2806 Y77.6528
G01 X18.2955 Y77.6865
G01 X18.3088 Y77.7141
G01 X18.3262 Y77.7466
G01 X18.3514 Y77.7887
G01 X18.3719 Y77.8193
G01 X18.4011 Y77.8587
G01 X18.4245 Y77.8872
G01 X18.4574 Y77.9235
G01 X18.4835 Y77.9496
G01 X18.5060 Y77.9703
G01 X18.5339 Y77.9944
G01 X18.5483 Y78.0059
G01 X18.5728 Y78.0243
G01 X18.6029 Y78.0455
G01 X18.6340 Y78.0652
G01 X18.6604 Y78.0808
G01 X18.6929 Y78.0982
G01 X18.7373 Y78.1192
G01 X18.7713 Y78.1332
G01 X18.8001 Y78.1438
G01 X18.8350 Y78.1553
G01 X18.8527 Y78.1605
G01 X18.8824 Y78.1681
G01 X18.9183 Y78.1762
G01 X18.9546 Y78.1825
G01 X18.9850 Y78.1868
G01 X19.0033 Y78.1888
G01 X19.0400 Y78.1915
G01 X19.0706 Y78.1928
G01 X19.0891 Y78.1930
G01 X19.1075 Y78.1928
G01 X19.1381 Y78.1915
G01 X19.1748 Y78.1888
G01 X19.1931 Y78.1868
G01 X19.2235 Y78.1825
G01 X19.2598 Y78.1762
G01 X19.2957 Y78.1681
G01 X19.3254 Y78.1605
G01 X19.3431 Y78.1553
G01 X19.3780 Y78.1438
G01 X19.4068 Y78.1332
G01 X19.4408 Y78.1192
G01 X19.4852 Y78.0982
G01 X19.5177 Y78.0808
G01 X19.5441 Y78.0652
G01 X19.5752 Y78.0455
G01 X19.6053 Y78.0243
G01 X19.6298 Y78.0059
G01 X19.6442 Y77.9944
G01 X19.6721 Y77.9703
G01 X19.6946 Y77.9496
G01 X19.7207 Y77.9235
G01 X19.7536 Y77.8872
G01 X19.7770 Y77.8587
G01 X19.8062 Y77.8193
G01 X19.8267 Y77.7887
G01 X19.8519 Y77.7466
G01 X19.8693 Y77.7141
G01 X19.8826 Y77.6865
G01 X19.8975 Y77.6528
G01 X19.9108 Y77.6185
G01 X19.9209 Y77.5895
G01 X19.9264 Y77.5720
G01 X19.9316 Y77.5543
G01 X19.9392 Y77.5246
G01 X19.9473 Y77.4887
G01 X19.9507 Y77.4706
G01 X19.9554 Y77.4403
G01 X19.9599 Y77.4037
G01 X19.9626 Y77.3670
G01 X19.9639 Y77.3364
G01 X19.9641 Y77.3180
G01 X19.9641 Y69.0531
G01 X77.1850 Y69.0531
G01 X77.2126 Y69.0526
G01 X77.2340 Y69.0516
G01 X77.2707 Y69.0489
G01 X77.3073 Y69.0444
G01 X77.3376 Y69.0397
G01 X77.3737 Y69.0325
G01 X77.4213 Y69.0206
G01 X77.4565 Y69.0099
G01 X77.4855 Y68.9998
G01 X77.5198 Y68.9865
G01 X77.5535 Y68.9716
G01 X77.5811 Y68.9583
G01 X77.5975 Y68.9498
G01 X77.6295 Y68.9316
G01 X77.6557 Y68.9157
G01 X77.6863 Y68.8952
G01 X77.7257 Y68.8660
G01 X77.7542 Y68.8426
G01 X77.7771 Y68.8222
G01 X77.8037 Y68.7968
G01 X77.8291 Y68.7702
G01 X77.8495 Y68.7473
G01 X77.8614 Y68.7332
G01 X77.8840 Y68.7042
G01 X77.9021 Y68.6794
G01 X77.9226 Y68.6488
G01 X77.9386 Y68.6226
G01 X77.9567 Y68.5906
G01 X77.9732 Y68.5577
G01 X77.9862 Y68.5298
G01 X78.0002 Y68.4958
G01 X78.0108 Y68.4670
G01 X78.0223 Y68.4321
G01 X78.0322 Y68.3966
G01 X78.0394 Y68.3668
G01 X78.0466 Y68.3307
G01 X78.0513 Y68.3004
G01 X78.0558 Y68.2638
G01 X78.0585 Y68.2271
G01 X78.0598 Y68.1965
G01 X78.0598 Y68.1596
G01 X78.0591 Y68.1413
G01 X78.0574 Y68.1106
G01 X78.0538 Y68.0740
G01 X78.0495 Y68.0436
G01 X78.0432 Y68.0073
G01 X78.0351 Y67.9714
G01 X78.0275 Y67.9417
G01 X78.0168 Y67.9065
G01 X78.0067 Y67.8775
G01 X77.9934 Y67.8432
G01 X77.9785 Y67.8095
G01 X77.9652 Y67.7819
G01 X77.9478 Y67.7494
G01 X77.9322 Y67.7230
G01 X77.9125 Y67.6919
G01 X77.8914 Y67.6618
G01 X77.8729 Y67.6373
G01 X77.8495 Y67.6088
G01 X77.8374 Y67.5950
G01 X77.8166 Y67.5725
G01 X77.7905 Y67.5464
G01 X77.7680 Y67.5257
G01 X77.7401 Y67.5016
G01 X77.7111 Y67.4790
G01 X77.6863 Y67.4609
G01 X77.6557 Y67.4404
G01 X77.6400 Y67.4308
G01 X77.6136 Y67.4152
G01 X77.5811 Y67.3978
G01 X77.5535 Y67.3845
G01 X77.5198 Y67.3696
G01 X77.4855 Y67.3564
G01 X77.4565 Y67.3462
G01 X77.4213 Y67.3355
G01 X77.4035 Y67.3309
G01 X77.3737 Y67.3236
G01 X77.3376 Y67.3164
G01 X77.3073 Y67.3117
G01 X77.2707 Y67.3072
G01 X77.2340 Y67.3045
G01 X77.2034 Y67.3032
G01 X19.9641 Y67.3030
G01 X19.9641 Y11.2687
G01 X19.9626 Y11.2289
G01 X19.9599 Y11.1922
G01 X19.9579 Y11.1739
G01 X19.9536 Y11.1435
G01 X19.9473 Y11.1072
G01 X19.9435 Y11.0892
G01 X19.9363 Y11.0594
G01 X19.9264 Y11.0239
G01 X19.9149 Y10.9890
G01 X19.9043 Y10.9602
G01 X19.8975 Y10.9431
G01 X19.8826 Y10.9094
G01 X19.8693 Y10.8818
G01 X19.8608 Y10.8655
G01 X19.8426 Y10.8334
G01 X19.8267 Y10.8072
G01 X19.8166 Y10.7918
G01 X19.7954 Y10.7617
G01 X19.7770 Y10.7372
G01 X19.7655 Y10.7228
G01 X19.7536 Y10.7087
G01 X19.7332 Y10.6859
G01 X19.7078 Y10.6592
G01 X19.6946 Y10.6463
G01 X19.6721 Y10.6256
G01 X19.6442 Y10.6015
G01 X19.6298 Y10.5900
G01 X19.6053 Y10.5716
G01 X19.5752 Y10.5504
G01 X19.5441 Y10.5307
G01 X19.5177 Y10.5151
G01 X19.5016 Y10.5062
G01 X19.4687 Y10.4897
G01 X19.4408 Y10.4768
G01 X19.4239 Y10.4695
G01 X19.4068 Y10.4627
G01 X19.3780 Y10.4521
G01 X19.3431 Y10.4406
G01 X19.3254 Y10.4354
G01 X19.2957 Y10.4278
G01 X19.2598 Y10.4197
G01 X19.2417 Y10.4163
G01 X19.2114 Y10.4116
G01 X19.1748 Y10.4071
G01 X19.1381 Y10.4044
G01 X19.1075 Y10.4031
G01 X19.0706 Y10.4031
G01 X19.0216 Y10.4055
G01 X18.9850 Y10.4091
G01 X18.9364 Y10.4163
G01 X18.9003 Y10.4235
G01 X18.8527 Y10.4354
G01 X18.8175 Y10.4461
G01 X18.7713 Y10.4627
G01 X18.7373 Y10.4768
G01 X18.6929 Y10.4977
G01 X18.6604 Y10.5151
G01 X18.6183 Y10.5403
G01 X18.5877 Y10.5608
G01 X18.5483 Y10.5900
G01 X18.5198 Y10.6134
G01 X18.4835 Y10.6463
G01 X18.4574 Y10.6724
G01 X18.4245 Y10.7087
G01 X18.4011 Y10.7372
G01 X18.3719 Y10.7766
G01 X18.3514 Y10.8072
G01 X18.3262 Y10.8493
G01 X18.3088 Y10.8818
G01 X18.2879 Y10.9262
G01 X18.2738 Y10.9602
G01 X18.2572 Y11.0064
G01 X18.2465 Y11.0416
G01 X18.2346 Y11.0892
G01 X18.2274 Y11.1253
G01 X18.2202 Y11.1739
G01 X18.2166 Y11.2105
G01 X18.2149 Y11.2412
G01 X18.2140 Y11.2687
G01 X18.2140 Y67.3030
G01 X3.0001 Y67.3030
G01 X3.0001 Y3.0001
G01 X77.2034 Y2.9999
G01 X77.2340 Y2.9986
G01 X77.2707 Y2.9959
G01 X77.2890 Y2.9939
G01 X77.3194 Y2.9896
G01 X77.3557 Y2.9833
G01 X77.3737 Y2.9795
G01 X77.4035 Y2.9723
G01 X77.4390 Y2.9624
G01 X77.4739 Y2.9509
G01 X77.5027 Y2.9404
G01 X77.5368 Y2.9263
G01 X77.5646 Y2.9133
G01 X77.5975 Y2.8968
G01 X77.6136 Y2.8879
G01 X77.6400 Y2.8723
G01 X77.6711 Y2.8526
G01 X77.7012 Y2.8315
G01 X77.7257 Y2.8130
G01 X77.7542 Y2.7896
G01 X77.7771 Y2.7692
G01 X77.7906 Y2.7567
G01 X77.8166 Y2.7306
G01 X77.8374 Y2.7081
G01 X77.8614 Y2.6802
G01 X77.8840 Y2.6512
G01 X77.9021 Y2.6264
G01 X77.9226 Y2.5958
G01 X77.9322 Y2.5801
G01 X77.9478 Y2.5537
G01 X77.9567 Y2.5376
G01 X77.9732 Y2.5047
G01 X77.9862 Y2.4769
G01 X78.0002 Y2.4429
G01 X78.0067 Y2.4256
G01 X78.0168 Y2.3966
G01 X78.0275 Y2.3614
G01 X78.0351 Y2.3317
G01 X78.0432 Y2.2958
G01 X78.0466 Y2.2777
G01 X78.0513 Y2.2474
G01 X78.0558 Y2.2109
G01 X78.0574 Y2.1925
G01 X78.0591 Y2.1619
G01 X78.0600 Y2.1251
G01 X78.0591 Y2.0883
G01 X78.0574 Y2.0576
G01 X78.0558 Y2.0393
G01 X78.0513 Y2.0028
G01 X78.0466 Y1.9724
G01 X78.0432 Y1.9543
G01 X78.0351 Y1.9184
G01 X78.0275 Y1.8887
G01 X78.0168 Y1.8535
G01 X78.0067 Y1.8245
G01 X78.0002 Y1.8073
G01 X77.9862 Y1.7733
G01 X77.9732 Y1.7454
G01 X77.9567 Y1.7126
G01 X77.9386 Y1.6805
G01 X77.9226 Y1.6543
G01 X77.9021 Y1.6237
G01 X77.8840 Y1.5989
G01 X77.8729 Y1.5843
G01 X77.8495 Y1.5558
G01 X77.8166 Y1.5195
G01 X77.7906 Y1.4934
G01 X77.7542 Y1.4605
G01 X77.7401 Y1.4486
G01 X77.7111 Y1.4260
G01 X77.6863 Y1.4079
G01 X77.6711 Y1.3975
G01 X77.6400 Y1.3778
G01 X77.6136 Y1.3622
G01 X77.5975 Y1.3533
G01 X77.5811 Y1.3448
G01 X77.5535 Y1.3315
G01 X77.5368 Y1.3239
G01 X77.5027 Y1.3098
G01 X77.4565 Y1.2932
G01 X77.4213 Y1.2826
G01 X77.3737 Y1.2706
G01 X77.3557 Y1.2668
G01 X77.3194 Y1.2605
G01 X77.2890 Y1.2562
G01 X77.2707 Y1.2542
G01 X77.2340 Y1.2515
G01 X77.2126 Y1.2505
G01 X77.1850 Y1.2500
G01 X2.1251 Y1.2500
G01 X2.0975 Y1.2505
G01 X2.0760 Y1.2515
G01 X2.0393 Y1.2542
G01 X2.0028 Y1.2587
G01 X1.9724 Y1.2634
G01 X1.9363 Y1.2706
G01 X1.8887 Y1.2826
G01 X1.8535 Y1.2932
G01 X1.8245 Y1.3034
G01 X1.7902 Y1.3166
G01 X1.7733 Y1.3239
G01 X1.7454 Y1.3368
G01 X1.7126 Y1.3533
G01 X1.6805 Y1.3715
G01 X1.6543 Y1.3874
G01 X1.6237 Y1.4079
G01 X1.5843 Y1.4371
G01 X1.5558 Y1.4605
G01 X1.5195 Y1.4934
G01 X1.4934 Y1.5195
G01 X1.4605 Y1.5558
G01 X1.4486 Y1.5699
G01 X1.4260 Y1.5989
G01 X1.4079 Y1.6237
G01 X1.3975 Y1.6389
G01 X1.3874 Y1.6543
G01 X1.3715 Y1.6805
G01 X1.3533 Y1.7126
G01 X1.3448 Y1.7289
G01 X1.3315 Y1.7565
G01 X1.3239 Y1.7733
G01 X1.3098 Y1.8073
G01 X1.2932 Y1.8535
G01 X1.2826 Y1.8887
G01 X1.2706 Y1.9363
G01 X1.2634 Y1.9724
G01 X1.2605 Y1.9906
G01 X1.2562 Y2.0210
G01 X1.2542 Y2.0393
G01 X1.2515 Y2.0760
G01 X1.2502 Y2.1067
G01 X1.2500 Y2.1251
G01 X1.2500 Y68.1781
G00 X1.2500 Y68.1781
G01 F250.00
G01 Z-1.0000
G01 F2500.00
G01 X1.2505 Y68.2057
G01 X1.2515 Y68.2271
G01 X1.2542 Y68.2638
G01 X1.2562 Y68.2821
G01 X1.2605 Y68.3125
G01 X1.2668 Y68.3488
G01 X1.2706 Y68.3668
G01 X1.2779 Y68.3966
G01 X1.2877 Y68.4321
G01 X1.2932 Y68.4496
G01 X1.3034 Y68.4786
G01 X1.3166 Y68.5129
G01 X1.3315 Y68.5466
G01 X1.3448 Y68.5742
G01 X1.3533 Y68.5906
G01 X1.3622 Y68.6067
G01 X1.3778 Y68.6331
G01 X1.3975 Y68.6642
G01 X1.4187 Y68.6943
G01 X1.4371 Y68.7188
G01 X1.4486 Y68.7332
G01 X1.4727 Y68.7611
G01 X1.4934 Y68.7836
G01 X1.5195 Y68.8097
G01 X1.5558 Y68.8426
G01 X1.5843 Y68.8660
G01 X1.6237 Y68.8952
G01 X1.6543 Y68.9157
G01 X1.6964 Y68.9409
G01 X1.7289 Y68.9583
G01 X1.7565 Y68.9716
G01 X1.7902 Y68.9865
G01 X1.8073 Y68.9933
G01 X1.8361 Y69.0039
G01 X1.8710 Y69.0154
G01 X1.9065 Y69.0253
G01 X1.9363 Y69.0325
G01 X1.9543 Y69.0363
G01 X1.9906 Y69.0426
G01 X2.0210 Y69.0469
G01 X2.0393 Y69.0489
G01 X2.0760 Y69.0516
G01 X2.0975 Y69.0526
G01 X2.1251 Y69.0531
G01 X18.2140 Y69.0531
G01 X18.2140 Y77.3180
G01 X18.2142 Y77.3364
G01 X18.2155 Y77.3670
G01 X18.2182 Y77.4037
G01 X18.2227 Y77.4403
G01 X18.2274 Y77.4706
G01 X18.2308 Y77.4887
G01 X18.2389 Y77.5246
G01 X18.2465 Y77.5543
G01 X18.2517 Y77.5720
G01 X18.2572 Y77.5895
G01 X18.2674 Y77.6185
G01 X18.2806 Y77.6528
G01 X18.2955 Y77.6865
G01 X18.3088 Y77.7141
G01 X18.3262 Y77.7466
G01 X18.3514 Y77.7887
G01 X18.3719 Y77.8193
G01 X18.4011 Y77.8587
G01 X18.4245 Y77.8872
G01 X18.4574 Y77.9235
G01 X18.4835 Y77.9496
G01 X18.5060 Y77.9703
G01 X18.5339 Y77.9944
G01 X18.5483 Y78.0059
G01 X18.5728 Y78.0243
G01 X18.6029 Y78.0455
G01 X18.6340 Y78.0652
G01 X18.6604 Y78.0808
G01 X18.6929 Y78.0982
G01 X18.7373 Y78.1192
G01 X18.7713 Y78.1332
G01 X18.8001 Y78.1438
G01 X18.8350 Y78.1553
G01 X18.8527 Y78.1605
G01 X18.8824 Y78.1681
G01 X18.9183 Y78.1762
G01 X18.9546 Y78.1825
G01 X18.9850 Y78.1868
G01 X19.0033 Y78.1888
G01 X19.0400 Y78.1915
G01 X19.0706 Y78.1928
G01 X19.0891 Y78.1930
G01 X19.1075 Y78.1928
G01 X19.1381 Y78.1915
G01 X19.1748 Y78.1888
G01 X19.1931 Y78.1868
G01 X19.2235 Y78.1825
G01 X19.2598 Y78.1762
G01 X19.2957 Y78.1681
G01 X19.3254 Y78.1605
G01 X19.3431 Y78.1553
G01 X19.3780 Y78.1438
G01 X19.4068 Y78.1332
G01 X19.4408 Y78.1192
G01 X19.4852 Y78.0982
G01 X19.5177 Y78.0808
G01 X19.5441 Y78.0652
G01 X19.5752 Y78.0455
G01 X19.6053 Y78.0243
G01 X19.6298 Y78.0059
G01 X19.6442 Y77.9944
G01 X19.6721 Y77.9703
G01 X19.6946 Y77.9496
G01 X19.7207 Y77.9235
G01 X19.7536 Y77.8872
G01 X19.7770 Y77.8587
G01 X19.8062 Y77.8193
G01 X19.8267 Y77.7887
G01 X19.8519 Y77.7466
G01 X19.8693 Y77.7141
G01 X19.8826 Y77.6865
G01 X19.8975 Y77.6528
G01 X19.9108 Y77.6185
G01 X19.9209 Y77.5895
G01 X19.9264 Y77.5720
G01 X19.9316 Y77.5543
G01 X19.9392 Y77.5246
G01 X19.9473 Y77.4887
G01 X19.9507 Y77.4706
G01 X19.9554 Y77.4403
G01 X19.9599 Y77.4037
G01 X19.9626 Y77.3670
G01 X19.9639 Y77.3364
G01 X19.9641 Y77.3180
G01 X19.9641 Y69.0531
G01 X77.1850 Y69.0531
G01 X77.2126 Y69.0526
G01 X77.2340 Y69.0516
G01 X77.2707 Y69.0489
G01 X77.3073 Y69.0444
G01 X77.3376 Y69.0397
G01 X77.3737 Y69.0325
G01 X77.4213 Y69.0206
G01 X77.4565 Y69.0099
G01 X77.4855 Y68.9998
G01 X77.5198 Y68.9865
G01 X77.5535 Y68.9716
G01 X77.5811 Y68.9583
G01 X77.5975 Y68.9498
G01 X77.6295 Y68.9316
G01 X77.6557 Y68.9157
G01 X77.6863 Y68.8952
G01 X77.7257 Y68.8660
G01 X77.7542 Y68.8426
G01 X77.7771 Y68.8222
G01 X77.8037 Y68.7968
G01 X77.8291 Y68.7702
G01 X77.8495 Y68.7473
G01 X77.8614 Y68.7332
G01 X77.8840 Y68.7042
G01 X77.9021 Y68.6794
G01 X77.9226 Y68.6488
G01 X77.9386 Y68.6226
G01 X77.9567 Y68.5906
G01 X77.9732 Y68.5577
G01 X77.9862 Y68.5298
G01 X78.0002 Y68.4958
G01 X78.0108 Y68.4670
G01 X78.0223 Y68.4321
G01 X78.0322 Y68.3966
G01 X78.0394 Y68.3668
G01 X78.0466 Y68.3307
G01 X78.0513 Y68.3004
G01 X78.0558 Y68.2638
G01 X78.0585 Y68.2271
G01 X78.0598 Y68.1965
G01 X78.0598 Y68.1596
G01 X78.0591 Y68.1413
G01 X78.0574 Y68.1106
G01 X78.0538 Y68.0740
G01 X78.0495 Y68.0436
G01 X78.0432 Y68.0073
G01 X78.0351 Y67.9714
G01 X78.0275 Y67.9417
G01 X78.0168 Y67.9065
G01 X78.0067 Y67.8775
G01 X77.9934 Y67.8432
G01 X77.9785 Y67.8095
G01 X77.9652 Y67.7819
G01 X77.9478 Y67.7494
G01 X77.9322 Y67.7230
G01 X77.9125 Y67.6919
G01 X77.8914 Y67.6618
G01 X77.8729 Y67.6373
G01 X77.8495 Y67.6088
G01 X77.8374 Y67.5950
G01 X77.8166 Y67.5725
G01 X77.7905 Y67.5464
G01 X77.7680 Y67.5257
G01 X77.7401 Y67.5016
G01 X77.7111 Y67.4790
G01 X77.6863 Y67.4609
G01 X77.6557 Y67.4404
G01 X77.6400 Y67.4308
G01 X77.6136 Y67.4152
G01 X77.5811 Y67.3978
G01 X77.5535 Y67.3845
G01 X77.5198 Y67.3696
G01 X77.4855 Y67.3564
G01 X77.4565 Y67.3462
G01 X77.4213 Y67.3355
G01 X77.4035 Y67.3309
G01 X77.3737 Y67.3236
G01 X77.3376 Y67.3164
G01 X77.3073 Y67.3117
G01 X77.2707 Y67.3072
G01 X77.2340 Y67.3045
G01 X77.2034 Y67.3032
G01 X19.9641 Y67.3030
G01 X19.9641 Y11.2687
G01 X19.9626 Y11.2289
G01 X19.9599 Y11.1922
G01 X19.9579 Y11.1739
G01 X19.9536 Y11.1435
G01 X19.9473 Y11.1072
G01 X19.9435 Y11.0892
G01 X19.9363 Y11.0594
G01 X19.9264 Y11.0239
G01 X19.9149 Y10.9890
G01 X19.9043 Y10.9602
G01 X19.8975 Y10.9431
G01 X19.8826 Y10.9094
G01 X19.8693 Y10.8818
G01 X19.8608 Y10.8655
G01 X19.8426 Y10.8334
G01 X19.8267 Y10.8072
G01 X19.8166 Y10.7918
G01 X19.7954 Y10.7617
G01 X19.7770 Y10.7372
G01 X19.7655 Y10.7228
G01 X19.7536 Y10.7087
G01 X19.7332 Y10.6859
G01 X19.7078 Y10.6592
G01 X19.6946 Y10.6463
G01 X19.6721 Y10.6256
G01 X19.6442 Y10.6015
G01 X19.6298 Y10.5900
G01 X19.6053 Y10.5716
G01 X19.5752 Y10.5504
G01 X19.5441 Y10.5307
G01 X19.5177 Y10.5151
G01 X19.5016 Y10.5062
G01 X19.4687 Y10.4897
G01 X19.4408 Y10.4768
G01 X19.4239 Y10.4695
G01 X19.4068 Y10.4627
G01 X19.3780 Y10.4521
G01 X19.3431 Y10.4406
G01 X19.3254 Y10.4354
G01 X19.2957 Y10.4278
G01 X19.2598 Y10.4197
G01 X19.2417 Y10.4163
G01 X19.2114 Y10.4116
G01 X19.1748 Y10.4071
G01 X19.1381 Y10.4044
G01 X19.1075 Y10.4031
G01 X19.0706 Y10.4031
G01 X19.0216 Y10.4055
G01 X18.9850 Y10.4091
G01 X18.9364 Y10.4163
G01 X18.9003 Y10.4235
G01 X18.8527 Y10.4354
G01 X18.8175 Y10.4461
G01 X18.7713 Y10.4627
G01 X18.7373 Y10.4768
G01 X18.6929 Y10.4977
G01 X18.6604 Y10.5151
G01 X18.6183 Y10.5403
G01 X18.5877 Y10.5608
G01 X18.5483 Y10.5900
G01 X18.5198 Y10.6134
G01 X18.4835 Y10.6463
G01 X18.4574 Y10.6724
G01 X18.4245 Y10.7087
G01 X18.4011 Y10.7372
G01 X18.3719 Y10.7766
G01 X18.3514 Y10.8072
G01 X18.3262 Y10.8493
G01 X18.3088 Y10.8818
G01 X18.2879 Y10.9262
G01 X18.2738 Y10.9602
G01 X18.2572 Y11.0064
G01 X18.2465 Y11.0416
G01 X18.2346 Y11.0892
G01 X18.2274 Y11.1253
G01 X18.2202 Y11.1739
G01 X18.2166 Y11.2105
G01 X18.2149 Y11.2412
G01 X18.2140 Y11.2687
G01 X18.2140 Y67.3030
G01 X3.0001 Y67.3030
G01 X3.0001 Y3.0001
G01 X77.2034 Y2.9999
G01 X77.2340 Y2.9986
G01 X77.2707 Y2.9959
G01 X77.2890 Y2.9939
G01 X77.3194 Y2.9896
G01 X77.3557 Y2.9833
G01 X77.3737 Y2.9795
G01 X77.4035 Y2.9723
G01 X77.4390 Y2.9624
G01 X77.4739 Y2.9509
G01 X77.5027 Y2.9404
G01 X77.5368 Y2.9263
G01 X77.5646 Y2.9133
G01 X77.5975 Y2.8968
G01 X77.6136 Y2.8879
G01 X77.6400 Y2.8723
G01 X77.6711 Y2.8526
G01 X77.7012 Y2.8315
G01 X77.7257 Y2.8130
G01 X77.7542 Y2.7896
G01 X77.7771 Y2.7692
G01 X77.7906 Y2.7567
G01 X77.8166 Y2.7306
G01 X77.8374 Y2.7081
G01 X77.8614 Y2.6802
G01 X77.8840 Y2.6512
G01 X77.9021 Y2.6264
G01 X77.9226 Y2.5958
G01 X77.9322 Y2.5801
G01 X77.9478 Y2.5537
G01 X77.9567 Y2.5376
G01 X77.9732 Y2.5047
G01 X77.9862 Y2.4769
G01 X78.0002 Y2.4429
G01 X78.0067 Y2.4256
G01 X78.0168 Y2.3966
G01 X78.0275 Y2.3614
G01 X78.0351 Y2.3317
G01 X78.0432 Y2.2958
G01 X78.0466 Y2.2777
G01 X78.0513 Y2.2474
G01 X78.0558 Y2.2109
G01 X78.0574 Y2.1925
G01 X78.0591 Y2.1619
G01 X78.0600 Y2.1251
G01 X78.0591 Y2.0883
G01 X78.0574 Y2.0576
G01 X78.0558 Y2.0393
G01 X78.0513 Y2.0028
G01 X78.0466 Y1.9724
G01 X78.0432 Y1.9543
G01 X78.0351 Y1.9184
G01 X78.0275 Y1.8887
G01 X78.0168 Y1.8535
G01 X78.0067 Y1.8245
G01 X78.0002 Y1.8073
G01 X77.9862 Y1.7733
G01 X77.9732 Y1.7454
G01 X77.9567 Y1.7126
G01 X77.9386 Y1.6805
G01 X77.9226 Y1.6543
G01 X77.9021 Y1.6237
G01 X77.8840 Y1.5989
G01 X77.8729 Y1.5843
G01 X77.8495 Y1.5558
G01 X77.8166 Y1.5195
G01 X77.7906 Y1.4934
G01 X77.7542 Y1.4605
G01 X77.7401 Y1.4486
G01 X77.7111 Y1.4260
G01 X77.6863 Y1.4079
G01 X77.6711 Y1.3975
G01 X77.6400 Y1.3778
G01 X77.6136 Y1.3622
G01 X77.5975 Y1.3533
G01 X77.5811 Y1.3448
G01 X77.5535 Y1.3315
G01 X77.5368 Y1.3239
G01 X77.5027 Y1.3098
G01 X77.4565 Y1.2932
G01 X77.4213 Y1.2826
G01 X77.3737 Y1.2706
G01 X77.3557 Y1.2668
G01 X77.3194 Y1.2605
G01 X77.2890 Y1.2562
G01 X77.2707 Y1.2542
G01 X77.2340 Y1.2515
G01 X77.2126 Y1.2505
G01 X77.1850 Y1.2500
G01 X2.1251 Y1.2500
G01 X2.0975 Y1.2505
G01 X2.0760 Y1.2515
G01 X2.0393 Y1.2542
G01 X2.0028 Y1.2587
G01 X1.9724 Y1.2634
G01 X1.9363 Y1.2706
G01 X1.8887 Y1.2826
G01 X1.8535 Y1.2932
G01 X1.8245 Y1.3034
G01 X1.7902 Y1.3166
G01 X1.7733 Y1.3239
G01 X1.7454 Y1.3368
G01 X1.7126 Y1.3533
G01 X1.6805 Y1.3715
G01 X1.6543 Y1.3874
G01 X1.6237 Y1.4079
G01 X1.5843 Y1.4371
G01 X1.5558 Y1.4605
G01 X1.5195 Y1.4934
G01 X1.4934 Y1.5195
G01 X1.4605 Y1.5558
G01 X1.4486 Y1.5699
G01 X1.4260 Y1.5989
G01 X1.4079 Y1.6237
G01 X1.3975 Y1.6389
G01 X1.3874 Y1.6543
G01 X1.3715 Y1.6805
G01 X1.3533 Y1.7126
G01 X1.3448 Y1.7289
G01 X1.3315 Y1.7565
G01 X1.3239 Y1.7733
G01 X1.3098 Y1.8073
G01 X1.2932 Y1.8535
G01 X1.2826 Y1.8887
G01 X1.2706 Y1.9363
G01 X1.2634 Y1.9724
G01 X1.2605 Y1.9906
G01 X1.2562 Y2.0210
G01 X1.2542 Y2.0393
G01 X1.2515 Y2.0760
G01 X1.2502 Y2.1067
G01 X1.2500 Y2.1251
G01 X1.2500 Y68.1781
G00 X1.2500 Y68.1781
G01 F250.00
G01 Z-1.1000
G01 F2500.00
G01 X1.2505 Y68.2057
G01 X1.2515 Y68.2271
G01 X1.2542 Y68.2638
G01 X1.2562 Y68.2821
G01 X1.2605 Y68.3125
G01 X1.2668 Y68.3488
G01 X1.2706 Y68.3668
G01 X1.2779 Y68.3966
G01 X1.2877 Y68.4321
G01 X1.2932 Y68.4496
G01 X1.3034 Y68.4786
G01 X1.3166 Y68.5129
G01 X1.3315 Y68.5466
G01 X1.3448 Y68.5742
G01 X1.3533 Y68.5906
G01 X1.3622 Y68.6067
G01 X1.3778 Y68.6331
G01 X1.3975 Y68.6642
G01 X1.4187 Y68.6943
G01 X1.4371 Y68.7188
G01 X1.4486 Y68.7332
G01 X1.4727 Y68.7611
G01 X1.4934 Y68.7836
G01 X1.5195 Y68.8097
G01 X1.5558 Y68.8426
G01 X1.5843 Y68.8660
G01 X1.6237 Y68.8952
G01 X1.6543 Y68.9157
G01 X1.6964 Y68.9409
G01 X1.7289 Y68.9583
G01 X1.7565 Y68.9716
G01 X1.7902 Y68.9865
G01 X1.8073 Y68.9933
G01 X1.8361 Y69.0039
G01 X1.8710 Y69.0154
G01 X1.9065 Y69.0253
G01 X1.9363 Y69.0325
G01 X1.9543 Y69.0363
G01 X1.9906 Y69.0426
G01 X2.0210 Y69.0469
G01 X2.0393 Y69.0489
G01 X2.0760 Y69.0516
G01 X2.0975 Y69.0526
G01 X2.1251 Y69.0531
G01 X18.2140 Y69.0531
G01 X18.2140 Y77.3180
G01 X18.2142 Y77.3364
G01 X18.2155 Y77.3670
G01 X18.2182 Y77.4037
G01 X18.2227 Y77.4403
G01 X18.2274 Y77.4706
G01 X18.2308 Y77.4887
G01 X18.2389 Y77.5246
G01 X18.2465 Y77.5543
G01 X18.2517 Y77.5720
G01 X18.2572 Y77.5895
G01 X18.2674 Y77.6185
G01 X18.2806 Y77.6528
G01 X18.2955 Y77.6865
G01 X18.3088 Y77.7141
G01 X18.3262 Y77.7466
G01 X18.3514 Y77.7887
G01 X18.3719 Y77.8193
G01 X18.4011 Y77.8587
G01 X18.4245 Y77.8872
G01 X18.4574 Y77.9235
G01 X18.4835 Y77.9496
G01 X18.5060 Y77.9703
G01 X18.5339 Y77.9944
G01 X18.5483 Y78.0059
G01 X18.5728 Y78.0243
G01 X18.6029 Y78.0455
G01 X18.6340 Y78.0652
G01 X18.6604 Y78.0808
G01 X18.6929 Y78.0982
G01 X18.7373 Y78.1192
G01 X18.7713 Y78.1332
G01 X18.8001 Y78.1438
G01 X18.8350 Y78.1553
G01 X18.8527 Y78.1605
G01 X18.8824 Y78.1681
G01 X18.9183 Y78.1762
G01 X18.9546 Y78.1825
G01 X18.9850 Y78.1868
G01 X19.0033 Y78.1888
G01 X19.0400 Y78.1915
G01 X19.0706 Y78.1928
G01 X19.0891 Y78.1930
G01 X19.1075 Y78.1928
G01 X19.1381 Y78.1915
G01 X19.1748 Y78.1888
G01 X19.1931 Y78.1868
G01 X19.2235 Y78.1825
G01 X19.2598 Y78.1762
G01 X19.2957 Y78.1681
G01 X19.3254 Y78.1605
G01 X19.3431 Y78.1553
G01 X19.3780 Y78.1438
G01 X19.4068 Y78.1332
G01 X19.4408 Y78.1192
G01 X19.4852 Y78.0982
G01 X19.5177 Y78.0808
G01 X19.5441 Y78.0652
G01 X19.5752 Y78.0455
G01 X19.6053 Y78.0243
G01 X19.6298 Y78.0059
G01 X19.6442 Y77.9944
G01 X19.6721 Y77.9703
G01 X19.6946 Y77.9496
G01 X19.7207 Y77.9235
G01 X19.7536 Y77.8872
G01 X19.7770 Y77.8587
G01 X19.8062 Y77.8193
G01 X19.8267 Y77.7887
G01 X19.8519 Y77.7466
G01 X19.8693 Y77.7141
G01 X19.8826 Y77.6865
G01 X19.8975 Y77.6528
G01 X19.9108 Y77.6185
G01 X19.9209 Y77.5895
G01 X19.9264 Y77.5720
G01 X19.9316 Y77.5543
G01 X19.9392 Y77.5246
G01 X19.9473 Y77.4887
G01 X19.9507 Y77.4706
G01 X19.9554 Y77.4403
G01 X19.9599 Y77.4037
G01 X19.9626 Y77.3670
G01 X19.9639 Y77.3364
G01 X19.9641 Y77.3180
G01 X19.9641 Y69.0531
G01 X77.1850 Y69.0531
G01 X77.2126 Y69.0526
G01 X77.2340 Y69.0516
G01 X77.2707 Y69.0489
G01 X77.3073 Y69.0444
G01 X77.3376 Y69.0397
G01 X77.3737 Y69.0325
G01 X77.4213 Y69.0206
G01 X77.4565 Y69.0099
G01 X77.4855 Y68.9998
G01 X77.5198 Y68.9865
G01 X77.5535 Y68.9716
G01 X77.5811 Y68.9583
G01 X77.5975 Y68.9498
G01 X77.6295 Y68.9316
G01 X77.6557 Y68.9157
G01 X77.6863 Y68.8952
G01 X77.7257 Y68.8660
G01 X77.7542 Y68.8426
G01 X77.7771 Y68.8222
G01 X77.8037 Y68.7968
G01 X77.8291 Y68.7702
G01 X77.8495 Y68.7473
G01 X77.8614 Y68.7332
G01 X77.8840 Y68.7042
G01 X77.9021 Y68.6794
G01 X77.9226 Y68.6488
G01 X77.9386 Y68.6226
G01 X77.9567 Y68.5906
G01 X77.9732 Y68.5577
G01 X77.9862 Y68.5298
G01 X78.0002 Y68.4958
G01 X78.0108 Y68.4670
G01 X78.0223 Y68.4321
G01 X78.0322 Y68.3966
G01 X78.0394 Y68.3668
G01 X78.0466 Y68.3307
G01 X78.0513 Y68.3004
G01 X78.0558 Y68.2638
G01 X78.0585 Y68.2271
G01 X78.0598 Y68.1965
G01 X78.0598 Y68.1596
G01 X78.0591 Y68.1413
G01 X78.0574 Y68.1106
G01 X78.0538 Y68.0740
G01 X78.0495 Y68.0436
G01 X78.0432 Y68.0073
G01 X78.0351 Y67.9714
G01 X78.0275 Y67.9417
G01 X78.0168 Y67.9065
G01 X78.0067 Y67.8775
G01 X77.9934 Y67.8432
G01 X77.9785 Y67.8095
G01 X77.9652 Y67.7819
G01 X77.9478 Y67.7494
G01 X77.9322 Y67.7230
G01 X77.9125 Y67.6919
G01 X77.8914 Y67.6618
G01 X77.8729 Y67.6373
G01 X77.8495 Y67.6088
G01 X77.8374 Y67.5950
G01 X77.8166 Y67.5725
G01 X77.7905 Y67.5464
G01 X77.7680 Y67.5257
G01 X77.7401 Y67.5016
G01 X77.7111 Y67.4790
G01 X77.6863 Y67.4609
G01 X77.6557 Y67.4404
G01 X77.6400 Y67.4308
G01 X77.6136 Y67.4152
G01 X77.5811 Y67.3978
G01 X77.5535 Y67.3845
G01 X77.5198 Y67.3696
G01 X77.4855 Y67.3564
G01 X77.4565 Y67.3462
G01 X77.4213 Y67.3355
G01 X77.4035 Y67.3309
G01 X77.3737 Y67.3236
G01 X77.3376 Y67.3164
G01 X77.3073 Y67.3117
G01 X77.2707 Y67.3072
G01 X77.2340 Y67.3045
G01 X77.2034 Y67.3032
G01 X19.9641 Y67.3030
G01 X19.9641 Y11.2687
G01 X19.9626 Y11.2289
G01 X19.9599 Y11.1922
G01 X19.9579 Y11.1739
G01 X19.9536 Y11.1435
G01 X19.9473 Y11.1072
G01 X19.9435 Y11.0892
G01 X19.9363 Y11.0594
G01 X19.9264 Y11.0239
G01 X19.9149 Y10.9890
G01 X19.9043 Y10.9602
G01 X19.8975 Y10.9431
G01 X19.8826 Y10.9094
G01 X19.8693 Y10.8818
G01 X19.8608 Y10.8655
G01 X19.8426 Y10.8334
G01 X19.8267 Y10.8072
G01 X19.8166 Y10.7918
G01 X19.7954 Y10.7617
G01 X19.7770 Y10.7372
G01 X19.7655 Y10.7228
G01 X19.7536 Y10.7087
G01 X19.7332 Y10.6859
G01 X19.7078 Y10.6592
G01 X19.6946 Y10.6463
G01 X19.6721 Y10.6256
G01 X19.6442 Y10.6015
G01 X19.6298 Y10.5900
G01 X19.6053 Y10.5716
G01 X19.5752 Y10.5504
G01 X19.5441 Y10.5307
G01 X19.5177 Y10.5151
G01 X19.5016 Y10.5062
G01 X19.4687 Y10.4897
G01 X19.4408 Y10.4768
G01 X19.4239 Y10.4695
G01 X19.4068 Y10.4627
G01 X19.3780 Y10.4521
G01 X19.3431 Y10.4406
G01 X19.3254 Y10.4354
G01 X19.2957 Y10.4278
G01 X19.2598 Y10.4197
G01 X19.2417 Y10.4163
G01 X19.2114 Y10.4116
G01 X19.1748 Y10.4071
G01 X19.1381 Y10.4044
G01 X19.1075 Y10.4031
G01 X19.0706 Y10.4031
G01 X19.0216 Y10.4055
G01 X18.9850 Y10.4091
G01 X18.9364 Y10.4163
G01 X18.9003 Y10.4235
G01 X18.8527 Y10.4354
G01 X18.8175 Y10.4461
G01 X18.7713 Y10.4627
G01 X18.7373 Y10.4768
G01 X18.6929 Y10.4977
G01 X18.6604 Y10.5151
G01 X18.6183 Y10.5403
G01 X18.5877 Y10.5608
G01 X18.5483 Y10.5900
G01 X18.5198 Y10.6134
G01 X18.4835 Y10.6463
G01 X18.4574 Y10.6724
